;Generated by Cura LulzBot Edition GCodeWriter Version: 3.6.18
;FLAVOR:Marlin
;TIME:4471
;Filament used: 2.46709m
;Layer height: 0.25
;Generated with Cura_SteamEngine 3.6.18
M82 ;absolute extrusion mode
;This G-Code has been generated specifically for the LulzBot Mini 2 with SE 0.5mm Tool Head
M73 P0                  ; clear GLCD progress bar
M75 					; Start GLCD Print Timer
G26 					; clear potential 'probe fail' condition
M107 					; disable fans
M420 S0                 ; disable leveling matrix
G90 					; absolute positioning
M82 					; set extruder to absolute mode
G92 E0 					; set extruder position to 0
M140 S112 ; start bed heating up
G28 					; home all axes
G0 X0 Y187 Z156 F200 			; move away from endstops
M117 Mini 2 Wiping...			; progress indicator message on LCD
M109 R170 	; soften filament before retraction
G1 E-15 F75 				; retract filament
M109 R170 	; wait for extruder to reach wiping temp
G1 X45 Y176 F11520 			; move above wiper pad
G1 Z0 F1200 				; push nozzle into wiper
G1 X45 Y178 Z-.5 F4000		; wiping
G1 X55 Y176 Z-.5 F4000		; wiping
G1 X45 Y177 Z0 F4000		; wiping
G1 X55 Y176 F4000		; wiping
G1 X45 Y178 F4000		; wiping
G1 X55 Y176 F4000		; wiping
G1 X45 Y178 F4000		; wiping
G1 X55 Y176 F4000		; wiping
G1 X60 Y178 F4000		; wiping
G1 X80 Y176 F4000		; wiping
G1 X60 Y178 F4000		; wiping
G1 X80 Y176 F4000		; wiping
G1 X60 Y178 F4000		; wiping
G1 X90 Y176 F4000		; wiping
G1 X80 Y178 F4000		; wiping
G1 X100 Y176 F4000		; wiping
G1 X80 Y178 F4000		; wiping
G1 X100 Y176 F4000		; wiping
G1 X80 Y178 F4000		; wiping
G1 X100 Y176 F4000		; wiping
G1 X110 Y178 F4000		; wiping
G1 X100 Y176 F4000		; wiping
G1 X110 Y178 F4000		; wiping
G1 X100 Y176 F4000		; wiping
G1 X110 Y178 F4000		; wiping
G1 X115 Y176 Z-0.5 F1000	; wiping
G1 Z10					; raise extruder
G28 X0 Y0				; home X and Y
M109 R170	; wait for extruder to reach probe temp
M204 S300				; set probing acceleration
G29					; start auto-leveling sequence
M420 S1                     ; enable leveling matrix
M425 Z			     		; use measured Z backlash for compensation
M425 Z F0		     		; turn off measured Z backlash compensation. (if activated in the quality settings, this command will automatically be ignored)
M204 S2000				; restore standard acceleration
G1 X5 Y15 Z10 F5000			; move up off last probe point
G4 S1					; pause
M400					; wait for moves to finish
M117 Heating...				; progress indicator message on LCD
M109 R245 ; wait for extruder to reach initial printing temp
M190 R112 ; wait for bed to reach printing temp
G1 Z2 E0 F75				; prime tiny bit of filment into the nozzle
M117 Mini 2 Printing...		; progress indicator message on LCD

M221 S100 T0
G92 E0
G1 F600 E-1
;LAYER_COUNT:80
;LAYER:0
M107
G0 F2625 X14.67 Y71.452 Z0.425
;TYPE:SKIRT
G1 F600 E0
G1 F900 X15.49 Y71.31 E0.02772
G1 X16.13 Y71.255 E0.04912
G1 X145.375 Y71.254 E4.35432
G1 X145.661 Y71.265 E4.36385
G1 X146.785 Y71.351 E4.4014
G1 X147.326 Y71.432 E4.41962
G1 X147.85 Y71.592 E4.43787
G1 X148.174 Y71.735 E4.44967
G1 X148.779 Y72.037 E4.47219
G1 X149.249 Y72.316 E4.4904
G1 X149.613 Y72.605 E4.50588
G1 X149.913 Y72.875 E4.51933
G1 X150.292 Y73.27 E4.53756
G1 X150.709 Y73.89 E4.56245
G1 X151.174 Y74.757 E4.59522
G1 X151.397 Y75.257 E4.61346
G1 X151.544 Y75.784 E4.63168
G1 X151.619 Y76.518 E4.65626
G1 X151.649 Y86.646 E4.99363
G1 X151.611 Y87.192 E5.01186
G1 X151.493 Y87.727 E5.03011
G1 X151.299 Y88.238 E5.04832
G1 X150.898 Y88.909 E5.07435
G1 X150.714 Y89.154 E5.08456
G1 X150.354 Y89.566 E5.10279
G1 X149.938 Y89.922 E5.12102
G1 X149.474 Y90.214 E5.13929
G1 X148.803 Y90.491 E5.16347
G1 X148.516 Y90.578 E5.17346
G1 X147.982 Y90.698 E5.19169
G1 X147.428 Y90.739 E5.21019
G1 X15.968 Y90.74 E9.58917
G1 X15.422 Y90.7 E9.60741
G1 X14.946 Y90.598 E9.62362
G1 X14.025 Y90.337 E9.65551
G1 X13.51 Y90.15 E9.67376
G1 X13.029 Y89.89 E9.69197
G1 X12.712 Y89.663 E9.70496
G1 X12.261 Y89.304 E9.72416
G1 X11.858 Y88.933 E9.74241
G1 X11.634 Y88.67 E9.75392
G1 X11.37 Y88.33 E9.76826
G1 X11.067 Y87.874 E9.78649
G1 X10.831 Y87.375 E9.80488
G1 X10.569 Y86.693 E9.82922
G1 X10.411 Y86.169 E9.84745
G1 X10.33 Y85.627 E9.8657
G1 X10.32 Y85.348 E9.875
G1 X10.32 Y76.671 E10.16404
G1 X10.36 Y76.125 E10.18227
G1 X10.531 Y75.431 E10.20608
G1 X10.758 Y74.783 E10.22895
G1 X10.976 Y74.281 E10.24718
G1 X11.386 Y73.659 E10.272
G1 X11.81 Y73.137 E10.2944
G1 X12.185 Y72.738 E10.31264
G1 X12.789 Y72.287 E10.33775
G1 X13.378 Y71.933 E10.36064
G1 X13.867 Y71.686 E10.37889
G1 X14.386 Y71.513 E10.39711
G1 X14.67 Y71.452 E10.40679
G0 F2625 X14.755 Y71.945
G1 F900 X15.575 Y71.803 E10.43451
G1 X16.13 Y71.755 E10.45306
G1 X145.375 Y71.754 E14.75826
G1 X145.623 Y71.763 E14.76653
G1 X146.747 Y71.849 E14.80408
G1 X147.25 Y71.928 E14.82104
G1 X147.951 Y72.182 E14.84588
G1 X148.556 Y72.484 E14.8684
G1 X148.992 Y72.747 E14.88536
G1 X149.278 Y72.976 E14.89756
G1 X149.578 Y73.246 E14.91101
G1 X149.929 Y73.616 E14.928
G1 X150.268 Y74.126 E14.9484
G1 X150.733 Y74.993 E14.98117
G1 X150.938 Y75.459 E14.99813
G1 X151.067 Y75.952 E15.0151
G1 X151.119 Y76.519 E15.03407
G1 X151.149 Y86.647 E15.37144
G1 X151.111 Y87.155 E15.38841
G1 X150.993 Y87.651 E15.40539
G1 X150.8 Y88.123 E15.42237
G1 X150.498 Y88.609 E15.44143
G1 X150.314 Y88.854 E15.45164
G1 X149.977 Y89.236 E15.46861
G1 X149.584 Y89.561 E15.4856
G1 X149.146 Y89.82 E15.50255
G1 X148.658 Y90.012 E15.52001
G1 X148.371 Y90.099 E15.53
G1 X147.873 Y90.208 E15.54699
G1 X147.428 Y90.239 E15.56184
G1 X15.968 Y90.24 E19.94082
G1 X15.46 Y90.2 E19.9578
G1 X15.082 Y90.117 E19.97069
G1 X14.161 Y89.856 E20.00258
G1 X13.683 Y89.679 E20.01956
G1 X13.239 Y89.43 E20.03651
G1 X13.023 Y89.272 E20.04543
G1 X12.572 Y88.913 E20.06463
G1 X12.199 Y88.565 E20.08162
G1 X12.029 Y88.363 E20.09042
G1 X11.765 Y88.023 E20.10475
G1 X11.485 Y87.598 E20.12171
G1 X11.298 Y87.195 E20.13651
G1 X11.036 Y86.513 E20.16084
G1 X10.891 Y86.025 E20.1778
G1 X10.82 Y85.348 E20.20048
G1 X10.82 Y76.671 E20.48951
G1 X10.86 Y76.163 E20.50648
G1 X11.003 Y75.597 E20.52593
G1 X11.23 Y74.949 E20.5488
G1 X11.435 Y74.482 E20.56579
G1 X11.774 Y73.974 E20.58613
G1 X12.198 Y73.452 E20.60853
G1 X12.55 Y73.083 E20.62552
G1 X13.047 Y72.715 E20.64612
G1 X13.636 Y72.361 E20.66901
G1 X14.092 Y72.134 E20.68598
G1 X14.755 Y71.945 E20.70894
G1 F600 E19.70894
;MESH:
G0 F2625 X15.734 Y75.785
;TYPE:WALL-INNER
G1 F600 E20.70894
G1 F900 X15.9 Y75.757 E20.71455
G1 X15.986 Y75.751 E20.71742
G1 X33.74 Y75.752 E21.30881
G1 X33.595 Y75.877 E21.31519
G1 X33.454 Y76.028 E21.32207
G1 X33.319 Y76.192 E21.32915
G1 X33.12 Y76.503 E21.34145
G1 X33.025 Y76.692 E21.34849
G1 X32.952 Y76.873 E21.355
G1 X32.89 Y77.056 E21.36143
G1 X32.84 Y77.249 E21.36807
G1 X32.805 Y77.444 E21.37467
G1 X32.786 Y77.636 E21.3811
G1 X32.778 Y77.826 E21.38743
G1 X32.783 Y78.026 E21.3941
G1 X32.804 Y78.223 E21.4007
G1 X32.838 Y78.417 E21.40726
G1 X32.89 Y78.621 E21.41427
G1 X33.019 Y78.965 E21.42651
G1 X33.113 Y79.151 E21.43345
G1 X33.216 Y79.325 E21.44019
G1 X33.382 Y79.556 E21.44966
G1 X33.515 Y79.711 E21.45646
G1 X33.652 Y79.847 E21.46289
G1 X33.8 Y79.976 E21.46943
G1 X33.958 Y80.093 E21.47598
G1 X34.126 Y80.202 E21.48265
G1 X34.308 Y80.3 E21.48954
G1 X34.557 Y80.408 E21.49858
G1 X34.755 Y80.475 E21.50554
G1 X34.951 Y80.524 E21.51227
G1 X35.22 Y80.568 E21.52135
G1 X35.435 Y80.584 E21.52853
G1 X35.713 Y80.581 E21.53779
G1 X35.929 Y80.555 E21.54504
G1 X36.207 Y80.502 E21.55447
G1 X36.577 Y80.379 E21.56746
G1 X36.839 Y80.254 E21.57713
G1 X37.016 Y80.148 E21.584
G1 X37.189 Y80.029 E21.59099
G1 X37.465 Y79.788 E21.6032
G1 X37.606 Y79.637 E21.61008
G1 X37.727 Y79.486 E21.61653
G1 X37.84 Y79.324 E21.62311
G1 X37.939 Y79.157 E21.62957
G1 X38.029 Y78.981 E21.63616
G1 X38.104 Y78.796 E21.64281
G1 X38.165 Y78.612 E21.64926
G1 X38.214 Y78.423 E21.65577
G1 X38.249 Y78.228 E21.66237
G1 X38.271 Y78.022 E21.66927
G1 X38.273 Y77.658 E21.68139
G1 X38.251 Y77.447 E21.68846
G1 X38.214 Y77.239 E21.6955
G1 X38.11 Y76.889 E21.70766
G1 X38.031 Y76.694 E21.71467
G1 X37.942 Y76.519 E21.72121
G1 X37.844 Y76.352 E21.72766
G1 X37.731 Y76.188 E21.73429
G1 X37.607 Y76.035 E21.74085
G1 X37.476 Y75.894 E21.74726
G1 X37.324 Y75.753 E21.75417
G1 X55.128 Y75.754 E22.34723
G1 X55.19 Y75.76 E22.3493
G1 X55.379 Y75.801 E22.35574
G1 X55.543 Y75.863 E22.36158
G1 X55.701 Y75.948 E22.36756
G1 X55.847 Y76.057 E22.37363
G1 X55.9 Y76.106 E22.37603
G1 X56.019 Y76.24 E22.382
G1 X56.129 Y76.412 E22.3888
G1 X56.162 Y76.477 E22.39123
G1 X56.223 Y76.643 E22.39712
G1 X56.262 Y76.81 E22.40284
G1 X56.272 Y76.905 E22.40602
G1 X56.273 Y86.246 E22.71717
G1 X16.001 Y86.25 E24.05864
G1 X15.739 Y86.216 E24.06745
G1 X15.551 Y86.154 E24.07404
G1 X15.385 Y86.071 E24.08022
G1 X15.246 Y85.972 E24.08591
G1 X15.107 Y85.844 E24.0922
G1 X15.064 Y85.795 E24.09437
G1 X14.956 Y85.641 E24.10064
G1 X14.87 Y85.468 E24.10707
G1 X14.844 Y85.4 E24.1095
G1 X14.797 Y85.211 E24.11599
G1 X14.78 Y85.055 E24.12121
G1 X14.784 Y76.88 E24.39352
G1 X14.839 Y76.617 E24.40247
G1 X14.951 Y76.366 E24.41163
G1 X15.056 Y76.216 E24.41773
G1 X15.177 Y76.088 E24.4236
G1 X15.375 Y75.934 E24.43195
G1 X15.559 Y75.843 E24.43879
G1 X15.734 Y75.785 E24.44493
G1 F600 E23.44493
G0 F2625 X18.809 Y76.149
G1 F600 E24.44493
G1 F900 X18.52 Y76.222 E24.45486
G1 X18.239 Y76.319 E24.46476
G1 X17.964 Y76.436 E24.47472
G1 X17.7 Y76.574 E24.48464
G1 X17.448 Y76.73 E24.49451
G1 X17.207 Y76.907 E24.50447
G1 X16.983 Y77.101 E24.51434
G1 X16.771 Y77.311 E24.52428
G1 X16.578 Y77.539 E24.53423
G1 X16.404 Y77.778 E24.54408
G1 X16.245 Y78.032 E24.55406
G1 X16.109 Y78.298 E24.56401
G1 X15.993 Y78.569 E24.57383
G1 X15.897 Y78.852 E24.58379
G1 X15.824 Y79.142 E24.59375
G1 X15.773 Y79.435 E24.60366
G1 X15.745 Y79.733 E24.61363
G1 X15.741 Y80.031 E24.62355
G1 X15.758 Y80.327 E24.63343
G1 X15.798 Y80.622 E24.64335
G1 X15.861 Y80.912 E24.65323
G1 X15.945 Y81.198 E24.66316
G1 X16.052 Y81.476 E24.67308
G1 X16.179 Y81.748 E24.68308
G1 X16.328 Y82.005 E24.69298
G1 X16.493 Y82.25 E24.70282
G1 X16.679 Y82.485 E24.7128
G1 X16.883 Y82.704 E24.72277
G1 X17.1 Y82.905 E24.73262
G1 X17.333 Y83.09 E24.74253
G1 X17.581 Y83.257 E24.75249
G1 X17.842 Y83.404 E24.76247
G1 X18.11 Y83.53 E24.77234
G1 X18.387 Y83.635 E24.7822
G1 X18.674 Y83.72 E24.79217
G1 X18.965 Y83.782 E24.80208
G1 X19.262 Y83.821 E24.81206
G1 X19.559 Y83.837 E24.82197
G1 X19.856 Y83.832 E24.83187
G1 X20.154 Y83.803 E24.84184
G1 X20.446 Y83.751 E24.85172
G1 X20.735 Y83.678 E24.86165
G1 X21.016 Y83.581 E24.87155
G1 X21.291 Y83.464 E24.8815
G1 X21.555 Y83.326 E24.89143
G1 X21.807 Y83.17 E24.9013
G1 X22.048 Y82.993 E24.91126
G1 X22.272 Y82.799 E24.92113
G1 X22.484 Y82.589 E24.93107
G1 X22.677 Y82.361 E24.94102
G1 X22.851 Y82.122 E24.95087
G1 X23.01 Y81.868 E24.96085
G1 X23.146 Y81.602 E24.9708
G1 X23.262 Y81.331 E24.98062
G1 X23.358 Y81.048 E24.99058
G1 X23.431 Y80.758 E25.00054
G1 X23.484 Y80.453 E25.01085
G1 X23.516 Y79.952 E25.02757
G1 X23.508 Y79.728 E25.03504
G1 X23.481 Y79.436 E25.04481
G1 X23.43 Y79.143 E25.05471
G1 X23.357 Y78.853 E25.06467
G1 X23.261 Y78.57 E25.07463
G1 X23.145 Y78.299 E25.08445
G1 X23.01 Y78.034 E25.09435
G1 X22.854 Y77.782 E25.10423
G1 X22.679 Y77.541 E25.11415
G1 X22.49 Y77.318 E25.12389
G1 X22.367 Y77.19 E25.1298
G1 X22.154 Y76.995 E25.13942
G1 X21.922 Y76.81 E25.1493
G1 X21.674 Y76.643 E25.15926
G1 X21.413 Y76.496 E25.16924
G1 X21.145 Y76.37 E25.1791
G1 X20.868 Y76.265 E25.18897
G1 X20.581 Y76.18 E25.19894
G1 X20.29 Y76.118 E25.20885
G1 X19.993 Y76.079 E25.21883
G1 X19.696 Y76.063 E25.22874
G1 X19.399 Y76.068 E25.23863
G1 X19.101 Y76.097 E25.24861
G1 X18.809 Y76.149 E25.25849
G1 F600 E24.25849
G0 F2625 X47.584 Y76.644
G1 F600 E25.25849
G1 F900 X47.337 Y76.808 E25.26836
G1 X47.102 Y76.994 E25.27835
G1 X46.884 Y77.195 E25.28822
G1 X46.68 Y77.414 E25.29819
G1 X46.494 Y77.649 E25.30818
G1 X46.329 Y77.894 E25.31801
G1 X46.18 Y78.151 E25.32791
G1 X46.053 Y78.423 E25.33791
G1 X45.946 Y78.701 E25.34783
G1 X45.862 Y78.986 E25.35773
G1 X45.799 Y79.275 E25.36758
G1 X45.758 Y79.572 E25.37757
G1 X45.742 Y79.869 E25.38748
G1 X45.746 Y80.166 E25.39737
G1 X45.774 Y80.464 E25.40734
G1 X45.825 Y80.757 E25.41725
G1 X45.898 Y81.047 E25.42721
G1 X45.994 Y81.33 E25.43716
G1 X46.11 Y81.601 E25.44698
G1 X46.245 Y81.866 E25.45689
G1 X46.401 Y82.118 E25.46676
G1 X46.576 Y82.359 E25.47668
G1 X46.771 Y82.588 E25.4867
G1 X46.982 Y82.798 E25.49662
G1 X47.206 Y82.992 E25.50649
G1 X47.447 Y83.169 E25.51645
G1 X47.699 Y83.325 E25.52632
G1 X47.963 Y83.463 E25.53624
G1 X48.238 Y83.58 E25.5462
G1 X48.519 Y83.677 E25.5561
G1 X48.808 Y83.75 E25.56603
G1 X49.1 Y83.802 E25.57591
G1 X49.398 Y83.831 E25.58588
G1 X49.695 Y83.836 E25.59578
G1 X49.992 Y83.82 E25.60569
G1 X50.289 Y83.781 E25.61566
G1 X50.58 Y83.719 E25.62558
G1 X50.867 Y83.634 E25.63555
G1 X51.144 Y83.529 E25.64541
G1 X51.413 Y83.402 E25.65532
G1 X51.671 Y83.256 E25.6652
G1 X51.918 Y83.092 E25.67507
G1 X52.153 Y82.906 E25.68506
G1 X52.371 Y82.705 E25.69493
G1 X52.575 Y82.486 E25.7049
G1 X52.761 Y82.251 E25.71489
G1 X52.926 Y82.006 E25.72473
G1 X53.075 Y81.749 E25.73462
G1 X53.202 Y81.477 E25.74462
G1 X53.309 Y81.199 E25.75454
G1 X53.393 Y80.913 E25.76447
G1 X53.456 Y80.623 E25.77436
G1 X53.496 Y80.325 E25.78437
G1 X53.516 Y79.915 E25.79805
G1 X53.497 Y79.574 E25.80942
G1 X53.457 Y79.278 E25.81937
G1 X53.394 Y78.988 E25.82926
G1 X53.31 Y78.702 E25.83919
G1 X53.203 Y78.424 E25.84911
G1 X53.076 Y78.152 E25.85911
G1 X52.927 Y77.895 E25.869
G1 X52.762 Y77.65 E25.87884
G1 X52.572 Y77.409 E25.88907
G1 X52.279 Y77.106 E25.90311
G1 X52.049 Y76.907 E25.91324
G1 X51.808 Y76.731 E25.92318
G1 X51.556 Y76.575 E25.93305
G1 X51.292 Y76.437 E25.94297
G1 X51.017 Y76.32 E25.95293
G1 X50.736 Y76.223 E25.96283
G1 X50.447 Y76.15 E25.97276
G1 X50.155 Y76.098 E25.98264
G1 X49.857 Y76.069 E25.99261
G1 X49.56 Y76.064 E26.00251
G1 X49.263 Y76.08 E26.01241
G1 X48.966 Y76.119 E26.02239
G1 X48.675 Y76.181 E26.0323
G1 X48.388 Y76.266 E26.04227
G1 X48.111 Y76.371 E26.05214
G1 X47.842 Y76.498 E26.06205
G1 X47.584 Y76.644 E26.07193
G1 F600 E25.07193
G0 F2625 X15.711 Y75.279
;TYPE:WALL-OUTER
G1 F600 E26.07193
G1 F900 X15.853 Y75.259 E26.0767
G1 X15.964 Y75.251 E26.08041
G1 X55.15 Y75.254 E27.38571
G1 X55.276 Y75.267 E27.38993
G1 X55.516 Y75.319 E27.39811
G1 X55.751 Y75.407 E27.40647
G1 X55.972 Y75.526 E27.41483
G1 X56.164 Y75.67 E27.42282
G1 X56.263 Y75.761 E27.4273
G1 X56.419 Y75.938 E27.43516
G1 X56.565 Y76.166 E27.44418
G1 X56.619 Y76.272 E27.44814
G1 X56.702 Y76.497 E27.45613
G1 X56.735 Y76.624 E27.4605
G1 X56.757 Y76.74 E27.46443
G1 X56.772 Y76.88 E27.46912
G1 X56.773 Y86.546 E27.7911
G1 X56.756 Y86.602 E27.79305
G1 X56.687 Y86.69 E27.79678
G1 X56.629 Y86.727 E27.79907
G1 X56.564 Y86.746 E27.80132
G1 X15.978 Y86.75 E29.15326
G1 X15.711 Y86.722 E29.1622
G1 X15.605 Y86.699 E29.16581
G1 X15.361 Y86.618 E29.17438
G1 X15.13 Y86.503 E29.18297
G1 X14.928 Y86.36 E29.19122
G1 X14.748 Y86.193 E29.1994
G1 X14.669 Y86.103 E29.20339
G1 X14.527 Y85.9 E29.21164
G1 X14.411 Y85.668 E29.22028
G1 X14.366 Y85.548 E29.22455
G1 X14.305 Y85.306 E29.23286
G1 X14.288 Y85.19 E29.23677
G1 X14.28 Y85.076 E29.24057
G1 X14.279 Y76.925 E29.51208
G1 X14.287 Y76.818 E29.51566
G1 X14.335 Y76.558 E29.52447
G1 X14.366 Y76.452 E29.52814
G1 X14.469 Y76.206 E29.53703
G1 X14.523 Y76.106 E29.54081
G1 X14.668 Y75.898 E29.54926
G1 X14.835 Y75.721 E29.55737
G1 X15.042 Y75.554 E29.56623
G1 X15.129 Y75.498 E29.56967
G1 X15.369 Y75.379 E29.5786
G1 X15.603 Y75.302 E29.5868
G1 X15.711 Y75.279 E29.59048
G0 F2625 X15.853 Y75.259
G0 X15.96 Y75.252
G1 F600 E28.59048
G0 F2625 X18.914 Y76.638
G1 F600 E29.59048
G1 F900 X18.663 Y76.702 E29.59911
G1 X18.418 Y76.786 E29.60774
G1 X18.178 Y76.888 E29.61642
G1 X17.948 Y77.008 E29.62506
G1 X17.728 Y77.145 E29.6337
G1 X17.519 Y77.298 E29.64232
G1 X17.323 Y77.468 E29.65097
G1 X17.139 Y77.651 E29.65961
G1 X16.971 Y77.849 E29.66826
G1 X16.818 Y78.058 E29.67689
G1 X16.68 Y78.279 E29.68557
G1 X16.562 Y78.51 E29.69421
G1 X16.46 Y78.748 E29.70283
G1 X16.377 Y78.994 E29.71148
G1 X16.313 Y79.246 E29.72014
G1 X16.269 Y79.501 E29.72876
G1 X16.245 Y79.76 E29.73743
G1 X16.241 Y80.02 E29.74609
G1 X16.256 Y80.279 E29.75473
G1 X16.291 Y80.535 E29.76334
