(Exported by FreeCAD)
(Post Processor: linuxcnc_post)
(Output Time:2019-04-19 08:07:41.802395)
(begin preamble)
G17 G54 G40 G49 G80 G90
G21
M8
(begin operation: T4: 12mm Endmill)
(machine: not set, mm/min)
(T4: 12mm Endmill)
M6 T4 G43 H4
M3 S3000
(finish operation: T4: 12mm Endmill)
(begin operation: Profile_Edges)
(machine: not set, mm/min)
(Profile_Edges)
(Compensated Tool Path. Diameter: 12.0)
G0 Z5.000
G0 X47.069 Y-2.526
G0 Z3.000
G1 X47.069 Y-2.526 Z-0.500 F30.000
G2 X50.946 Y-9.085 Z-0.500 I-3.641 J-6.578 F720.000
G2 X49.772 Y-13.001 Z-0.500 I-6.049 J-0.320 F720.000
G2 X50.946 Y-16.550 Z-0.500 I-4.722 J-3.531 F720.000
G2 X43.446 Y-24.415 Z-0.500 I-7.524 J-0.334 F720.000
G1 X31.582 Y-24.415 Z-0.500 F720.000
G1 X30.750 Y-25.246 Z-0.500 F720.000
G2 X23.096 Y-30.951 Z-0.500 I-7.667 J2.299 F720.000
G1 X17.742 Y-30.951 Z-0.500 F720.000
G2 X12.006 Y-28.515 Z-0.500 I-0.009 J7.949 F720.000
G1 X3.196 Y-28.515 Z-0.500 F720.000
G2 X-4.804 Y-20.515 Z-0.500 I0.000 J8.000 F720.000
G1 X-4.804 Y-11.485 Z-0.500 F720.000
G2 X5.196 Y-1.485 Z-0.500 I10.012 J-0.012 F720.000
G1 X9.256 Y-1.485 Z-0.500 F720.000
G1 X10.132 Y-0.609 Z-0.500 F720.000
G2 X17.742 Y4.951 Z-0.500 I7.624 J-2.447 F720.000
G1 X23.096 Y4.951 Z-0.500 F720.000
G2 X30.750 Y-0.754 Z-0.500 I-0.013 J-8.004 F720.000
G1 X31.582 Y-1.585 Z-0.500 F720.000
G1 X43.446 Y-1.585 Z-0.500 F720.000
G2 X47.069 Y-2.526 Z-0.500 I-0.018 J-7.518 F720.000
G1 X47.069 Y-2.526 Z-1.000 F30.000
G2 X50.946 Y-9.085 Z-1.000 I-3.641 J-6.578 F720.000
G2 X49.772 Y-13.001 Z-1.000 I-6.049 J-0.320 F720.000
G2 X50.946 Y-16.550 Z-1.000 I-4.722 J-3.531 F720.000
G2 X43.446 Y-24.415 Z-1.000 I-7.524 J-0.334 F720.000
G1 X31.582 Y-24.415 Z-1.000 F720.000
G1 X30.750 Y-25.246 Z-1.000 F720.000
G2 X23.096 Y-30.951 Z-1.000 I-7.667 J2.299 F720.000
G1 X17.742 Y-30.951 Z-1.000 F720.000
G2 X12.006 Y-28.515 Z-1.000 I-0.009 J7.949 F720.000
G1 X3.196 Y-28.515 Z-1.000 F720.000
G2 X-4.804 Y-20.515 Z-1.000 I0.000 J8.000 F720.000
G1 X-4.804 Y-11.485 Z-1.000 F720.000
G2 X5.196 Y-1.485 Z-1.000 I10.012 J-0.012 F720.000
G1 X9.256 Y-1.485 Z-1.000 F720.000
G1 X10.132 Y-0.609 Z-1.000 F720.000
G2 X17.742 Y4.951 Z-1.000 I7.624 J-2.447 F720.000
G1 X23.096 Y4.951 Z-1.000 F720.000
G2 X30.750 Y-0.754 Z-1.000 I-0.013 J-8.004 F720.000
G1 X31.582 Y-1.585 Z-1.000 F720.000
G1 X43.446 Y-1.585 Z-1.000 F720.000
G2 X47.069 Y-2.526 Z-1.000 I-0.018 J-7.518 F720.000
G1 X47.069 Y-2.526 Z-1.500 F30.000
G2 X50.946 Y-9.085 Z-1.500 I-3.641 J-6.578 F720.000
G2 X49.772 Y-13.001 Z-1.500 I-6.049 J-0.320 F720.000
G2 X50.946 Y-16.550 Z-1.500 I-4.722 J-3.531 F720.000
G2 X43.446 Y-24.415 Z-1.500 I-7.524 J-0.334 F720.000
G1 X31.582 Y-24.415 Z-1.500 F720.000
G1 X30.750 Y-25.246 Z-1.500 F720.000
G2 X23.096 Y-30.951 Z-1.500 I-7.667 J2.299 F720.000
G1 X17.742 Y-30.951 Z-1.500 F720.000
G2 X12.006 Y-28.515 Z-1.500 I-0.009 J7.949 F720.000
G1 X3.196 Y-28.515 Z-1.500 F720.000
G2 X-4.804 Y-20.515 Z-1.500 I0.000 J8.000 F720.000
G1 X-4.804 Y-11.485 Z-1.500 F720.000
G2 X5.196 Y-1.485 Z-1.500 I10.012 J-0.012 F720.000
G1 X9.256 Y-1.485 Z-1.500 F720.000
G1 X10.132 Y-0.609 Z-1.500 F720.000
G2 X17.742 Y4.951 Z-1.500 I7.624 J-2.447 F720.000
G1 X23.096 Y4.951 Z-1.500 F720.000
G2 X30.750 Y-0.754 Z-1.500 I-0.013 J-8.004 F720.000
G1 X31.582 Y-1.585 Z-1.500 F720.000
G1 X43.446 Y-1.585 Z-1.500 F720.000
G2 X47.069 Y-2.526 Z-1.500 I-0.018 J-7.518 F720.000
G1 X47.069 Y-2.526 Z-2.000 F30.000
G2 X50.946 Y-9.085 Z-2.000 I-3.641 J-6.578 F720.000
G2 X49.772 Y-13.001 Z-2.000 I-6.049 J-0.320 F720.000
G2 X50.946 Y-16.550 Z-2.000 I-4.722 J-3.531 F720.000
G2 X43.446 Y-24.415 Z-2.000 I-7.524 J-0.334 F720.000
G1 X31.582 Y-24.415 Z-2.000 F720.000
G1 X30.750 Y-25.246 Z-2.000 F720.000
G2 X23.096 Y-30.951 Z-2.000 I-7.667 J2.299 F720.000
G1 X17.742 Y-30.951 Z-2.000 F720.000
G2 X12.006 Y-28.515 Z-2.000 I-0.009 J7.949 F720.000
G1 X3.196 Y-28.515 Z-2.000 F720.000
G2 X-4.804 Y-20.515 Z-2.000 I0.000 J8.000 F720.000
G1 X-4.804 Y-11.485 Z-2.000 F720.000
G2 X5.196 Y-1.485 Z-2.000 I10.012 J-0.012 F720.000
G1 X9.256 Y-1.485 Z-2.000 F720.000
G1 X10.132 Y-0.609 Z-2.000 F720.000
G2 X17.742 Y4.951 Z-2.000 I7.624 J-2.447 F720.000
G1 X23.096 Y4.951 Z-2.000 F720.000
G2 X30.750 Y-0.754 Z-2.000 I-0.013 J-8.004 F720.000
G1 X31.582 Y-1.585 Z-2.000 F720.000
G1 X43.446 Y-1.585 Z-2.000 F720.000
G2 X47.069 Y-2.526 Z-2.000 I-0.018 J-7.518 F720.000
G1 X47.069 Y-2.526 Z-2.500 F30.000
G2 X50.946 Y-9.085 Z-2.500 I-3.641 J-6.578 F720.000
G2 X49.772 Y-13.001 Z-2.500 I-6.049 J-0.320 F720.000
G2 X50.946 Y-16.550 Z-2.500 I-4.722 J-3.531 F720.000
G2 X43.446 Y-24.415 Z-2.500 I-7.524 J-0.334 F720.000
G1 X31.582 Y-24.415 Z-2.500 F720.000
G1 X30.750 Y-25.246 Z-2.500 F720.000
G2 X23.096 Y-30.951 Z-2.500 I-7.667 J2.299 F720.000
G1 X17.742 Y-30.951 Z-2.500 F720.000
G2 X12.006 Y-28.515 Z-2.500 I-0.009 J7.949 F720.000
G1 X3.196 Y-28.515 Z-2.500 F720.000
G2 X-4.804 Y-20.515 Z-2.500 I0.000 J8.000 F720.000
G1 X-4.804 Y-11.485 Z-2.500 F720.000
G2 X5.196 Y-1.485 Z-2.500 I10.012 J-0.012 F720.000
G1 X9.256 Y-1.485 Z-2.500 F720.000
G1 X10.132 Y-0.609 Z-2.500 F720.000
G2 X17.742 Y4.951 Z-2.500 I7.624 J-2.447 F720.000
G1 X23.096 Y4.951 Z-2.500 F720.000
G2 X30.750 Y-0.754 Z-2.500 I-0.013 J-8.004 F720.000
G1 X31.582 Y-1.585 Z-2.500 F720.000
G1 X43.446 Y-1.585 Z-2.500 F720.000
G2 X47.069 Y-2.526 Z-2.500 I-0.018 J-7.518 F720.000
G1 X47.069 Y-2.526 Z-3.000 F30.000
G2 X50.946 Y-9.085 Z-3.000 I-3.641 J-6.578 F720.000
G2 X49.772 Y-13.001 Z-3.000 I-6.049 J-0.320 F720.000
G2 X50.946 Y-16.550 Z-3.000 I-4.722 J-3.531 F720.000
G2 X43.446 Y-24.415 Z-3.000 I-7.524 J-0.334 F720.000
G1 X31.582 Y-24.415 Z-3.000 F720.000
G1 X30.750 Y-25.246 Z-3.000 F720.000
G2 X23.096 Y-30.951 Z-3.000 I-7.667 J2.299 F720.000
G1 X17.742 Y-30.951 Z-3.000 F720.000
G2 X12.006 Y-28.515 Z-3.000 I-0.009 J7.949 F720.000
G1 X3.196 Y-28.515 Z-3.000 F720.000
G2 X-4.804 Y-20.515 Z-3.000 I0.000 J8.000 F720.000
G1 X-4.804 Y-11.485 Z-3.000 F720.000
G2 X5.196 Y-1.485 Z-3.000 I10.012 J-0.012 F720.000
G1 X9.256 Y-1.485 Z-3.000 F720.000
G1 X10.132 Y-0.609 Z-3.000 F720.000
G2 X17.742 Y4.951 Z-3.000 I7.624 J-2.447 F720.000
G1 X23.096 Y4.951 Z-3.000 F720.000
G2 X30.750 Y-0.754 Z-3.000 I-0.013 J-8.004 F720.000
G1 X31.582 Y-1.585 Z-3.000 F720.000
G1 X43.446 Y-1.585 Z-3.000 F720.000
G2 X47.069 Y-2.526 Z-3.000 I-0.018 J-7.518 F720.000
G1 X47.069 Y-2.526 Z-3.500 F30.000
G2 X50.946 Y-9.085 Z-3.500 I-3.641 J-6.578 F720.000
G2 X49.772 Y-13.001 Z-3.500 I-6.049 J-0.320 F720.000
G2 X50.946 Y-16.550 Z-3.500 I-4.722 J-3.531 F720.000
G2 X43.446 Y-24.415 Z-3.500 I-7.524 J-0.334 F720.000
G1 X31.582 Y-24.415 Z-3.500 F720.000
G1 X30.750 Y-25.246 Z-3.500 F720.000
G2 X23.096 Y-30.951 Z-3.500 I-7.667 J2.299 F720.000
G1 X17.742 Y-30.951 Z-3.500 F720.000
G2 X12.006 Y-28.515 Z-3.500 I-0.009 J7.949 F720.000
G1 X3.196 Y-28.515 Z-3.500 F720.000
G2 X-4.804 Y-20.515 Z-3.500 I0.000 J8.000 F720.000
G1 X-4.804 Y-11.485 Z-3.500 F720.000
G2 X5.196 Y-1.485 Z-3.500 I10.012 J-0.012 F720.000
G1 X9.256 Y-1.485 Z-3.500 F720.000
G1 X10.132 Y-0.609 Z-3.500 F720.000
G2 X17.742 Y4.951 Z-3.500 I7.624 J-2.447 F720.000
G1 X23.096 Y4.951 Z-3.500 F720.000
G2 X30.750 Y-0.754 Z-3.500 I-0.013 J-8.004 F720.000
G1 X31.582 Y-1.585 Z-3.500 F720.000
G1 X43.446 Y-1.585 Z-3.500 F720.000
G2 X47.069 Y-2.526 Z-3.500 I-0.018 J-7.518 F720.000
G1 X47.069 Y-2.526 Z-4.000 F30.000
G2 X50.946 Y-9.085 Z-4.000 I-3.641 J-6.578 F720.000
G2 X49.772 Y-13.001 Z-4.000 I-6.049 J-0.320 F720.000
G2 X50.946 Y-16.550 Z-4.000 I-4.722 J-3.531 F720.000
G2 X43.446 Y-24.415 Z-4.000 I-7.524 J-0.334 F720.000
G1 X31.582 Y-24.415 Z-4.000 F720.000
G1 X30.750 Y-25.246 Z-4.000 F720.000
G2 X23.096 Y-30.951 Z-4.000 I-7.667 J2.299 F720.000
G1 X17.742 Y-30.951 Z-4.000 F720.000
G2 X12.006 Y-28.515 Z-4.000 I-0.009 J7.949 F720.000
G1 X3.196 Y-28.515 Z-4.000 F720.000
G2 X-4.804 Y-20.515 Z-4.000 I0.000 J8.000 F720.000
G1 X-4.804 Y-11.485 Z-4.000 F720.000
G2 X5.196 Y-1.485 Z-4.000 I10.012 J-0.012 F720.000
G1 X9.256 Y-1.485 Z-4.000 F720.000
G1 X10.132 Y-0.609 Z-4.000 F720.000
G2 X17.742 Y4.951 Z-4.000 I7.624 J-2.447 F720.000
G1 X23.096 Y4.951 Z-4.000 F720.000
G2 X30.750 Y-0.754 Z-4.000 I-0.013 J-8.004 F720.000
G1 X31.582 Y-1.585 Z-4.000 F720.000
G1 X43.446 Y-1.585 Z-4.000 F720.000
G2 X47.069 Y-2.526 Z-4.000 I-0.018 J-7.518 F720.000
G1 X47.069 Y-2.526 Z-4.500 F30.000
G2 X50.946 Y-9.085 Z-4.500 I-3.641 J-6.578 F720.000
G2 X49.772 Y-13.001 Z-4.500 I-6.049 J-0.320 F720.000
G2 X50.946 Y-16.550 Z-4.500 I-4.722 J-3.531 F720.000
G2 X43.446 Y-24.415 Z-4.500 I-7.524 J-0.334 F720.000
G1 X31.582 Y-24.415 Z-4.500 F720.000
G1 X30.750 Y-25.246 Z-4.500 F720.000
G2 X23.096 Y-30.951 Z-4.500 I-7.667 J2.299 F720.000
G1 X17.742 Y-30.951 Z-4.500 F720.000
G2 X12.006 Y-28.515 Z-4.500 I-0.009 J7.949 F720.000
G1 X3.196 Y-28.515 Z-4.500 F720.000
G2 X-4.804 Y-20.515 Z-4.500 I0.000 J8.000 F720.000
G1 X-4.804 Y-11.485 Z-4.500 F720.000
G2 X5.196 Y-1.485 Z-4.500 I10.012 J-0.012 F720.000
G1 X9.256 Y-1.485 Z-4.500 F720.000
G1 X10.132 Y-0.609 Z-4.500 F720.000
G2 X17.742 Y4.951 Z-4.500 I7.624 J-2.447 F720.000
G1 X23.096 Y4.951 Z-4.500 F720.000
G2 X30.750 Y-0.754 Z-4.500 I-0.013 J-8.004 F720.000
G1 X31.582 Y-1.585 Z-4.500 F720.000
G1 X43.446 Y-1.585 Z-4.500 F720.000
G2 X47.069 Y-2.526 Z-4.500 I-0.018 J-7.518 F720.000
G1 X47.069 Y-2.526 Z-5.000 F30.000
G2 X50.946 Y-9.085 Z-5.000 I-3.641 J-6.578 F720.000
G2 X49.772 Y-13.001 Z-5.000 I-6.049 J-0.320 F720.000
G2 X50.946 Y-16.550 Z-5.000 I-4.722 J-3.531 F720.000
G2 X43.446 Y-24.415 Z-5.000 I-7.524 J-0.334 F720.000
G1 X31.582 Y-24.415 Z-5.000 F720.000
G1 X30.750 Y-25.246 Z-5.000 F720.000
G2 X23.096 Y-30.951 Z-5.000 I-7.667 J2.299 F720.000
G1 X17.742 Y-30.951 Z-5.000 F720.000
G2 X12.006 Y-28.515 Z-5.000 I-0.009 J7.949 F720.000
G1 X3.196 Y-28.515 Z-5.000 F720.000
G2 X-4.804 Y-20.515 Z-5.000 I0.000 J8.000 F720.000
G1 X-4.804 Y-11.485 Z-5.000 F720.000
G2 X5.196 Y-1.485 Z-5.000 I10.012 J-0.012 F720.000
G1 X9.256 Y-1.485 Z-5.000 F720.000
G1 X10.132 Y-0.609 Z-5.000 F720.000
G2 X17.742 Y4.951 Z-5.000 I7.624 J-2.447 F720.000
G1 X23.096 Y4.951 Z-5.000 F720.000
G2 X30.750 Y-0.754 Z-5.000 I-0.013 J-8.004 F720.000
G1 X31.582 Y-1.585 Z-5.000 F720.000
G1 X43.446 Y-1.585 Z-5.000 F720.000
G2 X47.069 Y-2.526 Z-5.000 I-0.018 J-7.518 F720.000
G1 X47.069 Y-2.526 Z-5.500 F30.000
G2 X50.946 Y-9.085 Z-5.500 I-3.641 J-6.578 F720.000
G2 X49.772 Y-13.001 Z-5.500 I-6.049 J-0.320 F720.000
G2 X50.946 Y-16.550 Z-5.500 I-4.722 J-3.531 F720.000
G2 X43.446 Y-24.415 Z-5.500 I-7.524 J-0.334 F720.000
G1 X31.582 Y-24.415 Z-5.500 F720.000
G1 X30.750 Y-25.246 Z-5.500 F720.000
G2 X23.096 Y-30.951 Z-5.500 I-7.667 J2.299 F720.000
G1 X17.742 Y-30.951 Z-5.500 F720.000
G2 X12.006 Y-28.515 Z-5.500 I-0.009 J7.949 F720.000
G1 X3.196 Y-28.515 Z-5.500 F720.000
G2 X-4.804 Y-20.515 Z-5.500 I0.000 J8.000 F720.000
G1 X-4.804 Y-11.485 Z-5.500 F720.000
G2 X5.196 Y-1.485 Z-5.500 I10.012 J-0.012 F720.000
G1 X9.256 Y-1.485 Z-5.500 F720.000
G1 X10.132 Y-0.609 Z-5.500 F720.000
G2 X17.742 Y4.951 Z-5.500 I7.624 J-2.447 F720.000
G1 X23.096 Y4.951 Z-5.500 F720.000
G2 X30.750 Y-0.754 Z-5.500 I-0.013 J-8.004 F720.000
G1 X31.582 Y-1.585 Z-5.500 F720.000
G1 X43.446 Y-1.585 Z-5.500 F720.000
G2 X47.069 Y-2.526 Z-5.500 I-0.018 J-7.518 F720.000
G1 X47.069 Y-2.526 Z-6.000 F30.000
G2 X50.946 Y-9.085 Z-6.000 I-3.641 J-6.578 F720.000
G2 X49.772 Y-13.001 Z-6.000 I-6.049 J-0.320 F720.000
G2 X50.946 Y-16.550 Z-6.000 I-4.722 J-3.531 F720.000
G2 X43.446 Y-24.415 Z-6.000 I-7.524 J-0.334 F720.000
G1 X31.582 Y-24.415 Z-6.000 F720.000
G1 X30.750 Y-25.246 Z-6.000 F720.000
G2 X23.096 Y-30.951 Z-6.000 I-7.667 J2.299 F720.000
G1 X17.742 Y-30.951 Z-6.000 F720.000
G2 X12.006 Y-28.515 Z-6.000 I-0.009 J7.949 F720.000
G1 X3.196 Y-28.515 Z-6.000 F720.000
G2 X-4.804 Y-20.515 Z-6.000 I0.000 J8.000 F720.000
G1 X-4.804 Y-11.485 Z-6.000 F720.000
G2 X5.196 Y-1.485 Z-6.000 I10.012 J-0.012 F720.000
G1 X9.256 Y-1.485 Z-6.000 F720.000
G1 X10.132 Y-0.609 Z-6.000 F720.000
G2 X17.742 Y4.951 Z-6.000 I7.624 J-2.447 F720.000
G1 X23.096 Y4.951 Z-6.000 F720.000
G2 X30.750 Y-0.754 Z-6.000 I-0.013 J-8.004 F720.000
G1 X31.582 Y-1.585 Z-6.000 F720.000
G1 X43.446 Y-1.585 Z-6.000 F720.000
G2 X47.069 Y-2.526 Z-6.000 I-0.018 J-7.518 F720.000
G1 X47.069 Y-2.526 Z-6.500 F30.000
G2 X50.946 Y-9.085 Z-6.500 I-3.641 J-6.578 F720.000
G2 X49.772 Y-13.001 Z-6.500 I-6.049 J-0.320 F720.000
G2 X50.946 Y-16.550 Z-6.500 I-4.722 J-3.531 F720.000
G2 X43.446 Y-24.415 Z-6.500 I-7.524 J-0.334 F720.000
G1 X31.582 Y-24.415 Z-6.500 F720.000
G1 X30.750 Y-25.246 Z-6.500 F720.000
G2 X23.096 Y-30.951 Z-6.500 I-7.667 J2.299 F720.000
G1 X17.742 Y-30.951 Z-6.500 F720.000
G2 X12.006 Y-28.515 Z-6.500 I-0.009 J7.949 F720.000
G1 X3.196 Y-28.515 Z-6.500 F720.000
G2 X-4.804 Y-20.515 Z-6.500 I0.000 J8.000 F720.000
G1 X-4.804 Y-11.485 Z-6.500 F720.000
G2 X5.196 Y-1.485 Z-6.500 I10.012 J-0.012 F720.000
G1 X9.256 Y-1.485 Z-6.500 F720.000
G1 X10.132 Y-0.609 Z-6.500 F720.000
G2 X17.742 Y4.951 Z-6.500 I7.624 J-2.447 F720.000
G1 X23.096 Y4.951 Z-6.500 F720.000
G2 X30.750 Y-0.754 Z-6.500 I-0.013 J-8.004 F720.000
G1 X31.582 Y-1.585 Z-6.500 F720.000
G1 X43.446 Y-1.585 Z-6.500 F720.000
G2 X47.069 Y-2.526 Z-6.500 I-0.018 J-7.518 F720.000
G1 X47.069 Y-2.526 Z-7.000 F30.000
G2 X50.946 Y-9.085 Z-7.000 I-3.641 J-6.578 F720.000
G2 X49.772 Y-13.001 Z-7.000 I-6.049 J-0.320 F720.000
G2 X50.946 Y-16.550 Z-7.000 I-4.722 J-3.531 F720.000
G2 X43.446 Y-24.415 Z-7.000 I-7.524 J-0.334 F720.000
G1 X31.582 Y-24.415 Z-7.000 F720.000
G1 X30.750 Y-25.246 Z-7.000 F720.000
G2 X23.096 Y-30.951 Z-7.000 I-7.667 J2.299 F720.000
G1 X17.742 Y-30.951 Z-7.000 F720.000
G2 X12.006 Y-28.515 Z-7.000 I-0.009 J7.949 F720.000
G1 X3.196 Y-28.515 Z-7.000 F720.000
G2 X-4.804 Y-20.515 Z-7.000 I0.000 J8.000 F720.000
G1 X-4.804 Y-11.485 Z-7.000 F720.000
G2 X5.196 Y-1.485 Z-7.000 I10.012 J-0.012 F720.000
G1 X9.256 Y-1.485 Z-7.000 F720.000
G1 X10.132 Y-0.609 Z-7.000 F720.000
G2 X17.742 Y4.951 Z-7.000 I7.624 J-2.447 F720.000
G1 X23.096 Y4.951 Z-7.000 F720.000
G2 X30.750 Y-0.754 Z-7.000 I-0.013 J-8.004 F720.000
G1 X31.582 Y-1.585 Z-7.000 F720.000
G1 X43.446 Y-1.585 Z-7.000 F720.000
G2 X47.069 Y-2.526 Z-7.000 I-0.018 J-7.518 F720.000
G1 X47.069 Y-2.526 Z-7.500 F30.000
G2 X50.946 Y-9.085 Z-7.500 I-3.641 J-6.578 F720.000
G2 X49.772 Y-13.001 Z-7.500 I-6.049 J-0.320 F720.000
G2 X50.946 Y-16.550 Z-7.500 I-4.722 J-3.531 F720.000
G2 X43.446 Y-24.415 Z-7.500 I-7.524 J-0.334 F720.000
G1 X31.582 Y-24.415 Z-7.500 F720.000
G1 X30.750 Y-25.246 Z-7.500 F720.000
G2 X23.096 Y-30.951 Z-7.500 I-7.667 J2.299 F720.000
G1 X17.742 Y-30.951 Z-7.500 F720.000
G2 X12.006 Y-28.515 Z-7.500 I-0.009 J7.949 F720.000
G1 X3.196 Y-28.515 Z-7.500 F720.000
G2 X-4.804 Y-20.515 Z-7.500 I0.000 J8.000 F720.000
G1 X-4.804 Y-11.485 Z-7.500 F720.000
G2 X5.196 Y-1.485 Z-7.500 I10.012 J-0.012 F720.000
G1 X9.256 Y-1.485 Z-7.500 F720.000
G1 X10.132 Y-0.609 Z-7.500 F720.000
G2 X17.742 Y4.951 Z-7.500 I7.624 J-2.447 F720.000
G1 X23.096 Y4.951 Z-7.500 F720.000
G2 X30.750 Y-0.754 Z-7.500 I-0.013 J-8.004 F720.000
G1 X31.582 Y-1.585 Z-7.500 F720.000
G1 X43.446 Y-1.585 Z-7.500 F720.000
G2 X47.069 Y-2.526 Z-7.500 I-0.018 J-7.518 F720.000
G1 X47.069 Y-2.526 Z-8.000 F30.000
G2 X50.946 Y-9.085 Z-8.000 I-3.641 J-6.578 F720.000
G2 X49.772 Y-13.001 Z-8.000 I-6.049 J-0.320 F720.000
G2 X50.946 Y-16.550 Z-8.000 I-4.722 J-3.531 F720.000
G2 X43.446 Y-24.415 Z-8.000 I-7.524 J-0.334 F720.000
G1 X31.582 Y-24.415 Z-8.000 F720.000
G1 X30.750 Y-25.246 Z-8.000 F720.000
G2 X23.096 Y-30.951 Z-8.000 I-7.667 J2.299 F720.000
G1 X17.742 Y-30.951 Z-8.000 F720.000
G2 X12.006 Y-28.515 Z-8.000 I-0.009 J7.949 F720.000
G1 X3.196 Y-28.515 Z-8.000 F720.000
G2 X-4.804 Y-20.515 Z-8.000 I0.000 J8.000 F720.000
G1 X-4.804 Y-11.485 Z-8.000 F720.000
G2 X5.196 Y-1.485 Z-8.000 I10.012 J-0.012 F720.000
G1 X9.256 Y-1.485 Z-8.000 F720.000
G1 X10.132 Y-0.609 Z-8.000 F720.000
G2 X17.742 Y4.951 Z-8.000 I7.624 J-2.447 F720.000
G1 X23.096 Y4.951 Z-8.000 F720.000
G2 X30.750 Y-0.754 Z-8.000 I-0.013 J-8.004 F720.000
G1 X31.582 Y-1.585 Z-8.000 F720.000
G1 X43.446 Y-1.585 Z-8.000 F720.000
G2 X47.069 Y-2.526 Z-8.000 I-0.018 J-7.518 F720.000
G1 X47.069 Y-2.526 Z-8.500 F30.000
G2 X50.946 Y-9.085 Z-8.500 I-3.641 J-6.578 F720.000
G2 X49.772 Y-13.001 Z-8.500 I-6.049 J-0.320 F720.000
G2 X50.946 Y-16.550 Z-8.500 I-4.722 J-3.531 F720.000
G2 X43.446 Y-24.415 Z-8.500 I-7.524 J-0.334 F720.000
G1 X31.582 Y-24.415 Z-8.500 F720.000
G1 X30.750 Y-25.246 Z-8.500 F720.000
G2 X23.096 Y-30.951 Z-8.500 I-7.667 J2.299 F720.000
G1 X17.742 Y-30.951 Z-8.500 F720.000
G2 X12.006 Y-28.515 Z-8.500 I-0.009 J7.949 F720.000
G1 X3.196 Y-28.515 Z-8.500 F720.000
G2 X-4.804 Y-20.515 Z-8.500 I0.000 J8.000 F720.000
G1 X-4.804 Y-11.485 Z-8.500 F720.000
G2 X5.196 Y-1.485 Z-8.500 I10.012 J-0.012 F720.000
G1 X9.256 Y-1.485 Z-8.500 F720.000
G1 X10.132 Y-0.609 Z-8.500 F720.000
G2 X17.742 Y4.951 Z-8.500 I7.624 J-2.447 F720.000
G1 X23.096 Y4.951 Z-8.500 F720.000
G2 X30.750 Y-0.754 Z-8.500 I-0.013 J-8.004 F720.000
G1 X31.582 Y-1.585 Z-8.500 F720.000
G1 X43.446 Y-1.585 Z-8.500 F720.000
G2 X47.069 Y-2.526 Z-8.500 I-0.018 J-7.518 F720.000
G1 X47.069 Y-2.526 Z-9.000 F30.000
G2 X50.946 Y-9.085 Z-9.000 I-3.641 J-6.578 F720.000
G2 X49.772 Y-13.001 Z-9.000 I-6.049 J-0.320 F720.000
G2 X50.946 Y-16.550 Z-9.000 I-4.722 J-3.531 F720.000
G2 X43.446 Y-24.415 Z-9.000 I-7.524 J-0.334 F720.000
G1 X31.582 Y-24.415 Z-9.000 F720.000
G1 X30.750 Y-25.246 Z-9.000 F720.000
G2 X23.096 Y-30.951 Z-9.000 I-7.667 J2.299 F720.000
G1 X17.742 Y-30.951 Z-9.000 F720.000
G2 X12.006 Y-28.515 Z-9.000 I-0.009 J7.949 F720.000
G1 X3.196 Y-28.515 Z-9.000 F720.000
G2 X-4.804 Y-20.515 Z-9.000 I0.000 J8.000 F720.000
G1 X-4.804 Y-11.485 Z-9.000 F720.000
G2 X5.196 Y-1.485 Z-9.000 I10.012 J-0.012 F720.000
G1 X9.256 Y-1.485 Z-9.000 F720.000
G1 X10.132 Y-0.609 Z-9.000 F720.000
G2 X17.742 Y4.951 Z-9.000 I7.624 J-2.447 F720.000
G1 X23.096 Y4.951 Z-9.000 F720.000
G2 X30.750 Y-0.754 Z-9.000 I-0.013 J-8.004 F720.000
G1 X31.582 Y-1.585 Z-9.000 F720.000
G1 X43.446 Y-1.585 Z-9.000 F720.000
G2 X47.069 Y-2.526 Z-9.000 I-0.018 J-7.518 F720.000
G1 X47.069 Y-2.526 Z-9.500 F30.000
G2 X50.946 Y-9.085 Z-9.500 I-3.641 J-6.578 F720.000
G2 X49.772 Y-13.001 Z-9.500 I-6.049 J-0.320 F720.000
G2 X50.946 Y-16.550 Z-9.500 I-4.722 J-3.531 F720.000
G2 X43.446 Y-24.415 Z-9.500 I-7.524 J-0.334 F720.000
G1 X31.582 Y-24.415 Z-9.500 F720.000
G1 X30.750 Y-25.246 Z-9.500 F720.000
G2 X23.096 Y-30.951 Z-9.500 I-7.667 J2.299 F720.000
G1 X17.742 Y-30.951 Z-9.500 F720.000
G2 X12.006 Y-28.515 Z-9.500 I-0.009 J7.949 F720.000
G1 X3.196 Y-28.515 Z-9.500 F720.000
G2 X-4.804 Y-20.515 Z-9.500 I0.000 J8.000 F720.000
G1 X-4.804 Y-11.485 Z-9.500 F720.000
G2 X5.196 Y-1.485 Z-9.500 I10.012 J-0.012 F720.000
G1 X9.256 Y-1.485 Z-9.500 F720.000
G1 X10.132 Y-0.609 Z-9.500 F720.000
G2 X17.742 Y4.951 Z-9.500 I7.624 J-2.447 F720.000
G1 X23.096 Y4.951 Z-9.500 F720.000
G2 X30.750 Y-0.754 Z-9.500 I-0.013 J-8.004 F720.000
G1 X31.582 Y-1.585 Z-9.500 F720.000
G1 X43.446 Y-1.585 Z-9.500 F720.000
G2 X47.069 Y-2.526 Z-9.500 I-0.018 J-7.518 F720.000
G1 X47.069 Y-2.526 Z-10.000 F30.000
G2 X50.946 Y-9.085 Z-10.000 I-3.641 J-6.578 F720.000
G2 X49.772 Y-13.001 Z-10.000 I-6.049 J-0.320 F720.000
G2 X50.946 Y-16.550 Z-10.000 I-4.722 J-3.531 F720.000
G2 X43.446 Y-24.415 Z-10.000 I-7.524 J-0.334 F720.000
G1 X31.582 Y-24.415 Z-10.000 F720.000
G1 X30.750 Y-25.246 Z-10.000 F720.000
G2 X23.096 Y-30.951 Z-10.000 I-7.667 J2.299 F720.000
G1 X17.742 Y-30.951 Z-10.000 F720.000
G2 X12.006 Y-28.515 Z-10.000 I-0.009 J7.949 F720.000
G1 X3.196 Y-28.515 Z-10.000 F720.000
G2 X-4.804 Y-20.515 Z-10.000 I0.000 J8.000 F720.000
G1 X-4.804 Y-11.485 Z-10.000 F720.000
G2 X5.196 Y-1.485 Z-10.000 I10.012 J-0.012 F720.000
G1 X9.256 Y-1.485 Z-10.000 F720.000
G1 X10.132 Y-0.609 Z-10.000 F720.000
G2 X17.742 Y4.951 Z-10.000 I7.624 J-2.447 F720.000
G1 X23.096 Y4.951 Z-10.000 F720.000
G2 X30.750 Y-0.754 Z-10.000 I-0.013 J-8.004 F720.000
G1 X31.582 Y-1.585 Z-10.000 F720.000
G1 X43.446 Y-1.585 Z-10.000 F720.000
G2 X47.069 Y-2.526 Z-10.000 I-0.018 J-7.518 F720.000
G1 X47.069 Y-2.526 Z-10.500 F30.000
G2 X50.946 Y-9.085 Z-10.500 I-3.641 J-6.578 F720.000
G2 X49.772 Y-13.001 Z-10.500 I-6.049 J-0.320 F720.000
G2 X50.946 Y-16.550 Z-10.500 I-4.722 J-3.531 F720.000
G2 X43.446 Y-24.415 Z-10.500 I-7.524 J-0.334 F720.000
G1 X31.582 Y-24.415 Z-10.500 F720.000
G1 X30.750 Y-25.246 Z-10.500 F720.000
G2 X23.096 Y-30.951 Z-10.500 I-7.667 J2.299 F720.000
G1 X17.742 Y-30.951 Z-10.500 F720.000
G2 X12.006 Y-28.515 Z-10.500 I-0.009 J7.949 F720.000
G1 X3.196 Y-28.515 Z-10.500 F720.000
G2 X-4.804 Y-20.515 Z-10.500 I0.000 J8.000 F720.000
G1 X-4.804 Y-11.485 Z-10.500 F720.000
G2 X5.196 Y-1.485 Z-10.500 I10.012 J-0.012 F720.000
G1 X9.256 Y-1.485 Z-10.500 F720.000
G1 X10.132 Y-0.609 Z-10.500 F720.000
G2 X17.742 Y4.951 Z-10.500 I7.624 J-2.447 F720.000
G1 X23.096 Y4.951 Z-10.500 F720.000
G2 X30.750 Y-0.754 Z-10.500 I-0.013 J-8.004 F720.000
G1 X31.582 Y-1.585 Z-10.500 F720.000
G1 X43.446 Y-1.585 Z-10.500 F720.000
G2 X47.069 Y-2.526 Z-10.500 I-0.018 J-7.518 F720.000
G1 X47.069 Y-2.526 Z-11.000 F30.000
G2 X50.946 Y-9.085 Z-11.000 I-3.641 J-6.578 F720.000
G2 X49.772 Y-13.001 Z-11.000 I-6.049 J-0.320 F720.000
G2 X50.946 Y-16.550 Z-11.000 I-4.722 J-3.531 F720.000
G2 X43.446 Y-24.415 Z-11.000 I-7.524 J-0.334 F720.000
G1 X31.582 Y-24.415 Z-11.000 F720.000
G1 X30.750 Y-25.246 Z-11.000 F720.000
G2 X23.096 Y-30.951 Z-11.000 I-7.667 J2.299 F720.000
G1 X17.742 Y-30.951 Z-11.000 F720.000
G2 X12.006 Y-28.515 Z-11.000 I-0.009 J7.949 F720.000
G1 X3.196 Y-28.515 Z-11.000 F720.000
G2 X-4.804 Y-20.515 Z-11.000 I0.000 J8.000 F720.000
G1 X-4.804 Y-11.485 Z-11.000 F720.000
G2 X5.196 Y-1.485 Z-11.000 I10.012 J-0.012 F720.000
G1 X9.256 Y-1.485 Z-11.000 F720.000
G1 X10.132 Y-0.609 Z-11.000 F720.000
G2 X17.742 Y4.951 Z-11.000 I7.624 J-2.447 F720.000
G1 X23.096 Y4.951 Z-11.000 F720.000
G2 X30.750 Y-0.754 Z-11.000 I-0.013 J-8.004 F720.000
G1 X31.582 Y-1.585 Z-11.000 F720.000
G1 X43.446 Y-1.585 Z-11.000 F720.000
G2 X47.069 Y-2.526 Z-11.000 I-0.018 J-7.518 F720.000
G1 X47.069 Y-2.526 Z-11.500 F30.000
G2 X50.946 Y-9.085 Z-11.500 I-3.641 J-6.578 F720.000
G2 X49.772 Y-13.001 Z-11.500 I-6.049 J-0.320 F720.000
G2 X50.946 Y-16.550 Z-11.500 I-4.722 J-3.531 F720.000
G2 X43.446 Y-24.415 Z-11.500 I-7.524 J-0.334 F720.000
G1 X31.582 Y-24.415 Z-11.500 F720.000
G1 X30.750 Y-25.246 Z-11.500 F720.000
G2 X23.096 Y-30.951 Z-11.500 I-7.667 J2.299 F720.000
G1 X17.742 Y-30.951 Z-11.500 F720.000
G2 X12.006 Y-28.515 Z-11.500 I-0.009 J7.949 F720.000
G1 X3.196 Y-28.515 Z-11.500 F720.000
G2 X-4.804 Y-20.515 Z-11.500 I0.000 J8.000 F720.000
G1 X-4.804 Y-11.485 Z-11.500 F720.000
G2 X5.196 Y-1.485 Z-11.500 I10.012 J-0.012 F720.000
G1 X9.256 Y-1.485 Z-11.500 F720.000
G1 X10.132 Y-0.609 Z-11.500 F720.000
G2 X17.742 Y4.951 Z-11.500 I7.624 J-2.447 F720.000
G1 X23.096 Y4.951 Z-11.500 F720.000
G2 X30.750 Y-0.754 Z-11.500 I-0.013 J-8.004 F720.000
G1 X31.582 Y-1.585 Z-11.500 F720.000
G1 X43.446 Y-1.585 Z-11.500 F720.000
G2 X47.069 Y-2.526 Z-11.500 I-0.018 J-7.518 F720.000
G1 X47.069 Y-2.526 Z-12.000 F30.000
G2 X50.946 Y-9.085 Z-12.000 I-3.641 J-6.578 F720.000
G2 X49.772 Y-13.001 Z-12.000 I-6.049 J-0.320 F720.000
G2 X50.946 Y-16.550 Z-12.000 I-4.722 J-3.531 F720.000
G2 X43.446 Y-24.415 Z-12.000 I-7.524 J-0.334 F720.000
G1 X31.582 Y-24.415 Z-12.000 F720.000
G1 X30.750 Y-25.246 Z-12.000 F720.000
G2 X23.096 Y-30.951 Z-12.000 I-7.667 J2.299 F720.000
G1 X17.742 Y-30.951 Z-12.000 F720.000
G2 X12.006 Y-28.515 Z-12.000 I-0.009 J7.949 F720.000
G1 X3.196 Y-28.515 Z-12.000 F720.000
G2 X-4.804 Y-20.515 Z-12.000 I0.000 J8.000 F720.000
G1 X-4.804 Y-11.485 Z-12.000 F720.000
G2 X5.196 Y-1.485 Z-12.000 I10.012 J-0.012 F720.000
G1 X9.256 Y-1.485 Z-12.000 F720.000
G1 X10.132 Y-0.609 Z-12.000 F720.000
G2 X17.742 Y4.951 Z-12.000 I7.624 J-2.447 F720.000
G1 X23.096 Y4.951 Z-12.000 F720.000
G2 X30.750 Y-0.754 Z-12.000 I-0.013 J-8.004 F720.000
G1 X31.582 Y-1.585 Z-12.000 F720.000
G1 X43.446 Y-1.585 Z-12.000 F720.000
G2 X47.069 Y-2.526 Z-12.000 I-0.018 J-7.518 F720.000
G0 Z5.000
(finish operation: Profile_Edges)
(begin operation: T4: 12mm Endmill)
(machine: not set, mm/min)
(T4: 12mm Endmill)
M6 T4 G43 H4
M3 S3000
(finish operation: T4: 12mm Endmill)
(begin operation: Profile_Edges001)
(machine: not set, mm/min)
(Profile_Edges001)
(Compensated Tool Path. Diameter: 12.0)
G0 Z5.000
G0 X33.967 Y-6.485
G0 Z3.000
G1 X33.967 Y-6.485 Z-0.500 F30.000
G1 X33.967 Y-18.515 Z-0.500 F720.000
G1 X23.196 Y-18.515 Z-0.500 F720.000
G1 X23.196 Y-11.485 Z-0.500 F720.000
G3 X22.387 Y-6.485 Z-0.500 I-16.154 J-0.050 F720.000
G1 X33.967 Y-6.485 Z-0.500 F720.000
G1 X33.967 Y-6.485 Z-1.000 F30.000
G1 X33.967 Y-18.515 Z-1.000 F720.000
G1 X23.196 Y-18.515 Z-1.000 F720.000
G1 X23.196 Y-11.485 Z-1.000 F720.000
G3 X22.387 Y-6.485 Z-1.000 I-16.154 J-0.050 F720.000
G1 X33.967 Y-6.485 Z-1.000 F720.000
G1 X33.967 Y-6.485 Z-1.500 F30.000
G1 X33.967 Y-18.515 Z-1.500 F720.000
G1 X23.196 Y-18.515 Z-1.500 F720.000
G1 X23.196 Y-11.485 Z-1.500 F720.000
G3 X22.387 Y-6.485 Z-1.500 I-16.154 J-0.050 F720.000
G1 X33.967 Y-6.485 Z-1.500 F720.000
G1 X33.967 Y-6.485 Z-2.000 F30.000
G1 X33.967 Y-18.515 Z-2.000 F720.000
G1 X23.196 Y-18.515 Z-2.000 F720.000
G1 X23.196 Y-11.485 Z-2.000 F720.000
G3 X22.387 Y-6.485 Z-2.000 I-16.154 J-0.050 F720.000
G1 X33.967 Y-6.485 Z-2.000 F720.000
G1 X33.967 Y-6.485 Z-2.500 F30.000
G1 X33.967 Y-18.515 Z-2.500 F720.000
G1 X23.196 Y-18.515 Z-2.500 F720.000
G1 X23.196 Y-11.485 Z-2.500 F720.000
G3 X22.387 Y-6.485 Z-2.500 I-16.154 J-0.050 F720.000
G1 X33.967 Y-6.485 Z-2.500 F720.000
G1 X33.967 Y-6.485 Z-3.000 F30.000
G1 X33.967 Y-18.515 Z-3.000 F720.000
G1 X23.196 Y-18.515 Z-3.000 F720.000
G1 X23.196 Y-11.485 Z-3.000 F720.000
G3 X22.387 Y-6.485 Z-3.000 I-16.154 J-0.050 F720.000
G1 X33.967 Y-6.485 Z-3.000 F720.000
G1 X33.967 Y-6.485 Z-3.500 F30.000
G1 X33.967 Y-18.515 Z-3.500 F720.000
G1 X23.196 Y-18.515 Z-3.500 F720.000
G1 X23.196 Y-11.485 Z-3.500 F720.000
G3 X22.387 Y-6.485 Z-3.500 I-16.154 J-0.050 F720.000
G1 X33.967 Y-6.485 Z-3.500 F720.000
G1 X33.967 Y-6.485 Z-4.000 F30.000
G1 X33.967 Y-18.515 Z-4.000 F720.000
G1 X23.196 Y-18.515 Z-4.000 F720.000
G1 X23.196 Y-11.485 Z-4.000 F720.000
G3 X22.387 Y-6.485 Z-4.000 I-16.154 J-0.050 F720.000
G1 X33.967 Y-6.485 Z-4.000 F720.000
G1 X33.967 Y-6.485 Z-4.500 F30.000
G1 X33.967 Y-18.515 Z-4.500 F720.000
G1 X23.196 Y-18.515 Z-4.500 F720.000
G1 X23.196 Y-11.485 Z-4.500 F720.000
G3 X22.387 Y-6.485 Z-4.500 I-16.154 J-0.050 F720.000
G1 X33.967 Y-6.485 Z-4.500 F720.000
G1 X33.967 Y-6.485 Z-5.000 F30.000
G1 X33.967 Y-18.515 Z-5.000 F720.000
G1 X23.196 Y-18.515 Z-5.000 F720.000
G1 X23.196 Y-11.485 Z-5.000 F720.000
G3 X22.387 Y-6.485 Z-5.000 I-16.154 J-0.050 F720.000
G1 X33.967 Y-6.485 Z-5.000 F720.000
G1 X33.967 Y-6.485 Z-5.500 F30.000
G1 X33.967 Y-18.515 Z-5.500 F720.000
G1 X23.196 Y-18.515 Z-5.500 F720.000
G1 X23.196 Y-11.485 Z-5.500 F720.000
G3 X22.387 Y-6.485 Z-5.500 I-16.154 J-0.050 F720.000
G1 X33.967 Y-6.485 Z-5.500 F720.000
G1 X33.967 Y-6.485 Z-6.000 F30.000
G1 X33.967 Y-18.515 Z-6.000 F720.000
G1 X23.196 Y-18.515 Z-6.000 F720.000
G1 X23.196 Y-11.485 Z-6.000 F720.000
G3 X22.387 Y-6.485 Z-6.000 I-16.154 J-0.050 F720.000
G1 X33.967 Y-6.485 Z-6.000 F720.000
G1 X33.967 Y-6.485 Z-6.500 F30.000
G1 X33.967 Y-18.515 Z-6.500 F720.000
G1 X23.196 Y-18.515 Z-6.500 F720.000
G1 X23.196 Y-11.485 Z-6.500 F720.000
G3 X22.387 Y-6.485 Z-6.500 I-16.154 J-0.050 F720.000
G1 X33.967 Y-6.485 Z-6.500 F720.000
G1 X33.967 Y-6.485 Z-7.000 F30.000
G1 X33.967 Y-18.515 Z-7.000 F720.000
G1 X23.196 Y-18.515 Z-7.000 F720.000
G1 X23.196 Y-11.485 Z-7.000 F720.000
G3 X22.387 Y-6.485 Z-7.000 I-16.154 J-0.050 F720.000
G1 X33.967 Y-6.485 Z-7.000 F720.000
G0 Z5.000
(finish operation: Profile_Edges001)
(begin operation: T4: 12mm Endmill)
(machine: not set, mm/min)
(T4: 12mm Endmill)
M6 T4 G43 H4
M3 S3000
(finish operation: T4: 12mm Endmill)
(begin operation: Profile_Edges002)
(machine: not set, mm/min)
(Profile_Edges002)
(Compensated Tool Path. Diameter: 12.0)
G0 Z5.000
G0 X39.967 Y-0.485
G0 Z3.000
G1 X39.967 Y-0.485 Z-0.500 F30.000
G1 X39.967 Y-24.515 Z-0.500 F720.000
G1 X17.196 Y-24.515 Z-0.500 F720.000
G1 X17.196 Y-11.485 Z-0.500 F720.000
G3 X7.196 Y-1.485 Z-0.500 I-10.012 J-0.012 F720.000
G1 X7.196 Y-0.485 Z-0.500 F720.000
G1 X39.967 Y-0.485 Z-0.500 F720.000
G1 X39.967 Y-0.485 Z-1.000 F30.000
G1 X39.967 Y-24.515 Z-1.000 F720.000
G1 X17.196 Y-24.515 Z-1.000 F720.000
G1 X17.196 Y-11.485 Z-1.000 F720.000
G3 X7.196 Y-1.485 Z-1.000 I-10.012 J-0.012 F720.000
G1 X7.196 Y-0.485 Z-1.000 F720.000
G1 X39.967 Y-0.485 Z-1.000 F720.000
G1 X39.967 Y-0.485 Z-1.500 F30.000
G1 X39.967 Y-24.515 Z-1.500 F720.000
G1 X17.196 Y-24.515 Z-1.500 F720.000
G1 X17.196 Y-11.485 Z-1.500 F720.000
G3 X7.196 Y-1.485 Z-1.500 I-10.012 J-0.012 F720.000
G1 X7.196 Y-0.485 Z-1.500 F720.000
G1 X39.967 Y-0.485 Z-1.500 F720.000
G1 X39.967 Y-0.485 Z-2.000 F30.000
G1 X39.967 Y-24.515 Z-2.000 F720.000
G1 X17.196 Y-24.515 Z-2.000 F720.000
G1 X17.196 Y-11.485 Z-2.000 F720.000
G3 X7.196 Y-1.485 Z-2.000 I-10.012 J-0.012 F720.000
G1 X7.196 Y-0.485 Z-2.000 F720.000
G1 X39.967 Y-0.485 Z-2.000 F720.000
G1 X39.967 Y-0.485 Z-2.500 F30.000
G1 X39.967 Y-24.515 Z-2.500 F720.000
G1 X17.196 Y-24.515 Z-2.500 F720.000
G1 X17.196 Y-11.485 Z-2.500 F720.000
G3 X7.196 Y-1.485 Z-2.500 I-10.012 J-0.012 F720.000
G1 X7.196 Y-0.485 Z-2.500 F720.000
G1 X39.967 Y-0.485 Z-2.500 F720.000
G1 X39.967 Y-0.485 Z-3.000 F30.000
G1 X39.967 Y-24.515 Z-3.000 F720.000
G1 X17.196 Y-24.515 Z-3.000 F720.000
G1 X17.196 Y-11.485 Z-3.000 F720.000
G3 X7.196 Y-1.485 Z-3.000 I-10.012 J-0.012 F720.000
G1 X7.196 Y-0.485 Z-3.000 F720.000
G1 X39.967 Y-0.485 Z-3.000 F720.000
G1 X39.967 Y-0.485 Z-3.500 F30.000
G1 X39.967 Y-24.515 Z-3.500 F720.000
G1 X17.196 Y-24.515 Z-3.500 F720.000
G1 X17.196 Y-11.485 Z-3.500 F720.000
G3 X7.196 Y-1.485 Z-3.500 I-10.012 J-0.012 F720.000
G1 X7.196 Y-0.485 Z-3.500 F720.000
G1 X39.967 Y-0.485 Z-3.500 F720.000
G1 X39.967 Y-0.485 Z-4.000 F30.000
G1 X39.967 Y-24.515 Z-4.000 F720.000
G1 X17.196 Y-24.515 Z-4.000 F720.000
G1 X17.196 Y-11.485 Z-4.000 F720.000
G3 X7.196 Y-1.485 Z-4.000 I-10.012 J-0.012 F720.000
G1 X7.196 Y-0.485 Z-4.000 F720.000
G1 X39.967 Y-0.485 Z-4.000 F720.000
G1 X39.967 Y-0.485 Z-4.500 F30.000
G1 X39.967 Y-24.515 Z-4.500 F720.000
G1 X17.196 Y-24.515 Z-4.500 F720.000
G1 X17.196 Y-11.485 Z-4.500 F720.000
G3 X7.196 Y-1.485 Z-4.500 I-10.012 J-0.012 F720.000
G1 X7.196 Y-0.485 Z-4.500 F720.000
G1 X39.967 Y-0.485 Z-4.500 F720.000
G1 X39.967 Y-0.485 Z-5.000 F30.000
G1 X39.967 Y-24.515 Z-5.000 F720.000
G1 X17.196 Y-24.515 Z-5.000 F720.000
G1 X17.196 Y-11.485 Z-5.000 F720.000
G3 X7.196 Y-1.485 Z-5.000 I-10.012 J-0.012 F720.000
G1 X7.196 Y-0.485 Z-5.000 F720.000
G1 X39.967 Y-0.485 Z-5.000 F720.000
G1 X39.967 Y-0.485 Z-5.500 F30.000
G1 X39.967 Y-24.515 Z-5.500 F720.000
G1 X17.196 Y-24.515 Z-5.500 F720.000
G1 X17.196 Y-11.485 Z-5.500 F720.000
G3 X7.196 Y-1.485 Z-5.500 I-10.012 J-0.012 F720.000
G1 X7.196 Y-0.485 Z-5.500 F720.000
G1 X39.967 Y-0.485 Z-5.500 F720.000
G1 X39.967 Y-0.485 Z-6.000 F30.000
G1 X39.967 Y-24.515 Z-6.000 F720.000
G1 X17.196 Y-24.515 Z-6.000 F720.000
G1 X17.196 Y-11.485 Z-6.000 F720.000
G3 X7.196 Y-1.485 Z-6.000 I-10.012 J-0.012 F720.000
G1 X7.196 Y-0.485 Z-6.000 F720.000
G1 X39.967 Y-0.485 Z-6.000 F720.000
G1 X39.967 Y-0.485 Z-6.500 F30.000
G1 X39.967 Y-24.515 Z-6.500 F720.000
G1 X17.196 Y-24.515 Z-6.500 F720.000
G1 X17.196 Y-11.485 Z-6.500 F720.000
G3 X7.196 Y-1.485 Z-6.500 I-10.012 J-0.012 F720.000
G1 X7.196 Y-0.485 Z-6.500 F720.000
G1 X39.967 Y-0.485 Z-6.500 F720.000
G1 X39.967 Y-0.485 Z-7.000 F30.000
G1 X39.967 Y-24.515 Z-7.000 F720.000
G1 X17.196 Y-24.515 Z-7.000 F720.000
G1 X17.196 Y-11.485 Z-7.000 F720.000
G3 X7.196 Y-1.485 Z-7.000 I-10.012 J-0.012 F720.000
G1 X7.196 Y-0.485 Z-7.000 F720.000
G1 X39.967 Y-0.485 Z-7.000 F720.000
G0 Z5.000
(finish operation: Profile_Edges002)
(begin operation: T7: 3mm Endmill)
(machine: not set, mm/min)
(T7: 3mm Endmill)
M6 T7 G43 H7
M3 S3000
(finish operation: T7: 3mm Endmill)
(begin operation: Profile_Edges003)
(machine: not set, mm/min)
(Profile_Edges003)
(Compensated Tool Path. Diameter: 3.0)
G0 Z5.000
G0 X47.446 Y-10.950
G1 X47.446 Y-10.950 Z-7.200 F12.000
G1 X47.446 Y-15.050 Z-7.200 F120.000
G1 X45.568 Y-15.050 Z-7.200 F120.000
G1 X44.007 Y-13.489 Z-7.200 F120.000
G3 X42.946 Y-13.050 Z-7.200 I-1.061 J-1.061 F120.000
G1 X40.440 Y-13.050 Z-7.200 F120.000
G2 X40.303 Y-13.000 Z-7.200 I-0.054 J0.067 F120.000
G2 X40.440 Y-12.950 Z-7.200 I0.084 J-0.017 F120.000
G1 X42.946 Y-12.950 Z-7.200 F120.000
G3 X44.007 Y-12.511 Z-7.200 I0.000 J1.500 F120.000
G1 X45.568 Y-10.950 Z-7.200 F120.000
G1 X47.446 Y-10.950 Z-7.200 F120.000
G1 X47.446 Y-10.950 Z-7.400 F12.000
G1 X47.446 Y-15.050 Z-7.400 F120.000
G1 X45.568 Y-15.050 Z-7.400 F120.000
G1 X44.007 Y-13.489 Z-7.400 F120.000
G3 X42.946 Y-13.050 Z-7.400 I-1.061 J-1.061 F120.000
G1 X40.440 Y-13.050 Z-7.400 F120.000
G2 X40.303 Y-13.000 Z-7.400 I-0.054 J0.067 F120.000
G2 X40.440 Y-12.950 Z-7.400 I0.084 J-0.017 F120.000
G1 X42.946 Y-12.950 Z-7.400 F120.000
G3 X44.007 Y-12.511 Z-7.400 I0.000 J1.500 F120.000
G1 X45.568 Y-10.950 Z-7.400 F120.000
G1 X47.446 Y-10.950 Z-7.400 F120.000
G1 X47.446 Y-10.950 Z-7.600 F12.000
G1 X47.446 Y-15.050 Z-7.600 F120.000
G1 X45.568 Y-15.050 Z-7.600 F120.000
G1 X44.007 Y-13.489 Z-7.600 F120.000
G3 X42.946 Y-13.050 Z-7.600 I-1.061 J-1.061 F120.000
G1 X40.440 Y-13.050 Z-7.600 F120.000
G2 X40.303 Y-13.000 Z-7.600 I-0.054 J0.067 F120.000
G2 X40.440 Y-12.950 Z-7.600 I0.084 J-0.017 F120.000
G1 X42.946 Y-12.950 Z-7.600 F120.000
G3 X44.007 Y-12.511 Z-7.600 I0.000 J1.500 F120.000
G1 X45.568 Y-10.950 Z-7.600 F120.000
G1 X47.446 Y-10.950 Z-7.600 F120.000
G1 X47.446 Y-10.950 Z-7.800 F12.000
G1 X47.446 Y-15.050 Z-7.800 F120.000
G1 X45.568 Y-15.050 Z-7.800 F120.000
G1 X44.007 Y-13.489 Z-7.800 F120.000
G3 X42.946 Y-13.050 Z-7.800 I-1.061 J-1.061 F120.000
G1 X40.440 Y-13.050 Z-7.800 F120.000
G2 X40.303 Y-13.000 Z-7.800 I-0.054 J0.067 F120.000
G2 X40.440 Y-12.950 Z-7.800 I0.084 J-0.017 F120.000
G1 X42.946 Y-12.950 Z-7.800 F120.000
G3 X44.007 Y-12.511 Z-7.800 I0.000 J1.500 F120.000
G1 X45.568 Y-10.950 Z-7.800 F120.000
G1 X47.446 Y-10.950 Z-7.800 F120.000
G1 X47.446 Y-10.950 Z-8.000 F12.000
G1 X47.446 Y-15.050 Z-8.000 F120.000
G1 X45.568 Y-15.050 Z-8.000 F120.000
G1 X44.007 Y-13.489 Z-8.000 F120.000
G3 X42.946 Y-13.050 Z-8.000 I-1.061 J-1.061 F120.000
G1 X40.440 Y-13.050 Z-8.000 F120.000
G2 X40.303 Y-13.000 Z-8.000 I-0.054 J0.067 F120.000
G2 X40.440 Y-12.950 Z-8.000 I0.084 J-0.017 F120.000
G1 X42.946 Y-12.950 Z-8.000 F120.000
G3 X44.007 Y-12.511 Z-8.000 I0.000 J1.500 F120.000
G1 X45.568 Y-10.950 Z-8.000 F120.000
G1 X47.446 Y-10.950 Z-8.000 F120.000
G1 X47.446 Y-10.950 Z-8.200 F12.000
G1 X47.446 Y-15.050 Z-8.200 F120.000
G1 X45.568 Y-15.050 Z-8.200 F120.000
G1 X44.007 Y-13.489 Z-8.200 F120.000
G3 X42.946 Y-13.050 Z-8.200 I-1.061 J-1.061 F120.000
G1 X40.440 Y-13.050 Z-8.200 F120.000
G2 X40.303 Y-13.000 Z-8.200 I-0.054 J0.067 F120.000
G2 X40.440 Y-12.950 Z-8.200 I0.084 J-0.017 F120.000
G1 X42.946 Y-12.950 Z-8.200 F120.000
G3 X44.007 Y-12.511 Z-8.200 I0.000 J1.500 F120.000
G1 X45.568 Y-10.950 Z-8.200 F120.000
G1 X47.446 Y-10.950 Z-8.200 F120.000
G1 X47.446 Y-10.950 Z-8.400 F12.000
G1 X47.446 Y-15.050 Z-8.400 F120.000
G1 X45.568 Y-15.050 Z-8.400 F120.000
G1 X44.007 Y-13.489 Z-8.400 F120.000
G3 X42.946 Y-13.050 Z-8.400 I-1.061 J-1.061 F120.000
G1 X40.440 Y-13.050 Z-8.400 F120.000
G2 X40.303 Y-13.000 Z-8.400 I-0.054 J0.067 F120.000
G2 X40.440 Y-12.950 Z-8.400 I0.084 J-0.017 F120.000
G1 X42.946 Y-12.950 Z-8.400 F120.000
G3 X44.007 Y-12.511 Z-8.400 I0.000 J1.500 F120.000
G1 X45.568 Y-10.950 Z-8.400 F120.000
G1 X47.446 Y-10.950 Z-8.400 F120.000
G1 X47.446 Y-10.950 Z-8.600 F12.000
G1 X47.446 Y-15.050 Z-8.600 F120.000
G1 X45.568 Y-15.050 Z-8.600 F120.000
G1 X44.007 Y-13.489 Z-8.600 F120.000
G3 X42.946 Y-13.050 Z-8.600 I-1.061 J-1.061 F120.000
G1 X40.440 Y-13.050 Z-8.600 F120.000
G2 X40.303 Y-13.000 Z-8.600 I-0.054 J0.067 F120.000
G2 X40.440 Y-12.950 Z-8.600 I0.084 J-0.017 F120.000
G1 X42.946 Y-12.950 Z-8.600 F120.000
G3 X44.007 Y-12.511 Z-8.600 I0.000 J1.500 F120.000
G1 X45.568 Y-10.950 Z-8.600 F120.000
G1 X47.446 Y-10.950 Z-8.600 F120.000
G1 X47.446 Y-10.950 Z-8.800 F12.000
G1 X47.446 Y-15.050 Z-8.800 F120.000
G1 X45.568 Y-15.050 Z-8.800 F120.000
G1 X44.007 Y-13.489 Z-8.800 F120.000
G3 X42.946 Y-13.050 Z-8.800 I-1.061 J-1.061 F120.000
G1 X40.440 Y-13.050 Z-8.800 F120.000
G2 X40.303 Y-13.000 Z-8.800 I-0.054 J0.067 F120.000
G2 X40.440 Y-12.950 Z-8.800 I0.084 J-0.017 F120.000
G1 X42.946 Y-12.950 Z-8.800 F120.000
G3 X44.007 Y-12.511 Z-8.800 I0.000 J1.500 F120.000
G1 X45.568 Y-10.950 Z-8.800 F120.000
G1 X47.446 Y-10.950 Z-8.800 F120.000
G1 X47.446 Y-10.950 Z-9.000 F12.000
G1 X47.446 Y-15.050 Z-9.000 F120.000
G1 X45.568 Y-15.050 Z-9.000 F120.000
G1 X44.007 Y-13.489 Z-9.000 F120.000
G3 X42.946 Y-13.050 Z-9.000 I-1.061 J-1.061 F120.000
G1 X40.440 Y-13.050 Z-9.000 F120.000
G2 X40.303 Y-13.000 Z-9.000 I-0.054 J0.067 F120.000
G2 X40.440 Y-12.950 Z-9.000 I0.084 J-0.017 F120.000
G1 X42.946 Y-12.950 Z-9.000 F120.000
G3 X44.007 Y-12.511 Z-9.000 I0.000 J1.500 F120.000
G1 X45.568 Y-10.950 Z-9.000 F120.000
G1 X47.446 Y-10.950 Z-9.000 F120.000
G1 X47.446 Y-10.950 Z-9.200 F12.000
G1 X47.446 Y-15.050 Z-9.200 F120.000
G1 X45.568 Y-15.050 Z-9.200 F120.000
G1 X44.007 Y-13.489 Z-9.200 F120.000
G3 X42.946 Y-13.050 Z-9.200 I-1.061 J-1.061 F120.000
G1 X40.440 Y-13.050 Z-9.200 F120.000
G2 X40.303 Y-13.000 Z-9.200 I-0.054 J0.067 F120.000
G2 X40.440 Y-12.950 Z-9.200 I0.084 J-0.017 F120.000
G1 X42.946 Y-12.950 Z-9.200 F120.000
G3 X44.007 Y-12.511 Z-9.200 I0.000 J1.500 F120.000
G1 X45.568 Y-10.950 Z-9.200 F120.000
G1 X47.446 Y-10.950 Z-9.200 F120.000
G1 X47.446 Y-10.950 Z-9.400 F12.000
G1 X47.446 Y-15.050 Z-9.400 F120.000
G1 X45.568 Y-15.050 Z-9.400 F120.000
G1 X44.007 Y-13.489 Z-9.400 F120.000
G3 X42.946 Y-13.050 Z-9.400 I-1.061 J-1.061 F120.000
G1 X40.440 Y-13.050 Z-9.400 F120.000
G2 X40.303 Y-13.000 Z-9.400 I-0.054 J0.067 F120.000
G2 X40.440 Y-12.950 Z-9.400 I0.084 J-0.017 F120.000
G1 X42.946 Y-12.950 Z-9.400 F120.000
G3 X44.007 Y-12.511 Z-9.400 I0.000 J1.500 F120.000
G1 X45.568 Y-10.950 Z-9.400 F120.000
G1 X47.446 Y-10.950 Z-9.400 F120.000
G1 X47.446 Y-10.950 Z-9.600 F12.000
G1 X47.446 Y-15.050 Z-9.600 F120.000
G1 X45.568 Y-15.050 Z-9.600 F120.000
G1 X44.007 Y-13.489 Z-9.600 F120.000
G3 X42.946 Y-13.050 Z-9.600 I-1.061 J-1.061 F120.000
G1 X40.440 Y-13.050 Z-9.600 F120.000
G2 X40.303 Y-13.000 Z-9.600 I-0.054 J0.067 F120.000
G2 X40.440 Y-12.950 Z-9.600 I0.084 J-0.017 F120.000
G1 X42.946 Y-12.950 Z-9.600 F120.000
G3 X44.007 Y-12.511 Z-9.600 I0.000 J1.500 F120.000
G1 X45.568 Y-10.950 Z-9.600 F120.000
G1 X47.446 Y-10.950 Z-9.600 F120.000
G1 X47.446 Y-10.950 Z-9.800 F12.000
G1 X47.446 Y-15.050 Z-9.800 F120.000
G1 X45.568 Y-15.050 Z-9.800 F120.000
G1 X44.007 Y-13.489 Z-9.800 F120.000
G3 X42.946 Y-13.050 Z-9.800 I-1.061 J-1.061 F120.000
G1 X40.440 Y-13.050 Z-9.800 F120.000
G2 X40.303 Y-13.000 Z-9.800 I-0.054 J0.067 F120.000
G2 X40.440 Y-12.950 Z-9.800 I0.084 J-0.017 F120.000
G1 X42.946 Y-12.950 Z-9.800 F120.000
G3 X44.007 Y-12.511 Z-9.800 I0.000 J1.500 F120.000
G1 X45.568 Y-10.950 Z-9.800 F120.000
G1 X47.446 Y-10.950 Z-9.800 F120.000
G1 X47.446 Y-10.950 Z-10.000 F12.000
G1 X47.446 Y-15.050 Z-10.000 F120.000
G1 X45.568 Y-15.050 Z-10.000 F120.000
G1 X44.007 Y-13.489 Z-10.000 F120.000
G3 X42.946 Y-13.050 Z-10.000 I-1.061 J-1.061 F120.000
G1 X40.440 Y-13.050 Z-10.000 F120.000
G2 X40.303 Y-13.000 Z-10.000 I-0.054 J0.067 F120.000
G2 X40.440 Y-12.950 Z-10.000 I0.084 J-0.017 F120.000
G1 X42.946 Y-12.950 Z-10.000 F120.000
G3 X44.007 Y-12.511 Z-10.000 I0.000 J1.500 F120.000
G1 X45.568 Y-10.950 Z-10.000 F120.000
G1 X47.446 Y-10.950 Z-10.000 F120.000
G1 X47.446 Y-10.950 Z-10.200 F12.000
G1 X47.446 Y-15.050 Z-10.200 F120.000
G1 X45.568 Y-15.050 Z-10.200 F120.000
G1 X44.007 Y-13.489 Z-10.200 F120.000
G3 X42.946 Y-13.050 Z-10.200 I-1.061 J-1.061 F120.000
G1 X40.440 Y-13.050 Z-10.200 F120.000
G2 X40.303 Y-13.000 Z-10.200 I-0.054 J0.067 F120.000
G2 X40.440 Y-12.950 Z-10.200 I0.084 J-0.017 F120.000
G1 X42.946 Y-12.950 Z-10.200 F120.000
G3 X44.007 Y-12.511 Z-10.200 I0.000 J1.500 F120.000
G1 X45.568 Y-10.950 Z-10.200 F120.000
G1 X47.446 Y-10.950 Z-10.200 F120.000
G1 X47.446 Y-10.950 Z-10.400 F12.000
G1 X47.446 Y-15.050 Z-10.400 F120.000
G1 X45.568 Y-15.050 Z-10.400 F120.000
G1 X44.007 Y-13.489 Z-10.400 F120.000
G3 X42.946 Y-13.050 Z-10.400 I-1.061 J-1.061 F120.000
G1 X40.440 Y-13.050 Z-10.400 F120.000
G2 X40.303 Y-13.000 Z-10.400 I-0.054 J0.067 F120.000
G2 X40.440 Y-12.950 Z-10.400 I0.084 J-0.017 F120.000
G1 X42.946 Y-12.950 Z-10.400 F120.000
G3 X44.007 Y-12.511 Z-10.400 I0.000 J1.500 F120.000
G1 X45.568 Y-10.950 Z-10.400 F120.000
G1 X47.446 Y-10.950 Z-10.400 F120.000
G1 X47.446 Y-10.950 Z-10.600 F12.000
G1 X47.446 Y-15.050 Z-10.600 F120.000
G1 X45.568 Y-15.050 Z-10.600 F120.000
G1 X44.007 Y-13.489 Z-10.600 F120.000
G3 X42.946 Y-13.050 Z-10.600 I-1.061 J-1.061 F120.000
G1 X40.440 Y-13.050 Z-10.600 F120.000
G2 X40.303 Y-13.000 Z-10.600 I-0.054 J0.067 F120.000
G2 X40.440 Y-12.950 Z-10.600 I0.084 J-0.017 F120.000
G1 X42.946 Y-12.950 Z-10.600 F120.000
G3 X44.007 Y-12.511 Z-10.600 I0.000 J1.500 F120.000
G1 X45.568 Y-10.950 Z-10.600 F120.000
G1 X47.446 Y-10.950 Z-10.600 F120.000
G1 X47.446 Y-10.950 Z-10.800 F12.000
G1 X47.446 Y-15.050 Z-10.800 F120.000
G1 X45.568 Y-15.050 Z-10.800 F120.000
G1 X44.007 Y-13.489 Z-10.800 F120.000
G3 X42.946 Y-13.050 Z-10.800 I-1.061 J-1.061 F120.000
G1 X40.440 Y-13.050 Z-10.800 F120.000
G2 X40.303 Y-13.000 Z-10.800 I-0.054 J0.067 F120.000
G2 X40.440 Y-12.950 Z-10.800 I0.084 J-0.017 F120.000
G1 X42.946 Y-12.950 Z-10.800 F120.000
G3 X44.007 Y-12.511 Z-10.800 I0.000 J1.500 F120.000
G1 X45.568 Y-10.950 Z-10.800 F120.000
G1 X47.446 Y-10.950 Z-10.800 F120.000
G1 X47.446 Y-10.950 Z-11.000 F12.000
G1 X47.446 Y-15.050 Z-11.000 F120.000
G1 X45.568 Y-15.050 Z-11.000 F120.000
G1 X44.007 Y-13.489 Z-11.000 F120.000
G3 X42.946 Y-13.050 Z-11.000 I-1.061 J-1.061 F120.000
G1 X40.440 Y-13.050 Z-11.000 F120.000
G2 X40.303 Y-13.000 Z-11.000 I-0.054 J0.067 F120.000
G2 X40.440 Y-12.950 Z-11.000 I0.084 J-0.017 F120.000
G1 X42.946 Y-12.950 Z-11.000 F120.000
G3 X44.007 Y-12.511 Z-11.000 I0.000 J1.500 F120.000
G1 X45.568 Y-10.950 Z-11.000 F120.000
G1 X47.446 Y-10.950 Z-11.000 F120.000
G1 X47.446 Y-10.950 Z-11.200 F12.000
G1 X47.446 Y-15.050 Z-11.200 F120.000
G1 X45.568 Y-15.050 Z-11.200 F120.000
G1 X44.007 Y-13.489 Z-11.200 F120.000
G3 X42.946 Y-13.050 Z-11.200 I-1.061 J-1.061 F120.000
G1 X40.440 Y-13.050 Z-11.200 F120.000
G2 X40.303 Y-13.000 Z-11.200 I-0.054 J0.067 F120.000
G2 X40.440 Y-12.950 Z-11.200 I0.084 J-0.017 F120.000
G1 X42.946 Y-12.950 Z-11.200 F120.000
G3 X44.007 Y-12.511 Z-11.200 I0.000 J1.500 F120.000
G1 X45.568 Y-10.950 Z-11.200 F120.000
G1 X47.446 Y-10.950 Z-11.200 F120.000
G1 X47.446 Y-10.950 Z-11.400 F12.000
G1 X47.446 Y-15.050 Z-11.400 F120.000
G1 X45.568 Y-15.050 Z-11.400 F120.000
G1 X44.007 Y-13.489 Z-11.400 F120.000
G3 X42.946 Y-13.050 Z-11.400 I-1.061 J-1.061 F120.000
G1 X40.440 Y-13.050 Z-11.400 F120.000
G2 X40.303 Y-13.000 Z-11.400 I-0.054 J0.067 F120.000
G2 X40.440 Y-12.950 Z-11.400 I0.084 J-0.017 F120.000
G1 X42.946 Y-12.950 Z-11.400 F120.000
G3 X44.007 Y-12.511 Z-11.400 I0.000 J1.500 F120.000
G1 X45.568 Y-10.950 Z-11.400 F120.000
G1 X47.446 Y-10.950 Z-11.400 F120.000
G1 X47.446 Y-10.950 Z-11.600 F12.000
G1 X47.446 Y-15.050 Z-11.600 F120.000
G1 X45.568 Y-15.050 Z-11.600 F120.000
G1 X44.007 Y-13.489 Z-11.600 F120.000
G3 X42.946 Y-13.050 Z-11.600 I-1.061 J-1.061 F120.000
G1 X40.440 Y-13.050 Z-11.600 F120.000
G2 X40.303 Y-13.000 Z-11.600 I-0.054 J0.067 F120.000
G2 X40.440 Y-12.950 Z-11.600 I0.084 J-0.017 F120.000
G1 X42.946 Y-12.950 Z-11.600 F120.000
G3 X44.007 Y-12.511 Z-11.600 I0.000 J1.500 F120.000
G1 X45.568 Y-10.950 Z-11.600 F120.000
G1 X47.446 Y-10.950 Z-11.600 F120.000
G1 X47.446 Y-10.950 Z-11.800 F12.000
G1 X47.446 Y-15.050 Z-11.800 F120.000
G1 X45.568 Y-15.050 Z-11.800 F120.000
G1 X44.007 Y-13.489 Z-11.800 F120.000
G3 X42.946 Y-13.050 Z-11.800 I-1.061 J-1.061 F120.000
G1 X40.440 Y-13.050 Z-11.800 F120.000
G2 X40.303 Y-13.000 Z-11.800 I-0.054 J0.067 F120.000
G2 X40.440 Y-12.950 Z-11.800 I0.084 J-0.017 F120.000
G1 X42.946 Y-12.950 Z-11.800 F120.000
G3 X44.007 Y-12.511 Z-11.800 I0.000 J1.500 F120.000
G1 X45.568 Y-10.950 Z-11.800 F120.000
G1 X47.446 Y-10.950 Z-11.800 F120.000
G1 X47.446 Y-10.950 Z-12.000 F12.000
G1 X47.446 Y-15.050 Z-12.000 F120.000
G1 X45.568 Y-15.050 Z-12.000 F120.000
G1 X44.007 Y-13.489 Z-12.000 F120.000
G3 X42.946 Y-13.050 Z-12.000 I-1.061 J-1.061 F120.000
G1 X40.440 Y-13.050 Z-12.000 F120.000
G2 X40.303 Y-13.000 Z-12.000 I-0.054 J0.067 F120.000
G2 X40.440 Y-12.950 Z-12.000 I0.084 J-0.017 F120.000
G1 X42.946 Y-12.950 Z-12.000 F120.000
G3 X44.007 Y-12.511 Z-12.000 I0.000 J1.500 F120.000
G1 X45.568 Y-10.950 Z-12.000 F120.000
G1 X47.446 Y-10.950 Z-12.000 F120.000
G0 Z5.000
(finish operation: Profile_Edges003)
(begin operation: T6: 4mm Endmill)
(machine: not set, mm/min)
(T6: 4mm Endmill)
M6 T6 G43 H6
M3 S3000
(finish operation: T6: 4mm Endmill)
(begin operation: Profile_Edges004)
(machine: not set, mm/min)
(Profile_Edges004)
(Compensated Tool Path. Diameter: 4.0)
G0 Z5.000
G0 X7.102 Y-11.943
G0 Z3.000
G1 X7.102 Y-11.943 Z-0.200 F15.000
G2 X6.486 Y-14.428 Z-0.200 I-1.057 J-1.057 F180.000
G2 X4.617 Y-13.440 Z-0.200 I-0.440 J1.428 F180.000
G2 X5.605 Y-11.572 Z-0.200 I1.428 J0.440 F180.000
G2 X7.102 Y-11.943 Z-0.200 I0.440 J-1.428 F180.000
G1 X7.102 Y-11.943 Z-0.400 F15.000
G2 X6.486 Y-14.428 Z-0.400 I-1.057 J-1.057 F180.000
G2 X4.617 Y-13.440 Z-0.400 I-0.440 J1.428 F180.000
G2 X5.605 Y-11.572 Z-0.400 I1.428 J0.440 F180.000
G2 X7.102 Y-11.943 Z-0.400 I0.440 J-1.428 F180.000
G1 X7.102 Y-11.943 Z-0.600 F15.000
G2 X6.486 Y-14.428 Z-0.600 I-1.057 J-1.057 F180.000
G2 X4.617 Y-13.440 Z-0.600 I-0.440 J1.428 F180.000
G2 X5.605 Y-11.572 Z-0.600 I1.428 J0.440 F180.000
G2 X7.102 Y-11.943 Z-0.600 I0.440 J-1.428 F180.000
G1 X7.102 Y-11.943 Z-0.800 F15.000
G2 X6.486 Y-14.428 Z-0.800 I-1.057 J-1.057 F180.000
G2 X4.617 Y-13.440 Z-0.800 I-0.440 J1.428 F180.000
G2 X5.605 Y-11.572 Z-0.800 I1.428 J0.440 F180.000
G2 X7.102 Y-11.943 Z-0.800 I0.440 J-1.428 F180.000
G1 X7.102 Y-11.943 Z-1.000 F15.000
G2 X6.486 Y-14.428 Z-1.000 I-1.057 J-1.057 F180.000
G2 X4.617 Y-13.440 Z-1.000 I-0.440 J1.428 F180.000
G2 X5.605 Y-11.572 Z-1.000 I1.428 J0.440 F180.000
G2 X7.102 Y-11.943 Z-1.000 I0.440 J-1.428 F180.000
G1 X7.102 Y-11.943 Z-1.200 F15.000
G2 X6.486 Y-14.428 Z-1.200 I-1.057 J-1.057 F180.000
G2 X4.617 Y-13.440 Z-1.200 I-0.440 J1.428 F180.000
G2 X5.605 Y-11.572 Z-1.200 I1.428 J0.440 F180.000
G2 X7.102 Y-11.943 Z-1.200 I0.440 J-1.428 F180.000
G1 X7.102 Y-11.943 Z-1.400 F15.000
G2 X6.486 Y-14.428 Z-1.400 I-1.057 J-1.057 F180.000
G2 X4.617 Y-13.440 Z-1.400 I-0.440 J1.428 F180.000
G2 X5.605 Y-11.572 Z-1.400 I1.428 J0.440 F180.000
G2 X7.102 Y-11.943 Z-1.400 I0.440 J-1.428 F180.000
G1 X7.102 Y-11.943 Z-1.600 F15.000
G2 X6.486 Y-14.428 Z-1.600 I-1.057 J-1.057 F180.000
G2 X4.617 Y-13.440 Z-1.600 I-0.440 J1.428 F180.000
G2 X5.605 Y-11.572 Z-1.600 I1.428 J0.440 F180.000
G2 X7.102 Y-11.943 Z-1.600 I0.440 J-1.428 F180.000
G1 X7.102 Y-11.943 Z-1.800 F15.000
G2 X6.486 Y-14.428 Z-1.800 I-1.057 J-1.057 F180.000
G2 X4.617 Y-13.440 Z-1.800 I-0.440 J1.428 F180.000
G2 X5.605 Y-11.572 Z-1.800 I1.428 J0.440 F180.000
G2 X7.102 Y-11.943 Z-1.800 I0.440 J-1.428 F180.000
G1 X7.102 Y-11.943 Z-2.000 F15.000
G2 X6.486 Y-14.428 Z-2.000 I-1.057 J-1.057 F180.000
G2 X4.617 Y-13.440 Z-2.000 I-0.440 J1.428 F180.000
G2 X5.605 Y-11.572 Z-2.000 I1.428 J0.440 F180.000
G2 X7.102 Y-11.943 Z-2.000 I0.440 J-1.428 F180.000
G1 X7.102 Y-11.943 Z-2.200 F15.000
G2 X6.486 Y-14.428 Z-2.200 I-1.057 J-1.057 F180.000
G2 X4.617 Y-13.440 Z-2.200 I-0.440 J1.428 F180.000
G2 X5.605 Y-11.572 Z-2.200 I1.428 J0.440 F180.000
G2 X7.102 Y-11.943 Z-2.200 I0.440 J-1.428 F180.000
G1 X7.102 Y-11.943 Z-2.400 F15.000
G2 X6.486 Y-14.428 Z-2.400 I-1.057 J-1.057 F180.000
G2 X4.617 Y-13.440 Z-2.400 I-0.440 J1.428 F180.000
G2 X5.605 Y-11.572 Z-2.400 I1.428 J0.440 F180.000
G2 X7.102 Y-11.943 Z-2.400 I0.440 J-1.428 F180.000
G1 X7.102 Y-11.943 Z-2.600 F15.000
G2 X6.486 Y-14.428 Z-2.600 I-1.057 J-1.057 F180.000
G2 X4.617 Y-13.440 Z-2.600 I-0.440 J1.428 F180.000
G2 X5.605 Y-11.572 Z-2.600 I1.428 J0.440 F180.000
G2 X7.102 Y-11.943 Z-2.600 I0.440 J-1.428 F180.000
G1 X7.102 Y-11.943 Z-2.800 F15.000
G2 X6.486 Y-14.428 Z-2.800 I-1.057 J-1.057 F180.000
G2 X4.617 Y-13.440 Z-2.800 I-0.440 J1.428 F180.000
G2 X5.605 Y-11.572 Z-2.800 I1.428 J0.440 F180.000
G2 X7.102 Y-11.943 Z-2.800 I0.440 J-1.428 F180.000
G1 X7.102 Y-11.943 Z-3.000 F15.000
G2 X6.486 Y-14.428 Z-3.000 I-1.057 J-1.057 F180.000
G2 X4.617 Y-13.440 Z-3.000 I-0.440 J1.428 F180.000
G2 X5.605 Y-11.572 Z-3.000 I1.428 J0.440 F180.000
G2 X7.102 Y-11.943 Z-3.000 I0.440 J-1.428 F180.000
G1 X7.102 Y-11.943 Z-3.200 F15.000
G2 X6.486 Y-14.428 Z-3.200 I-1.057 J-1.057 F180.000
G2 X4.617 Y-13.440 Z-3.200 I-0.440 J1.428 F180.000
G2 X5.605 Y-11.572 Z-3.200 I1.428 J0.440 F180.000
G2 X7.102 Y-11.943 Z-3.200 I0.440 J-1.428 F180.000
G1 X7.102 Y-11.943 Z-3.400 F15.000
G2 X6.486 Y-14.428 Z-3.400 I-1.057 J-1.057 F180.000
G2 X4.617 Y-13.440 Z-3.400 I-0.440 J1.428 F180.000
G2 X5.605 Y-11.572 Z-3.400 I1.428 J0.440 F180.000
G2 X7.102 Y-11.943 Z-3.400 I0.440 J-1.428 F180.000
G1 X7.102 Y-11.943 Z-3.600 F15.000
G2 X6.486 Y-14.428 Z-3.600 I-1.057 J-1.057 F180.000
G2 X4.617 Y-13.440 Z-3.600 I-0.440 J1.428 F180.000
G2 X5.605 Y-11.572 Z-3.600 I1.428 J0.440 F180.000
G2 X7.102 Y-11.943 Z-3.600 I0.440 J-1.428 F180.000
G1 X7.102 Y-11.943 Z-3.800 F15.000
G2 X6.486 Y-14.428 Z-3.800 I-1.057 J-1.057 F180.000
G2 X4.617 Y-13.440 Z-3.800 I-0.440 J1.428 F180.000
G2 X5.605 Y-11.572 Z-3.800 I1.428 J0.440 F180.000
G2 X7.102 Y-11.943 Z-3.800 I0.440 J-1.428 F180.000
G1 X7.102 Y-11.943 Z-4.000 F15.000
G2 X6.486 Y-14.428 Z-4.000 I-1.057 J-1.057 F180.000
G2 X4.617 Y-13.440 Z-4.000 I-0.440 J1.428 F180.000
G2 X5.605 Y-11.572 Z-4.000 I1.428 J0.440 F180.000
G2 X7.102 Y-11.943 Z-4.000 I0.440 J-1.428 F180.000
G1 X7.102 Y-11.943 Z-4.200 F15.000
G2 X6.486 Y-14.428 Z-4.200 I-1.057 J-1.057 F180.000
G2 X4.617 Y-13.440 Z-4.200 I-0.440 J1.428 F180.000
G2 X5.605 Y-11.572 Z-4.200 I1.428 J0.440 F180.000
G2 X7.102 Y-11.943 Z-4.200 I0.440 J-1.428 F180.000
G1 X7.102 Y-11.943 Z-4.400 F15.000
G2 X6.486 Y-14.428 Z-4.400 I-1.057 J-1.057 F180.000
G2 X4.617 Y-13.440 Z-4.400 I-0.440 J1.428 F180.000
G2 X5.605 Y-11.572 Z-4.400 I1.428 J0.440 F180.000
G2 X7.102 Y-11.943 Z-4.400 I0.440 J-1.428 F180.000
G1 X7.102 Y-11.943 Z-4.600 F15.000
G2 X6.486 Y-14.428 Z-4.600 I-1.057 J-1.057 F180.000
G2 X4.617 Y-13.440 Z-4.600 I-0.440 J1.428 F180.000
G2 X5.605 Y-11.572 Z-4.600 I1.428 J0.440 F180.000
G2 X7.102 Y-11.943 Z-4.600 I0.440 J-1.428 F180.000
G1 X7.102 Y-11.943 Z-4.800 F15.000
G2 X6.486 Y-14.428 Z-4.800 I-1.057 J-1.057 F180.000
G2 X4.617 Y-13.440 Z-4.800 I-0.440 J1.428 F180.000
G2 X5.605 Y-11.572 Z-4.800 I1.428 J0.440 F180.000
G2 X7.102 Y-11.943 Z-4.800 I0.440 J-1.428 F180.000
G1 X7.102 Y-11.943 Z-5.000 F15.000
G2 X6.486 Y-14.428 Z-5.000 I-1.057 J-1.057 F180.000
G2 X4.617 Y-13.440 Z-5.000 I-0.440 J1.428 F180.000
G2 X5.605 Y-11.572 Z-5.000 I1.428 J0.440 F180.000
G2 X7.102 Y-11.943 Z-5.000 I0.440 J-1.428 F180.000
G1 X7.102 Y-11.943 Z-5.200 F15.000
G2 X6.486 Y-14.428 Z-5.200 I-1.057 J-1.057 F180.000
G2 X4.617 Y-13.440 Z-5.200 I-0.440 J1.428 F180.000
G2 X5.605 Y-11.572 Z-5.200 I1.428 J0.440 F180.000
G2 X7.102 Y-11.943 Z-5.200 I0.440 J-1.428 F180.000
G1 X7.102 Y-11.943 Z-5.400 F15.000
G2 X6.486 Y-14.428 Z-5.400 I-1.057 J-1.057 F180.000
G2 X4.617 Y-13.440 Z-5.400 I-0.440 J1.428 F180.000
G2 X5.605 Y-11.572 Z-5.400 I1.428 J0.440 F180.000
G2 X7.102 Y-11.943 Z-5.400 I0.440 J-1.428 F180.000
G1 X7.102 Y-11.943 Z-5.600 F15.000
G2 X6.486 Y-14.428 Z-5.600 I-1.057 J-1.057 F180.000
G2 X4.617 Y-13.440 Z-5.600 I-0.440 J1.428 F180.000
G2 X5.605 Y-11.572 Z-5.600 I1.428 J0.440 F180.000
G2 X7.102 Y-11.943 Z-5.600 I0.440 J-1.428 F180.000
G1 X7.102 Y-11.943 Z-5.800 F15.000
G2 X6.486 Y-14.428 Z-5.800 I-1.057 J-1.057 F180.000
G2 X4.617 Y-13.440 Z-5.800 I-0.440 J1.428 F180.000
G2 X5.605 Y-11.572 Z-5.800 I1.428 J0.440 F180.000
G2 X7.102 Y-11.943 Z-5.800 I0.440 J-1.428 F180.000
G1 X7.102 Y-11.943 Z-6.000 F15.000
G2 X6.486 Y-14.428 Z-6.000 I-1.057 J-1.057 F180.000
G2 X4.617 Y-13.440 Z-6.000 I-0.440 J1.428 F180.000
G2 X5.605 Y-11.572 Z-6.000 I1.428 J0.440 F180.000
G2 X7.102 Y-11.943 Z-6.000 I0.440 J-1.428 F180.000
G1 X7.102 Y-11.943 Z-6.200 F15.000
G2 X6.486 Y-14.428 Z-6.200 I-1.057 J-1.057 F180.000
G2 X4.617 Y-13.440 Z-6.200 I-0.440 J1.428 F180.000
G2 X5.605 Y-11.572 Z-6.200 I1.428 J0.440 F180.000
G2 X7.102 Y-11.943 Z-6.200 I0.440 J-1.428 F180.000
G1 X7.102 Y-11.943 Z-6.400 F15.000
G2 X6.486 Y-14.428 Z-6.400 I-1.057 J-1.057 F180.000
G2 X4.617 Y-13.440 Z-6.400 I-0.440 J1.428 F180.000
G2 X5.605 Y-11.572 Z-6.400 I1.428 J0.440 F180.000
G2 X7.102 Y-11.943 Z-6.400 I0.440 J-1.428 F180.000
G1 X7.102 Y-11.943 Z-6.600 F15.000
G2 X6.486 Y-14.428 Z-6.600 I-1.057 J-1.057 F180.000
G2 X4.617 Y-13.440 Z-6.600 I-0.440 J1.428 F180.000
G2 X5.605 Y-11.572 Z-6.600 I1.428 J0.440 F180.000
G2 X7.102 Y-11.943 Z-6.600 I0.440 J-1.428 F180.000
G1 X7.102 Y-11.943 Z-6.800 F15.000
G2 X6.486 Y-14.428 Z-6.800 I-1.057 J-1.057 F180.000
G2 X4.617 Y-13.440 Z-6.800 I-0.440 J1.428 F180.000
G2 X5.605 Y-11.572 Z-6.800 I1.428 J0.440 F180.000
G2 X7.102 Y-11.943 Z-6.800 I0.440 J-1.428 F180.000
G1 X7.102 Y-11.943 Z-7.000 F15.000
G2 X6.486 Y-14.428 Z-7.000 I-1.057 J-1.057 F180.000
G2 X4.617 Y-13.440 Z-7.000 I-0.440 J1.428 F180.000
G2 X5.605 Y-11.572 Z-7.000 I1.428 J0.440 F180.000
G2 X7.102 Y-11.943 Z-7.000 I0.440 J-1.428 F180.000
G1 X7.102 Y-11.943 Z-7.200 F15.000
G2 X6.486 Y-14.428 Z-7.200 I-1.057 J-1.057 F180.000
G2 X4.617 Y-13.440 Z-7.200 I-0.440 J1.428 F180.000
G2 X5.605 Y-11.572 Z-7.200 I1.428 J0.440 F180.000
G2 X7.102 Y-11.943 Z-7.200 I0.440 J-1.428 F180.000
G1 X7.102 Y-11.943 Z-7.400 F15.000
G2 X6.486 Y-14.428 Z-7.400 I-1.057 J-1.057 F180.000
G2 X4.617 Y-13.440 Z-7.400 I-0.440 J1.428 F180.000
G2 X5.605 Y-11.572 Z-7.400 I1.428 J0.440 F180.000
G2 X7.102 Y-11.943 Z-7.400 I0.440 J-1.428 F180.000
G1 X7.102 Y-11.943 Z-7.600 F15.000
G2 X6.486 Y-14.428 Z-7.600 I-1.057 J-1.057 F180.000
G2 X4.617 Y-13.440 Z-7.600 I-0.440 J1.428 F180.000
G2 X5.605 Y-11.572 Z-7.600 I1.428 J0.440 F180.000
G2 X7.102 Y-11.943 Z-7.600 I0.440 J-1.428 F180.000
G1 X7.102 Y-11.943 Z-7.800 F15.000
G2 X6.486 Y-14.428 Z-7.800 I-1.057 J-1.057 F180.000
G2 X4.617 Y-13.440 Z-7.800 I-0.440 J1.428 F180.000
G2 X5.605 Y-11.572 Z-7.800 I1.428 J0.440 F180.000
G2 X7.102 Y-11.943 Z-7.800 I0.440 J-1.428 F180.000
G1 X7.102 Y-11.943 Z-8.000 F15.000
G2 X6.486 Y-14.428 Z-8.000 I-1.057 J-1.057 F180.000
G2 X4.617 Y-13.440 Z-8.000 I-0.440 J1.428 F180.000
G2 X5.605 Y-11.572 Z-8.000 I1.428 J0.440 F180.000
G2 X7.102 Y-11.943 Z-8.000 I0.440 J-1.428 F180.000
G1 X7.102 Y-11.943 Z-8.200 F15.000
G2 X6.486 Y-14.428 Z-8.200 I-1.057 J-1.057 F180.000
G2 X4.617 Y-13.440 Z-8.200 I-0.440 J1.428 F180.000
G2 X5.605 Y-11.572 Z-8.200 I1.428 J0.440 F180.000
G2 X7.102 Y-11.943 Z-8.200 I0.440 J-1.428 F180.000
G1 X7.102 Y-11.943 Z-8.400 F15.000
G2 X6.486 Y-14.428 Z-8.400 I-1.057 J-1.057 F180.000
G2 X4.617 Y-13.440 Z-8.400 I-0.440 J1.428 F180.000
G2 X5.605 Y-11.572 Z-8.400 I1.428 J0.440 F180.000
G2 X7.102 Y-11.943 Z-8.400 I0.440 J-1.428 F180.000
G1 X7.102 Y-11.943 Z-8.600 F15.000
G2 X6.486 Y-14.428 Z-8.600 I-1.057 J-1.057 F180.000
G2 X4.617 Y-13.440 Z-8.600 I-0.440 J1.428 F180.000
G2 X5.605 Y-11.572 Z-8.600 I1.428 J0.440 F180.000
G2 X7.102 Y-11.943 Z-8.600 I0.440 J-1.428 F180.000
G1 X7.102 Y-11.943 Z-8.800 F15.000
G2 X6.486 Y-14.428 Z-8.800 I-1.057 J-1.057 F180.000
G2 X4.617 Y-13.440 Z-8.800 I-0.440 J1.428 F180.000
G2 X5.605 Y-11.572 Z-8.800 I1.428 J0.440 F180.000
G2 X7.102 Y-11.943 Z-8.800 I0.440 J-1.428 F180.000
G1 X7.102 Y-11.943 Z-9.000 F15.000
G2 X6.486 Y-14.428 Z-9.000 I-1.057 J-1.057 F180.000
G2 X4.617 Y-13.440 Z-9.000 I-0.440 J1.428 F180.000
G2 X5.605 Y-11.572 Z-9.000 I1.428 J0.440 F180.000
G2 X7.102 Y-11.943 Z-9.000 I0.440 J-1.428 F180.000
G1 X7.102 Y-11.943 Z-9.200 F15.000
G2 X6.486 Y-14.428 Z-9.200 I-1.057 J-1.057 F180.000
G2 X4.617 Y-13.440 Z-9.200 I-0.440 J1.428 F180.000
G2 X5.605 Y-11.572 Z-9.200 I1.428 J0.440 F180.000
G2 X7.102 Y-11.943 Z-9.200 I0.440 J-1.428 F180.000
G1 X7.102 Y-11.943 Z-9.400 F15.000
G2 X6.486 Y-14.428 Z-9.400 I-1.057 J-1.057 F180.000
G2 X4.617 Y-13.440 Z-9.400 I-0.440 J1.428 F180.000
G2 X5.605 Y-11.572 Z-9.400 I1.428 J0.440 F180.000
G2 X7.102 Y-11.943 Z-9.400 I0.440 J-1.428 F180.000
G1 X7.102 Y-11.943 Z-9.600 F15.000
G2 X6.486 Y-14.428 Z-9.600 I-1.057 J-1.057 F180.000
G2 X4.617 Y-13.440 Z-9.600 I-0.440 J1.428 F180.000
G2 X5.605 Y-11.572 Z-9.600 I1.428 J0.440 F180.000
G2 X7.102 Y-11.943 Z-9.600 I0.440 J-1.428 F180.000
G1 X7.102 Y-11.943 Z-9.800 F15.000
G2 X6.486 Y-14.428 Z-9.800 I-1.057 J-1.057 F180.000
G2 X4.617 Y-13.440 Z-9.800 I-0.440 J1.428 F180.000
G2 X5.605 Y-11.572 Z-9.800 I1.428 J0.440 F180.000
G2 X7.102 Y-11.943 Z-9.800 I0.440 J-1.428 F180.000
G1 X7.102 Y-11.943 Z-10.000 F15.000
G2 X6.486 Y-14.428 Z-10.000 I-1.057 J-1.057 F180.000
G2 X4.617 Y-13.440 Z-10.000 I-0.440 J1.428 F180.000
G2 X5.605 Y-11.572 Z-10.000 I1.428 J0.440 F180.000
G2 X7.102 Y-11.943 Z-10.000 I0.440 J-1.428 F180.000
G1 X7.102 Y-11.943 Z-10.200 F15.000
G2 X6.486 Y-14.428 Z-10.200 I-1.057 J-1.057 F180.000
G2 X4.617 Y-13.440 Z-10.200 I-0.440 J1.428 F180.000
G2 X5.605 Y-11.572 Z-10.200 I1.428 J0.440 F180.000
G2 X7.102 Y-11.943 Z-10.200 I0.440 J-1.428 F180.000
G1 X7.102 Y-11.943 Z-10.400 F15.000
G2 X6.486 Y-14.428 Z-10.400 I-1.057 J-1.057 F180.000
G2 X4.617 Y-13.440 Z-10.400 I-0.440 J1.428 F180.000
G2 X5.605 Y-11.572 Z-10.400 I1.428 J0.440 F180.000
G2 X7.102 Y-11.943 Z-10.400 I0.440 J-1.428 F180.000
G1 X7.102 Y-11.943 Z-10.600 F15.000
G2 X6.486 Y-14.428 Z-10.600 I-1.057 J-1.057 F180.000
G2 X4.617 Y-13.440 Z-10.600 I-0.440 J1.428 F180.000
G2 X5.605 Y-11.572 Z-10.600 I1.428 J0.440 F180.000
G2 X7.102 Y-11.943 Z-10.600 I0.440 J-1.428 F180.000
G1 X7.102 Y-11.943 Z-10.800 F15.000
G2 X6.486 Y-14.428 Z-10.800 I-1.057 J-1.057 F180.000
G2 X4.617 Y-13.440 Z-10.800 I-0.440 J1.428 F180.000
G2 X5.605 Y-11.572 Z-10.800 I1.428 J0.440 F180.000
G2 X7.102 Y-11.943 Z-10.800 I0.440 J-1.428 F180.000
G1 X7.102 Y-11.943 Z-11.000 F15.000
G2 X6.486 Y-14.428 Z-11.000 I-1.057 J-1.057 F180.000
G2 X4.617 Y-13.440 Z-11.000 I-0.440 J1.428 F180.000
G2 X5.605 Y-11.572 Z-11.000 I1.428 J0.440 F180.000
G2 X7.102 Y-11.943 Z-11.000 I0.440 J-1.428 F180.000
G1 X7.102 Y-11.943 Z-11.200 F15.000
G2 X6.486 Y-14.428 Z-11.200 I-1.057 J-1.057 F180.000
G2 X4.617 Y-13.440 Z-11.200 I-0.440 J1.428 F180.000
G2 X5.605 Y-11.572 Z-11.200 I1.428 J0.440 F180.000
G2 X7.102 Y-11.943 Z-11.200 I0.440 J-1.428 F180.000
G1 X7.102 Y-11.943 Z-11.400 F15.000
G2 X6.486 Y-14.428 Z-11.400 I-1.057 J-1.057 F180.000
G2 X4.617 Y-13.440 Z-11.400 I-0.440 J1.428 F180.000
G2 X5.605 Y-11.572 Z-11.400 I1.428 J0.440 F180.000
G2 X7.102 Y-11.943 Z-11.400 I0.440 J-1.428 F180.000
G1 X7.102 Y-11.943 Z-11.600 F15.000
G2 X6.486 Y-14.428 Z-11.600 I-1.057 J-1.057 F180.000
G2 X4.617 Y-13.440 Z-11.600 I-0.440 J1.428 F180.000
G2 X5.605 Y-11.572 Z-11.600 I1.428 J0.440 F180.000
G2 X7.102 Y-11.943 Z-11.600 I0.440 J-1.428 F180.000
G1 X7.102 Y-11.943 Z-11.800 F15.000
G2 X6.486 Y-14.428 Z-11.800 I-1.057 J-1.057 F180.000
G2 X4.617 Y-13.440 Z-11.800 I-0.440 J1.428 F180.000
G2 X5.605 Y-11.572 Z-11.800 I1.428 J0.440 F180.000
G2 X7.102 Y-11.943 Z-11.800 I0.440 J-1.428 F180.000
G1 X7.102 Y-11.943 Z-12.000 F15.000
G2 X6.486 Y-14.428 Z-12.000 I-1.057 J-1.057 F180.000
G2 X4.617 Y-13.440 Z-12.000 I-0.440 J1.428 F180.000
G2 X5.605 Y-11.572 Z-12.000 I1.428 J0.440 F180.000
G2 X7.102 Y-11.943 Z-12.000 I0.440 J-1.428 F180.000
G1 X7.102 Y-11.943 Z-12.200 F15.000
G2 X6.486 Y-14.428 Z-12.200 I-1.057 J-1.057 F180.000
G2 X4.617 Y-13.440 Z-12.200 I-0.440 J1.428 F180.000
G2 X5.605 Y-11.572 Z-12.200 I1.428 J0.440 F180.000
G2 X7.102 Y-11.943 Z-12.200 I0.440 J-1.428 F180.000
G1 X7.102 Y-11.943 Z-12.400 F15.000
G2 X6.486 Y-14.428 Z-12.400 I-1.057 J-1.057 F180.000
G2 X4.617 Y-13.440 Z-12.400 I-0.440 J1.428 F180.000
G2 X5.605 Y-11.572 Z-12.400 I1.428 J0.440 F180.000
G2 X7.102 Y-11.943 Z-12.400 I0.440 J-1.428 F180.000
G1 X7.102 Y-11.943 Z-12.500 F15.000
G2 X6.486 Y-14.428 Z-12.500 I-1.057 J-1.057 F180.000
G2 X4.617 Y-13.440 Z-12.500 I-0.440 J1.428 F180.000
G2 X5.605 Y-11.572 Z-12.500 I1.428 J0.440 F180.000
G2 X7.102 Y-11.943 Z-12.500 I0.440 J-1.428 F180.000
G0 Z5.000
(finish operation: Profile_Edges004)
(begin operation: T6: 4mm Endmill)
(machine: not set, mm/min)
(T6: 4mm Endmill)
M6 T6 G43 H6
M3 S3000
(finish operation: T6: 4mm Endmill)
(begin operation: Profile_Edges005)
(machine: not set, mm/min)
(Profile_Edges005)
(Compensated Tool Path. Diameter: 4.0)
G0 Z5.000
G0 X22.906 Y-10.740
G1 X22.906 Y-10.740 Z-7.200 F15.000
G2 X21.410 Y-16.103 Z-7.200 I-2.260 J-2.260 F180.000
G2 X19.880 Y-9.897 Z-7.200 I-0.765 J3.103 F180.000
G2 X22.906 Y-10.740 Z-7.200 I0.765 J-3.103 F180.000
G1 X22.906 Y-10.740 Z-7.400 F15.000
G2 X21.410 Y-16.103 Z-7.400 I-2.260 J-2.260 F180.000
G2 X19.880 Y-9.897 Z-7.400 I-0.765 J3.103 F180.000
G2 X22.906 Y-10.740 Z-7.400 I0.765 J-3.103 F180.000
G1 X22.906 Y-10.740 Z-7.600 F15.000
G2 X21.410 Y-16.103 Z-7.600 I-2.260 J-2.260 F180.000
G2 X19.880 Y-9.897 Z-7.600 I-0.765 J3.103 F180.000
G2 X22.906 Y-10.740 Z-7.600 I0.765 J-3.103 F180.000
G1 X22.906 Y-10.740 Z-7.800 F15.000
G2 X21.410 Y-16.103 Z-7.800 I-2.260 J-2.260 F180.000
G2 X19.880 Y-9.897 Z-7.800 I-0.765 J3.103 F180.000
G2 X22.906 Y-10.740 Z-7.800 I0.765 J-3.103 F180.000
G1 X22.906 Y-10.740 Z-8.000 F15.000
G2 X21.410 Y-16.103 Z-8.000 I-2.260 J-2.260 F180.000
G2 X19.880 Y-9.897 Z-8.000 I-0.765 J3.103 F180.000
G2 X22.906 Y-10.740 Z-8.000 I0.765 J-3.103 F180.000
G1 X22.906 Y-10.740 Z-8.200 F15.000
G2 X21.410 Y-16.103 Z-8.200 I-2.260 J-2.260 F180.000
G2 X19.880 Y-9.897 Z-8.200 I-0.765 J3.103 F180.000
G2 X22.906 Y-10.740 Z-8.200 I0.765 J-3.103 F180.000
G1 X22.906 Y-10.740 Z-8.400 F15.000
G2 X21.410 Y-16.103 Z-8.400 I-2.260 J-2.260 F180.000
G2 X19.880 Y-9.897 Z-8.400 I-0.765 J3.103 F180.000
G2 X22.906 Y-10.740 Z-8.400 I0.765 J-3.103 F180.000
G1 X22.906 Y-10.740 Z-8.600 F15.000
G2 X21.410 Y-16.103 Z-8.600 I-2.260 J-2.260 F180.000
G2 X19.880 Y-9.897 Z-8.600 I-0.765 J3.103 F180.000
G2 X22.906 Y-10.740 Z-8.600 I0.765 J-3.103 F180.000
G1 X22.906 Y-10.740 Z-8.800 F15.000
G2 X21.410 Y-16.103 Z-8.800 I-2.260 J-2.260 F180.000
G2 X19.880 Y-9.897 Z-8.800 I-0.765 J3.103 F180.000
G2 X22.906 Y-10.740 Z-8.800 I0.765 J-3.103 F180.000
G1 X22.906 Y-10.740 Z-9.000 F15.000
G2 X21.410 Y-16.103 Z-9.000 I-2.260 J-2.260 F180.000
G2 X19.880 Y-9.897 Z-9.000 I-0.765 J3.103 F180.000
G2 X22.906 Y-10.740 Z-9.000 I0.765 J-3.103 F180.000
G1 X22.906 Y-10.740 Z-9.200 F15.000
G2 X21.410 Y-16.103 Z-9.200 I-2.260 J-2.260 F180.000
G2 X19.880 Y-9.897 Z-9.200 I-0.765 J3.103 F180.000
G2 X22.906 Y-10.740 Z-9.200 I0.765 J-3.103 F180.000
G1 X22.906 Y-10.740 Z-9.400 F15.000
G2 X21.410 Y-16.103 Z-9.400 I-2.260 J-2.260 F180.000
G2 X19.880 Y-9.897 Z-9.400 I-0.765 J3.103 F180.000
G2 X22.906 Y-10.740 Z-9.400 I0.765 J-3.103 F180.000
G1 X22.906 Y-10.740 Z-9.600 F15.000
G2 X21.410 Y-16.103 Z-9.600 I-2.260 J-2.260 F180.000
G2 X19.880 Y-9.897 Z-9.600 I-0.765 J3.103 F180.000
G2 X22.906 Y-10.740 Z-9.600 I0.765 J-3.103 F180.000
G1 X22.906 Y-10.740 Z-9.800 F15.000
G2 X21.410 Y-16.103 Z-9.800 I-2.260 J-2.260 F180.000
G2 X19.880 Y-9.897 Z-9.800 I-0.765 J3.103 F180.000
G2 X22.906 Y-10.740 Z-9.800 I0.765 J-3.103 F180.000
G1 X22.906 Y-10.740 Z-10.000 F15.000
G2 X21.410 Y-16.103 Z-10.000 I-2.260 J-2.260 F180.000
G2 X19.880 Y-9.897 Z-10.000 I-0.765 J3.103 F180.000
G2 X22.906 Y-10.740 Z-10.000 I0.765 J-3.103 F180.000
G1 X22.906 Y-10.740 Z-10.200 F15.000
G2 X21.410 Y-16.103 Z-10.200 I-2.260 J-2.260 F180.000
G2 X19.880 Y-9.897 Z-10.200 I-0.765 J3.103 F180.000
G2 X22.906 Y-10.740 Z-10.200 I0.765 J-3.103 F180.000
G1 X22.906 Y-10.740 Z-10.400 F15.000
G2 X21.410 Y-16.103 Z-10.400 I-2.260 J-2.260 F180.000
G2 X19.880 Y-9.897 Z-10.400 I-0.765 J3.103 F180.000
G2 X22.906 Y-10.740 Z-10.400 I0.765 J-3.103 F180.000
G1 X22.906 Y-10.740 Z-10.600 F15.000
G2 X21.410 Y-16.103 Z-10.600 I-2.260 J-2.260 F180.000
G2 X19.880 Y-9.897 Z-10.600 I-0.765 J3.103 F180.000
G2 X22.906 Y-10.740 Z-10.600 I0.765 J-3.103 F180.000
G1 X22.906 Y-10.740 Z-10.800 F15.000
G2 X21.410 Y-16.103 Z-10.800 I-2.260 J-2.260 F180.000
G2 X19.880 Y-9.897 Z-10.800 I-0.765 J3.103 F180.000
G2 X22.906 Y-10.740 Z-10.800 I0.765 J-3.103 F180.000
G1 X22.906 Y-10.740 Z-11.000 F15.000
G2 X21.410 Y-16.103 Z-11.000 I-2.260 J-2.260 F180.000
G2 X19.880 Y-9.897 Z-11.000 I-0.765 J3.103 F180.000
G2 X22.906 Y-10.740 Z-11.000 I0.765 J-3.103 F180.000
G1 X22.906 Y-10.740 Z-11.200 F15.000
G2 X21.410 Y-16.103 Z-11.200 I-2.260 J-2.260 F180.000
G2 X19.880 Y-9.897 Z-11.200 I-0.765 J3.103 F180.000
G2 X22.906 Y-10.740 Z-11.200 I0.765 J-3.103 F180.000
G1 X22.906 Y-10.740 Z-11.400 F15.000
G2 X21.410 Y-16.103 Z-11.400 I-2.260 J-2.260 F180.000
G2 X19.880 Y-9.897 Z-11.400 I-0.765 J3.103 F180.000
G2 X22.906 Y-10.740 Z-11.400 I0.765 J-3.103 F180.000
G1 X22.906 Y-10.740 Z-11.600 F15.000
G2 X21.410 Y-16.103 Z-11.600 I-2.260 J-2.260 F180.000
G2 X19.880 Y-9.897 Z-11.600 I-0.765 J3.103 F180.000
G2 X22.906 Y-10.740 Z-11.600 I0.765 J-3.103 F180.000
G1 X22.906 Y-10.740 Z-11.800 F15.000
G2 X21.410 Y-16.103 Z-11.800 I-2.260 J-2.260 F180.000
G2 X19.880 Y-9.897 Z-11.800 I-0.765 J3.103 F180.000
G2 X22.906 Y-10.740 Z-11.800 I0.765 J-3.103 F180.000
G1 X22.906 Y-10.740 Z-12.000 F15.000
G2 X21.410 Y-16.103 Z-12.000 I-2.260 J-2.260 F180.000
G2 X19.880 Y-9.897 Z-12.000 I-0.765 J3.103 F180.000
G2 X22.906 Y-10.740 Z-12.000 I0.765 J-3.103 F180.000
G1 X22.906 Y-10.740 Z-12.200 F15.000
G2 X21.410 Y-16.103 Z-12.200 I-2.260 J-2.260 F180.000
G2 X19.880 Y-9.897 Z-12.200 I-0.765 J3.103 F180.000
G2 X22.906 Y-10.740 Z-12.200 I0.765 J-3.103 F180.000
G1 X22.906 Y-10.740 Z-12.400 F15.000
G2 X21.410 Y-16.103 Z-12.400 I-2.260 J-2.260 F180.000
G2 X19.880 Y-9.897 Z-12.400 I-0.765 J3.103 F180.000
G2 X22.906 Y-10.740 Z-12.400 I0.765 J-3.103 F180.000
G1 X22.906 Y-10.740 Z-12.500 F15.000
G2 X21.410 Y-16.103 Z-12.500 I-2.260 J-2.260 F180.000
G2 X19.880 Y-9.897 Z-12.500 I-0.765 J3.103 F180.000
G2 X22.906 Y-10.740 Z-12.500 I0.765 J-3.103 F180.000
G0 Z5.000
(finish operation: Profile_Edges005)
(begin operation: T15: 1/8" drill)
(machine: not set, mm/min)
(T15: 1/8" drill)
M6 T15 G43 H15
M3 S800
(finish operation: T15: 1/8" drill)
(begin operation: Drilling)
(machine: not set, mm/min)
(Drilling)
(Begin Drilling)
G0 Z5.000
G90
G98
G83 X20.645 Y-5.380 Z-13.000 F60.000 Q0.100 R3.000
G83 X20.645 Y-20.620 Z-13.000 F60.000 Q0.100 R3.000
G80
G0 Z5.000
(finish operation: Drilling)
(begin postamble)
M05
G17 G54 G90 G80 G40
M2
