(Exported by FreeCAD)
(Post Processor: linuxcnc_post)
(Output Time:2019-04-22 10:14:48.805295)
(begin preamble)
G17 G54 G40 G49 G80 G90
G21
M8
(begin operation: T4: 12mm Endmill)
(machine: not set, mm/min)
(T4: 12mm Endmill)
M6 T4 G43 H4
M3 S3000
(finish operation: T4: 12mm Endmill)
(begin operation: Profile_Edges)
(machine: not set, mm/min)
(Profile_Edges)
(Compensated Tool Path. Diameter: 12.0)
G0 Z5.000
G0 X51.044 Y-2.102
G0 Z3.000
G1 X51.044 Y-2.102 Z-0.500 F30.000
G2 X55.036 Y-8.711 Z-0.500 I-3.866 J-6.845 F720.000
G2 X53.930 Y-12.495 Z-0.500 I-5.891 J-0.333 F720.000
G2 X54.952 Y-14.924 Z-0.500 I-4.801 J-3.450 F720.000
G2 X47.191 Y-23.915 Z-0.500 I-7.769 J-1.139 F720.000
G1 X30.582 Y-23.915 Z-0.500 F720.000
G1 X29.750 Y-24.746 Z-0.500 F720.000
G2 X22.096 Y-30.451 Z-0.500 I-7.667 J2.299 F720.000
G1 X16.742 Y-30.451 Z-0.500 F720.000
G2 X11.006 Y-28.015 Z-0.500 I-0.009 J7.949 F720.000
G1 X2.196 Y-28.015 Z-0.500 F720.000
G2 X-5.804 Y-20.015 Z-0.500 I0.000 J8.000 F720.000
G1 X-5.804 Y-10.985 Z-0.500 F720.000
G2 X4.196 Y-0.985 Z-0.500 I10.012 J-0.012 F720.000
G1 X8.256 Y-0.985 Z-0.500 F720.000
G1 X9.132 Y-0.109 Z-0.500 F720.000
G2 X16.742 Y5.451 Z-0.500 I7.624 J-2.447 F720.000
G1 X22.096 Y5.451 Z-0.500 F720.000
G2 X29.750 Y-0.254 Z-0.500 I-0.013 J-8.004 F720.000
G1 X30.582 Y-1.085 Z-0.500 F720.000
G1 X47.191 Y-1.085 Z-0.500 F720.000
G2 X51.044 Y-2.102 Z-0.500 I-0.013 J-7.861 F720.000
G1 X51.044 Y-2.102 Z-1.000 F30.000
G2 X55.036 Y-8.711 Z-1.000 I-3.866 J-6.845 F720.000
G2 X53.930 Y-12.495 Z-1.000 I-5.891 J-0.333 F720.000
G2 X54.952 Y-14.924 Z-1.000 I-4.801 J-3.450 F720.000
G2 X47.191 Y-23.915 Z-1.000 I-7.769 J-1.139 F720.000
G1 X30.582 Y-23.915 Z-1.000 F720.000
G1 X29.750 Y-24.746 Z-1.000 F720.000
G2 X22.096 Y-30.451 Z-1.000 I-7.667 J2.299 F720.000
G1 X16.742 Y-30.451 Z-1.000 F720.000
G2 X11.006 Y-28.015 Z-1.000 I-0.009 J7.949 F720.000
G1 X2.196 Y-28.015 Z-1.000 F720.000
G2 X-5.804 Y-20.015 Z-1.000 I0.000 J8.000 F720.000
G1 X-5.804 Y-10.985 Z-1.000 F720.000
G2 X4.196 Y-0.985 Z-1.000 I10.012 J-0.012 F720.000
G1 X8.256 Y-0.985 Z-1.000 F720.000
G1 X9.132 Y-0.109 Z-1.000 F720.000
G2 X16.742 Y5.451 Z-1.000 I7.624 J-2.447 F720.000
G1 X22.096 Y5.451 Z-1.000 F720.000
G2 X29.750 Y-0.254 Z-1.000 I-0.013 J-8.004 F720.000
G1 X30.582 Y-1.085 Z-1.000 F720.000
G1 X47.191 Y-1.085 Z-1.000 F720.000
G2 X51.044 Y-2.102 Z-1.000 I-0.013 J-7.861 F720.000
G1 X51.044 Y-2.102 Z-1.500 F30.000
G2 X55.036 Y-8.711 Z-1.500 I-3.866 J-6.845 F720.000
G2 X53.930 Y-12.495 Z-1.500 I-5.891 J-0.333 F720.000
G2 X54.952 Y-14.924 Z-1.500 I-4.801 J-3.450 F720.000
G2 X47.191 Y-23.915 Z-1.500 I-7.769 J-1.139 F720.000
G1 X30.582 Y-23.915 Z-1.500 F720.000
G1 X29.750 Y-24.746 Z-1.500 F720.000
G2 X22.096 Y-30.451 Z-1.500 I-7.667 J2.299 F720.000
G1 X16.742 Y-30.451 Z-1.500 F720.000
G2 X11.006 Y-28.015 Z-1.500 I-0.009 J7.949 F720.000
G1 X2.196 Y-28.015 Z-1.500 F720.000
G2 X-5.804 Y-20.015 Z-1.500 I0.000 J8.000 F720.000
G1 X-5.804 Y-10.985 Z-1.500 F720.000
G2 X4.196 Y-0.985 Z-1.500 I10.012 J-0.012 F720.000
G1 X8.256 Y-0.985 Z-1.500 F720.000
G1 X9.132 Y-0.109 Z-1.500 F720.000
G2 X16.742 Y5.451 Z-1.500 I7.624 J-2.447 F720.000
G1 X22.096 Y5.451 Z-1.500 F720.000
G2 X29.750 Y-0.254 Z-1.500 I-0.013 J-8.004 F720.000
G1 X30.582 Y-1.085 Z-1.500 F720.000
G1 X47.191 Y-1.085 Z-1.500 F720.000
G2 X51.044 Y-2.102 Z-1.500 I-0.013 J-7.861 F720.000
G1 X51.044 Y-2.102 Z-2.000 F30.000
G2 X55.036 Y-8.711 Z-2.000 I-3.866 J-6.845 F720.000
G2 X53.930 Y-12.495 Z-2.000 I-5.891 J-0.333 F720.000
G2 X54.952 Y-14.924 Z-2.000 I-4.801 J-3.450 F720.000
G2 X47.191 Y-23.915 Z-2.000 I-7.769 J-1.139 F720.000
G1 X30.582 Y-23.915 Z-2.000 F720.000
G1 X29.750 Y-24.746 Z-2.000 F720.000
G2 X22.096 Y-30.451 Z-2.000 I-7.667 J2.299 F720.000
G1 X16.742 Y-30.451 Z-2.000 F720.000
G2 X11.006 Y-28.015 Z-2.000 I-0.009 J7.949 F720.000
G1 X2.196 Y-28.015 Z-2.000 F720.000
G2 X-5.804 Y-20.015 Z-2.000 I0.000 J8.000 F720.000
G1 X-5.804 Y-10.985 Z-2.000 F720.000
G2 X4.196 Y-0.985 Z-2.000 I10.012 J-0.012 F720.000
G1 X8.256 Y-0.985 Z-2.000 F720.000
G1 X9.132 Y-0.109 Z-2.000 F720.000
G2 X16.742 Y5.451 Z-2.000 I7.624 J-2.447 F720.000
G1 X22.096 Y5.451 Z-2.000 F720.000
G2 X29.750 Y-0.254 Z-2.000 I-0.013 J-8.004 F720.000
G1 X30.582 Y-1.085 Z-2.000 F720.000
G1 X47.191 Y-1.085 Z-2.000 F720.000
G2 X51.044 Y-2.102 Z-2.000 I-0.013 J-7.861 F720.000
G1 X51.044 Y-2.102 Z-2.500 F30.000
G2 X55.036 Y-8.711 Z-2.500 I-3.866 J-6.845 F720.000
G2 X53.930 Y-12.495 Z-2.500 I-5.891 J-0.333 F720.000
G2 X54.952 Y-14.924 Z-2.500 I-4.801 J-3.450 F720.000
G2 X47.191 Y-23.915 Z-2.500 I-7.769 J-1.139 F720.000
G1 X30.582 Y-23.915 Z-2.500 F720.000
G1 X29.750 Y-24.746 Z-2.500 F720.000
G2 X22.096 Y-30.451 Z-2.500 I-7.667 J2.299 F720.000
G1 X16.742 Y-30.451 Z-2.500 F720.000
G2 X11.006 Y-28.015 Z-2.500 I-0.009 J7.949 F720.000
G1 X2.196 Y-28.015 Z-2.500 F720.000
G2 X-5.804 Y-20.015 Z-2.500 I0.000 J8.000 F720.000
G1 X-5.804 Y-10.985 Z-2.500 F720.000
G2 X4.196 Y-0.985 Z-2.500 I10.012 J-0.012 F720.000
G1 X8.256 Y-0.985 Z-2.500 F720.000
G1 X9.132 Y-0.109 Z-2.500 F720.000
G2 X16.742 Y5.451 Z-2.500 I7.624 J-2.447 F720.000
G1 X22.096 Y5.451 Z-2.500 F720.000
G2 X29.750 Y-0.254 Z-2.500 I-0.013 J-8.004 F720.000
G1 X30.582 Y-1.085 Z-2.500 F720.000
G1 X47.191 Y-1.085 Z-2.500 F720.000
G2 X51.044 Y-2.102 Z-2.500 I-0.013 J-7.861 F720.000
G1 X51.044 Y-2.102 Z-3.000 F30.000
G2 X55.036 Y-8.711 Z-3.000 I-3.866 J-6.845 F720.000
G2 X53.930 Y-12.495 Z-3.000 I-5.891 J-0.333 F720.000
G2 X54.952 Y-14.924 Z-3.000 I-4.801 J-3.450 F720.000
G2 X47.191 Y-23.915 Z-3.000 I-7.769 J-1.139 F720.000
G1 X30.582 Y-23.915 Z-3.000 F720.000
G1 X29.750 Y-24.746 Z-3.000 F720.000
G2 X22.096 Y-30.451 Z-3.000 I-7.667 J2.299 F720.000
G1 X16.742 Y-30.451 Z-3.000 F720.000
G2 X11.006 Y-28.015 Z-3.000 I-0.009 J7.949 F720.000
G1 X2.196 Y-28.015 Z-3.000 F720.000
G2 X-5.804 Y-20.015 Z-3.000 I0.000 J8.000 F720.000
G1 X-5.804 Y-10.985 Z-3.000 F720.000
G2 X4.196 Y-0.985 Z-3.000 I10.012 J-0.012 F720.000
G1 X8.256 Y-0.985 Z-3.000 F720.000
G1 X9.132 Y-0.109 Z-3.000 F720.000
G2 X16.742 Y5.451 Z-3.000 I7.624 J-2.447 F720.000
G1 X22.096 Y5.451 Z-3.000 F720.000
G2 X29.750 Y-0.254 Z-3.000 I-0.013 J-8.004 F720.000
G1 X30.582 Y-1.085 Z-3.000 F720.000
G1 X47.191 Y-1.085 Z-3.000 F720.000
G2 X51.044 Y-2.102 Z-3.000 I-0.013 J-7.861 F720.000
G1 X51.044 Y-2.102 Z-3.500 F30.000
G2 X55.036 Y-8.711 Z-3.500 I-3.866 J-6.845 F720.000
G2 X53.930 Y-12.495 Z-3.500 I-5.891 J-0.333 F720.000
G2 X54.952 Y-14.924 Z-3.500 I-4.801 J-3.450 F720.000
G2 X47.191 Y-23.915 Z-3.500 I-7.769 J-1.139 F720.000
G1 X30.582 Y-23.915 Z-3.500 F720.000
G1 X29.750 Y-24.746 Z-3.500 F720.000
G2 X22.096 Y-30.451 Z-3.500 I-7.667 J2.299 F720.000
G1 X16.742 Y-30.451 Z-3.500 F720.000
G2 X11.006 Y-28.015 Z-3.500 I-0.009 J7.949 F720.000
G1 X2.196 Y-28.015 Z-3.500 F720.000
G2 X-5.804 Y-20.015 Z-3.500 I0.000 J8.000 F720.000
G1 X-5.804 Y-10.985 Z-3.500 F720.000
G2 X4.196 Y-0.985 Z-3.500 I10.012 J-0.012 F720.000
G1 X8.256 Y-0.985 Z-3.500 F720.000
G1 X9.132 Y-0.109 Z-3.500 F720.000
G2 X16.742 Y5.451 Z-3.500 I7.624 J-2.447 F720.000
G1 X22.096 Y5.451 Z-3.500 F720.000
G2 X29.750 Y-0.254 Z-3.500 I-0.013 J-8.004 F720.000
G1 X30.582 Y-1.085 Z-3.500 F720.000
G1 X47.191 Y-1.085 Z-3.500 F720.000
G2 X51.044 Y-2.102 Z-3.500 I-0.013 J-7.861 F720.000
G1 X51.044 Y-2.102 Z-4.000 F30.000
G2 X55.036 Y-8.711 Z-4.000 I-3.866 J-6.845 F720.000
G2 X53.930 Y-12.495 Z-4.000 I-5.891 J-0.333 F720.000
G2 X54.952 Y-14.924 Z-4.000 I-4.801 J-3.450 F720.000
G2 X47.191 Y-23.915 Z-4.000 I-7.769 J-1.139 F720.000
G1 X30.582 Y-23.915 Z-4.000 F720.000
G1 X29.750 Y-24.746 Z-4.000 F720.000
G2 X22.096 Y-30.451 Z-4.000 I-7.667 J2.299 F720.000
G1 X16.742 Y-30.451 Z-4.000 F720.000
G2 X11.006 Y-28.015 Z-4.000 I-0.009 J7.949 F720.000
G1 X2.196 Y-28.015 Z-4.000 F720.000
G2 X-5.804 Y-20.015 Z-4.000 I0.000 J8.000 F720.000
G1 X-5.804 Y-10.985 Z-4.000 F720.000
G2 X4.196 Y-0.985 Z-4.000 I10.012 J-0.012 F720.000
G1 X8.256 Y-0.985 Z-4.000 F720.000
G1 X9.132 Y-0.109 Z-4.000 F720.000
G2 X16.742 Y5.451 Z-4.000 I7.624 J-2.447 F720.000
G1 X22.096 Y5.451 Z-4.000 F720.000
G2 X29.750 Y-0.254 Z-4.000 I-0.013 J-8.004 F720.000
G1 X30.582 Y-1.085 Z-4.000 F720.000
G1 X47.191 Y-1.085 Z-4.000 F720.000
G2 X51.044 Y-2.102 Z-4.000 I-0.013 J-7.861 F720.000
G1 X51.044 Y-2.102 Z-4.500 F30.000
G2 X55.036 Y-8.711 Z-4.500 I-3.866 J-6.845 F720.000
G2 X53.930 Y-12.495 Z-4.500 I-5.891 J-0.333 F720.000
G2 X54.952 Y-14.924 Z-4.500 I-4.801 J-3.450 F720.000
G2 X47.191 Y-23.915 Z-4.500 I-7.769 J-1.139 F720.000
G1 X30.582 Y-23.915 Z-4.500 F720.000
G1 X29.750 Y-24.746 Z-4.500 F720.000
G2 X22.096 Y-30.451 Z-4.500 I-7.667 J2.299 F720.000
G1 X16.742 Y-30.451 Z-4.500 F720.000
G2 X11.006 Y-28.015 Z-4.500 I-0.009 J7.949 F720.000
G1 X2.196 Y-28.015 Z-4.500 F720.000
G2 X-5.804 Y-20.015 Z-4.500 I0.000 J8.000 F720.000
G1 X-5.804 Y-10.985 Z-4.500 F720.000
G2 X4.196 Y-0.985 Z-4.500 I10.012 J-0.012 F720.000
G1 X8.256 Y-0.985 Z-4.500 F720.000
G1 X9.132 Y-0.109 Z-4.500 F720.000
G2 X16.742 Y5.451 Z-4.500 I7.624 J-2.447 F720.000
G1 X22.096 Y5.451 Z-4.500 F720.000
G2 X29.750 Y-0.254 Z-4.500 I-0.013 J-8.004 F720.000
G1 X30.582 Y-1.085 Z-4.500 F720.000
G1 X47.191 Y-1.085 Z-4.500 F720.000
G2 X51.044 Y-2.102 Z-4.500 I-0.013 J-7.861 F720.000
G1 X51.044 Y-2.102 Z-5.000 F30.000
G2 X55.036 Y-8.711 Z-5.000 I-3.866 J-6.845 F720.000
G2 X53.930 Y-12.495 Z-5.000 I-5.891 J-0.333 F720.000
G2 X54.952 Y-14.924 Z-5.000 I-4.801 J-3.450 F720.000
G2 X47.191 Y-23.915 Z-5.000 I-7.769 J-1.139 F720.000
G1 X30.582 Y-23.915 Z-5.000 F720.000
G1 X29.750 Y-24.746 Z-5.000 F720.000
G2 X22.096 Y-30.451 Z-5.000 I-7.667 J2.299 F720.000
G1 X16.742 Y-30.451 Z-5.000 F720.000
G2 X11.006 Y-28.015 Z-5.000 I-0.009 J7.949 F720.000
G1 X2.196 Y-28.015 Z-5.000 F720.000
G2 X-5.804 Y-20.015 Z-5.000 I0.000 J8.000 F720.000
G1 X-5.804 Y-10.985 Z-5.000 F720.000
G2 X4.196 Y-0.985 Z-5.000 I10.012 J-0.012 F720.000
G1 X8.256 Y-0.985 Z-5.000 F720.000
G1 X9.132 Y-0.109 Z-5.000 F720.000
G2 X16.742 Y5.451 Z-5.000 I7.624 J-2.447 F720.000
G1 X22.096 Y5.451 Z-5.000 F720.000
G2 X29.750 Y-0.254 Z-5.000 I-0.013 J-8.004 F720.000
G1 X30.582 Y-1.085 Z-5.000 F720.000
G1 X47.191 Y-1.085 Z-5.000 F720.000
G2 X51.044 Y-2.102 Z-5.000 I-0.013 J-7.861 F720.000
G1 X51.044 Y-2.102 Z-5.500 F30.000
G2 X55.036 Y-8.711 Z-5.500 I-3.866 J-6.845 F720.000
G2 X53.930 Y-12.495 Z-5.500 I-5.891 J-0.333 F720.000
G2 X54.952 Y-14.924 Z-5.500 I-4.801 J-3.450 F720.000
G2 X47.191 Y-23.915 Z-5.500 I-7.769 J-1.139 F720.000
G1 X30.582 Y-23.915 Z-5.500 F720.000
G1 X29.750 Y-24.746 Z-5.500 F720.000
G2 X22.096 Y-30.451 Z-5.500 I-7.667 J2.299 F720.000
G1 X16.742 Y-30.451 Z-5.500 F720.000
G2 X11.006 Y-28.015 Z-5.500 I-0.009 J7.949 F720.000
G1 X2.196 Y-28.015 Z-5.500 F720.000
G2 X-5.804 Y-20.015 Z-5.500 I0.000 J8.000 F720.000
G1 X-5.804 Y-10.985 Z-5.500 F720.000
G2 X4.196 Y-0.985 Z-5.500 I10.012 J-0.012 F720.000
G1 X8.256 Y-0.985 Z-5.500 F720.000
G1 X9.132 Y-0.109 Z-5.500 F720.000
G2 X16.742 Y5.451 Z-5.500 I7.624 J-2.447 F720.000
G1 X22.096 Y5.451 Z-5.500 F720.000
G2 X29.750 Y-0.254 Z-5.500 I-0.013 J-8.004 F720.000
G1 X30.582 Y-1.085 Z-5.500 F720.000
G1 X47.191 Y-1.085 Z-5.500 F720.000
G2 X51.044 Y-2.102 Z-5.500 I-0.013 J-7.861 F720.000
G1 X51.044 Y-2.102 Z-6.000 F30.000
G2 X55.036 Y-8.711 Z-6.000 I-3.866 J-6.845 F720.000
G2 X53.930 Y-12.495 Z-6.000 I-5.891 J-0.333 F720.000
G2 X54.952 Y-14.924 Z-6.000 I-4.801 J-3.450 F720.000
G2 X47.191 Y-23.915 Z-6.000 I-7.769 J-1.139 F720.000
G1 X30.582 Y-23.915 Z-6.000 F720.000
G1 X29.750 Y-24.746 Z-6.000 F720.000
G2 X22.096 Y-30.451 Z-6.000 I-7.667 J2.299 F720.000
G1 X16.742 Y-30.451 Z-6.000 F720.000
G2 X11.006 Y-28.015 Z-6.000 I-0.009 J7.949 F720.000
G1 X2.196 Y-28.015 Z-6.000 F720.000
G2 X-5.804 Y-20.015 Z-6.000 I0.000 J8.000 F720.000
G1 X-5.804 Y-10.985 Z-6.000 F720.000
G2 X4.196 Y-0.985 Z-6.000 I10.012 J-0.012 F720.000
G1 X8.256 Y-0.985 Z-6.000 F720.000
G1 X9.132 Y-0.109 Z-6.000 F720.000
G2 X16.742 Y5.451 Z-6.000 I7.624 J-2.447 F720.000
G1 X22.096 Y5.451 Z-6.000 F720.000
G2 X29.750 Y-0.254 Z-6.000 I-0.013 J-8.004 F720.000
G1 X30.582 Y-1.085 Z-6.000 F720.000
G1 X47.191 Y-1.085 Z-6.000 F720.000
G2 X51.044 Y-2.102 Z-6.000 I-0.013 J-7.861 F720.000
G1 X51.044 Y-2.102 Z-6.500 F30.000
G2 X55.036 Y-8.711 Z-6.500 I-3.866 J-6.845 F720.000
G2 X53.930 Y-12.495 Z-6.500 I-5.891 J-0.333 F720.000
G2 X54.952 Y-14.924 Z-6.500 I-4.801 J-3.450 F720.000
G2 X47.191 Y-23.915 Z-6.500 I-7.769 J-1.139 F720.000
G1 X30.582 Y-23.915 Z-6.500 F720.000
G1 X29.750 Y-24.746 Z-6.500 F720.000
G2 X22.096 Y-30.451 Z-6.500 I-7.667 J2.299 F720.000
G1 X16.742 Y-30.451 Z-6.500 F720.000
G2 X11.006 Y-28.015 Z-6.500 I-0.009 J7.949 F720.000
G1 X2.196 Y-28.015 Z-6.500 F720.000
G2 X-5.804 Y-20.015 Z-6.500 I0.000 J8.000 F720.000
G1 X-5.804 Y-10.985 Z-6.500 F720.000
G2 X4.196 Y-0.985 Z-6.500 I10.012 J-0.012 F720.000
G1 X8.256 Y-0.985 Z-6.500 F720.000
G1 X9.132 Y-0.109 Z-6.500 F720.000
G2 X16.742 Y5.451 Z-6.500 I7.624 J-2.447 F720.000
G1 X22.096 Y5.451 Z-6.500 F720.000
G2 X29.750 Y-0.254 Z-6.500 I-0.013 J-8.004 F720.000
G1 X30.582 Y-1.085 Z-6.500 F720.000
G1 X47.191 Y-1.085 Z-6.500 F720.000
G2 X51.044 Y-2.102 Z-6.500 I-0.013 J-7.861 F720.000
G1 X51.044 Y-2.102 Z-7.000 F30.000
G2 X55.036 Y-8.711 Z-7.000 I-3.866 J-6.845 F720.000
G2 X53.930 Y-12.495 Z-7.000 I-5.891 J-0.333 F720.000
G2 X54.952 Y-14.924 Z-7.000 I-4.801 J-3.450 F720.000
G2 X47.191 Y-23.915 Z-7.000 I-7.769 J-1.139 F720.000
G1 X30.582 Y-23.915 Z-7.000 F720.000
G1 X29.750 Y-24.746 Z-7.000 F720.000
G2 X22.096 Y-30.451 Z-7.000 I-7.667 J2.299 F720.000
G1 X16.742 Y-30.451 Z-7.000 F720.000
G2 X11.006 Y-28.015 Z-7.000 I-0.009 J7.949 F720.000
G1 X2.196 Y-28.015 Z-7.000 F720.000
G2 X-5.804 Y-20.015 Z-7.000 I0.000 J8.000 F720.000
G1 X-5.804 Y-10.985 Z-7.000 F720.000
G2 X4.196 Y-0.985 Z-7.000 I10.012 J-0.012 F720.000
G1 X8.256 Y-0.985 Z-7.000 F720.000
G1 X9.132 Y-0.109 Z-7.000 F720.000
G2 X16.742 Y5.451 Z-7.000 I7.624 J-2.447 F720.000
G1 X22.096 Y5.451 Z-7.000 F720.000
G2 X29.750 Y-0.254 Z-7.000 I-0.013 J-8.004 F720.000
G1 X30.582 Y-1.085 Z-7.000 F720.000
G1 X47.191 Y-1.085 Z-7.000 F720.000
G2 X51.044 Y-2.102 Z-7.000 I-0.013 J-7.861 F720.000
G1 X51.044 Y-2.102 Z-7.500 F30.000
G2 X55.036 Y-8.711 Z-7.500 I-3.866 J-6.845 F720.000
G2 X53.930 Y-12.495 Z-7.500 I-5.891 J-0.333 F720.000
G2 X54.952 Y-14.924 Z-7.500 I-4.801 J-3.450 F720.000
G2 X47.191 Y-23.915 Z-7.500 I-7.769 J-1.139 F720.000
G1 X30.582 Y-23.915 Z-7.500 F720.000
G1 X29.750 Y-24.746 Z-7.500 F720.000
G2 X22.096 Y-30.451 Z-7.500 I-7.667 J2.299 F720.000
G1 X16.742 Y-30.451 Z-7.500 F720.000
G2 X11.006 Y-28.015 Z-7.500 I-0.009 J7.949 F720.000
G1 X2.196 Y-28.015 Z-7.500 F720.000
G2 X-5.804 Y-20.015 Z-7.500 I0.000 J8.000 F720.000
G1 X-5.804 Y-10.985 Z-7.500 F720.000
G2 X4.196 Y-0.985 Z-7.500 I10.012 J-0.012 F720.000
G1 X8.256 Y-0.985 Z-7.500 F720.000
G1 X9.132 Y-0.109 Z-7.500 F720.000
G2 X16.742 Y5.451 Z-7.500 I7.624 J-2.447 F720.000
G1 X22.096 Y5.451 Z-7.500 F720.000
G2 X29.750 Y-0.254 Z-7.500 I-0.013 J-8.004 F720.000
G1 X30.582 Y-1.085 Z-7.500 F720.000
G1 X47.191 Y-1.085 Z-7.500 F720.000
G2 X51.044 Y-2.102 Z-7.500 I-0.013 J-7.861 F720.000
G1 X51.044 Y-2.102 Z-8.000 F30.000
G2 X55.036 Y-8.711 Z-8.000 I-3.866 J-6.845 F720.000
G2 X53.930 Y-12.495 Z-8.000 I-5.891 J-0.333 F720.000
G2 X54.952 Y-14.924 Z-8.000 I-4.801 J-3.450 F720.000
G2 X47.191 Y-23.915 Z-8.000 I-7.769 J-1.139 F720.000
G1 X30.582 Y-23.915 Z-8.000 F720.000
G1 X29.750 Y-24.746 Z-8.000 F720.000
G2 X22.096 Y-30.451 Z-8.000 I-7.667 J2.299 F720.000
G1 X16.742 Y-30.451 Z-8.000 F720.000
G2 X11.006 Y-28.015 Z-8.000 I-0.009 J7.949 F720.000
G1 X2.196 Y-28.015 Z-8.000 F720.000
G2 X-5.804 Y-20.015 Z-8.000 I0.000 J8.000 F720.000
G1 X-5.804 Y-10.985 Z-8.000 F720.000
G2 X4.196 Y-0.985 Z-8.000 I10.012 J-0.012 F720.000
G1 X8.256 Y-0.985 Z-8.000 F720.000
G1 X9.132 Y-0.109 Z-8.000 F720.000
G2 X16.742 Y5.451 Z-8.000 I7.624 J-2.447 F720.000
G1 X22.096 Y5.451 Z-8.000 F720.000
G2 X29.750 Y-0.254 Z-8.000 I-0.013 J-8.004 F720.000
G1 X30.582 Y-1.085 Z-8.000 F720.000
G1 X47.191 Y-1.085 Z-8.000 F720.000
G2 X51.044 Y-2.102 Z-8.000 I-0.013 J-7.861 F720.000
G1 X51.044 Y-2.102 Z-8.500 F30.000
G2 X55.036 Y-8.711 Z-8.500 I-3.866 J-6.845 F720.000
G2 X53.930 Y-12.495 Z-8.500 I-5.891 J-0.333 F720.000
G2 X54.952 Y-14.924 Z-8.500 I-4.801 J-3.450 F720.000
G2 X47.191 Y-23.915 Z-8.500 I-7.769 J-1.139 F720.000
G1 X30.582 Y-23.915 Z-8.500 F720.000
G1 X29.750 Y-24.746 Z-8.500 F720.000
G2 X22.096 Y-30.451 Z-8.500 I-7.667 J2.299 F720.000
G1 X16.742 Y-30.451 Z-8.500 F720.000
G2 X11.006 Y-28.015 Z-8.500 I-0.009 J7.949 F720.000
G1 X2.196 Y-28.015 Z-8.500 F720.000
G2 X-5.804 Y-20.015 Z-8.500 I0.000 J8.000 F720.000
G1 X-5.804 Y-10.985 Z-8.500 F720.000
G2 X4.196 Y-0.985 Z-8.500 I10.012 J-0.012 F720.000
G1 X8.256 Y-0.985 Z-8.500 F720.000
G1 X9.132 Y-0.109 Z-8.500 F720.000
G2 X16.742 Y5.451 Z-8.500 I7.624 J-2.447 F720.000
G1 X22.096 Y5.451 Z-8.500 F720.000
G2 X29.750 Y-0.254 Z-8.500 I-0.013 J-8.004 F720.000
G1 X30.582 Y-1.085 Z-8.500 F720.000
G1 X47.191 Y-1.085 Z-8.500 F720.000
G2 X51.044 Y-2.102 Z-8.500 I-0.013 J-7.861 F720.000
G1 X51.044 Y-2.102 Z-9.000 F30.000
G2 X55.036 Y-8.711 Z-9.000 I-3.866 J-6.845 F720.000
G2 X53.930 Y-12.495 Z-9.000 I-5.891 J-0.333 F720.000
G2 X54.952 Y-14.924 Z-9.000 I-4.801 J-3.450 F720.000
G2 X47.191 Y-23.915 Z-9.000 I-7.769 J-1.139 F720.000
G1 X30.582 Y-23.915 Z-9.000 F720.000
G1 X29.750 Y-24.746 Z-9.000 F720.000
G2 X22.096 Y-30.451 Z-9.000 I-7.667 J2.299 F720.000
G1 X16.742 Y-30.451 Z-9.000 F720.000
G2 X11.006 Y-28.015 Z-9.000 I-0.009 J7.949 F720.000
G1 X2.196 Y-28.015 Z-9.000 F720.000
G2 X-5.804 Y-20.015 Z-9.000 I0.000 J8.000 F720.000
G1 X-5.804 Y-10.985 Z-9.000 F720.000
G2 X4.196 Y-0.985 Z-9.000 I10.012 J-0.012 F720.000
G1 X8.256 Y-0.985 Z-9.000 F720.000
G1 X9.132 Y-0.109 Z-9.000 F720.000
G2 X16.742 Y5.451 Z-9.000 I7.624 J-2.447 F720.000
G1 X22.096 Y5.451 Z-9.000 F720.000
G2 X29.750 Y-0.254 Z-9.000 I-0.013 J-8.004 F720.000
G1 X30.582 Y-1.085 Z-9.000 F720.000
G1 X47.191 Y-1.085 Z-9.000 F720.000
G2 X51.044 Y-2.102 Z-9.000 I-0.013 J-7.861 F720.000
G1 X51.044 Y-2.102 Z-9.500 F30.000
G2 X55.036 Y-8.711 Z-9.500 I-3.866 J-6.845 F720.000
G2 X53.930 Y-12.495 Z-9.500 I-5.891 J-0.333 F720.000
G2 X54.952 Y-14.924 Z-9.500 I-4.801 J-3.450 F720.000
G2 X47.191 Y-23.915 Z-9.500 I-7.769 J-1.139 F720.000
G1 X30.582 Y-23.915 Z-9.500 F720.000
G1 X29.750 Y-24.746 Z-9.500 F720.000
G2 X22.096 Y-30.451 Z-9.500 I-7.667 J2.299 F720.000
G1 X16.742 Y-30.451 Z-9.500 F720.000
G2 X11.006 Y-28.015 Z-9.500 I-0.009 J7.949 F720.000
G1 X2.196 Y-28.015 Z-9.500 F720.000
G2 X-5.804 Y-20.015 Z-9.500 I0.000 J8.000 F720.000
G1 X-5.804 Y-10.985 Z-9.500 F720.000
G2 X4.196 Y-0.985 Z-9.500 I10.012 J-0.012 F720.000
G1 X8.256 Y-0.985 Z-9.500 F720.000
G1 X9.132 Y-0.109 Z-9.500 F720.000
G2 X16.742 Y5.451 Z-9.500 I7.624 J-2.447 F720.000
G1 X22.096 Y5.451 Z-9.500 F720.000
G2 X29.750 Y-0.254 Z-9.500 I-0.013 J-8.004 F720.000
G1 X30.582 Y-1.085 Z-9.500 F720.000
G1 X47.191 Y-1.085 Z-9.500 F720.000
G2 X51.044 Y-2.102 Z-9.500 I-0.013 J-7.861 F720.000
G1 X51.044 Y-2.102 Z-10.000 F30.000
G2 X55.036 Y-8.711 Z-10.000 I-3.866 J-6.845 F720.000
G2 X53.930 Y-12.495 Z-10.000 I-5.891 J-0.333 F720.000
G2 X54.952 Y-14.924 Z-10.000 I-4.801 J-3.450 F720.000
G2 X47.191 Y-23.915 Z-10.000 I-7.769 J-1.139 F720.000
G1 X30.582 Y-23.915 Z-10.000 F720.000
G1 X29.750 Y-24.746 Z-10.000 F720.000
G2 X22.096 Y-30.451 Z-10.000 I-7.667 J2.299 F720.000
G1 X16.742 Y-30.451 Z-10.000 F720.000
G2 X11.006 Y-28.015 Z-10.000 I-0.009 J7.949 F720.000
G1 X2.196 Y-28.015 Z-10.000 F720.000
G2 X-5.804 Y-20.015 Z-10.000 I0.000 J8.000 F720.000
G1 X-5.804 Y-10.985 Z-10.000 F720.000
G2 X4.196 Y-0.985 Z-10.000 I10.012 J-0.012 F720.000
G1 X8.256 Y-0.985 Z-10.000 F720.000
G1 X9.132 Y-0.109 Z-10.000 F720.000
G2 X16.742 Y5.451 Z-10.000 I7.624 J-2.447 F720.000
G1 X22.096 Y5.451 Z-10.000 F720.000
G2 X29.750 Y-0.254 Z-10.000 I-0.013 J-8.004 F720.000
G1 X30.582 Y-1.085 Z-10.000 F720.000
G1 X47.191 Y-1.085 Z-10.000 F720.000
G2 X51.044 Y-2.102 Z-10.000 I-0.013 J-7.861 F720.000
G1 X51.044 Y-2.102 Z-10.500 F30.000
G2 X55.036 Y-8.711 Z-10.500 I-3.866 J-6.845 F720.000
G2 X53.930 Y-12.495 Z-10.500 I-5.891 J-0.333 F720.000
G2 X54.952 Y-14.924 Z-10.500 I-4.801 J-3.450 F720.000
G2 X47.191 Y-23.915 Z-10.500 I-7.769 J-1.139 F720.000
G1 X30.582 Y-23.915 Z-10.500 F720.000
G1 X29.750 Y-24.746 Z-10.500 F720.000
G2 X22.096 Y-30.451 Z-10.500 I-7.667 J2.299 F720.000
G1 X16.742 Y-30.451 Z-10.500 F720.000
G2 X11.006 Y-28.015 Z-10.500 I-0.009 J7.949 F720.000
G1 X2.196 Y-28.015 Z-10.500 F720.000
G2 X-5.804 Y-20.015 Z-10.500 I0.000 J8.000 F720.000
G1 X-5.804 Y-10.985 Z-10.500 F720.000
G2 X4.196 Y-0.985 Z-10.500 I10.012 J-0.012 F720.000
G1 X8.256 Y-0.985 Z-10.500 F720.000
G1 X9.132 Y-0.109 Z-10.500 F720.000
G2 X16.742 Y5.451 Z-10.500 I7.624 J-2.447 F720.000
G1 X22.096 Y5.451 Z-10.500 F720.000
G2 X29.750 Y-0.254 Z-10.500 I-0.013 J-8.004 F720.000
G1 X30.582 Y-1.085 Z-10.500 F720.000
G1 X47.191 Y-1.085 Z-10.500 F720.000
G2 X51.044 Y-2.102 Z-10.500 I-0.013 J-7.861 F720.000
G1 X51.044 Y-2.102 Z-11.000 F30.000
G2 X55.036 Y-8.711 Z-11.000 I-3.866 J-6.845 F720.000
G2 X53.930 Y-12.495 Z-11.000 I-5.891 J-0.333 F720.000
G2 X54.952 Y-14.924 Z-11.000 I-4.801 J-3.450 F720.000
G2 X47.191 Y-23.915 Z-11.000 I-7.769 J-1.139 F720.000
G1 X30.582 Y-23.915 Z-11.000 F720.000
G1 X29.750 Y-24.746 Z-11.000 F720.000
G2 X22.096 Y-30.451 Z-11.000 I-7.667 J2.299 F720.000
G1 X16.742 Y-30.451 Z-11.000 F720.000
G2 X11.006 Y-28.015 Z-11.000 I-0.009 J7.949 F720.000
G1 X2.196 Y-28.015 Z-11.000 F720.000
G2 X-5.804 Y-20.015 Z-11.000 I0.000 J8.000 F720.000
G1 X-5.804 Y-10.985 Z-11.000 F720.000
G2 X4.196 Y-0.985 Z-11.000 I10.012 J-0.012 F720.000
G1 X8.256 Y-0.985 Z-11.000 F720.000
G1 X9.132 Y-0.109 Z-11.000 F720.000
G2 X16.742 Y5.451 Z-11.000 I7.624 J-2.447 F720.000
G1 X22.096 Y5.451 Z-11.000 F720.000
G2 X29.750 Y-0.254 Z-11.000 I-0.013 J-8.004 F720.000
G1 X30.582 Y-1.085 Z-11.000 F720.000
G1 X47.191 Y-1.085 Z-11.000 F720.000
G2 X51.044 Y-2.102 Z-11.000 I-0.013 J-7.861 F720.000
G1 X51.044 Y-2.102 Z-11.500 F30.000
G2 X55.036 Y-8.711 Z-11.500 I-3.866 J-6.845 F720.000
G2 X53.930 Y-12.495 Z-11.500 I-5.891 J-0.333 F720.000
G2 X54.952 Y-14.924 Z-11.500 I-4.801 J-3.450 F720.000
G2 X47.191 Y-23.915 Z-11.500 I-7.769 J-1.139 F720.000
G1 X30.582 Y-23.915 Z-11.500 F720.000
G1 X29.750 Y-24.746 Z-11.500 F720.000
G2 X22.096 Y-30.451 Z-11.500 I-7.667 J2.299 F720.000
G1 X16.742 Y-30.451 Z-11.500 F720.000
G2 X11.006 Y-28.015 Z-11.500 I-0.009 J7.949 F720.000
G1 X2.196 Y-28.015 Z-11.500 F720.000
G2 X-5.804 Y-20.015 Z-11.500 I0.000 J8.000 F720.000
G1 X-5.804 Y-10.985 Z-11.500 F720.000
G2 X4.196 Y-0.985 Z-11.500 I10.012 J-0.012 F720.000
G1 X8.256 Y-0.985 Z-11.500 F720.000
G1 X9.132 Y-0.109 Z-11.500 F720.000
G2 X16.742 Y5.451 Z-11.500 I7.624 J-2.447 F720.000
G1 X22.096 Y5.451 Z-11.500 F720.000
G2 X29.750 Y-0.254 Z-11.500 I-0.013 J-8.004 F720.000
G1 X30.582 Y-1.085 Z-11.500 F720.000
G1 X47.191 Y-1.085 Z-11.500 F720.000
G2 X51.044 Y-2.102 Z-11.500 I-0.013 J-7.861 F720.000
G1 X51.044 Y-2.102 Z-12.000 F30.000
G2 X55.036 Y-8.711 Z-12.000 I-3.866 J-6.845 F720.000
G2 X53.930 Y-12.495 Z-12.000 I-5.891 J-0.333 F720.000
G2 X54.952 Y-14.924 Z-12.000 I-4.801 J-3.450 F720.000
G2 X47.191 Y-23.915 Z-12.000 I-7.769 J-1.139 F720.000
G1 X30.582 Y-23.915 Z-12.000 F720.000
G1 X29.750 Y-24.746 Z-12.000 F720.000
G2 X22.096 Y-30.451 Z-12.000 I-7.667 J2.299 F720.000
G1 X16.742 Y-30.451 Z-12.000 F720.000
G2 X11.006 Y-28.015 Z-12.000 I-0.009 J7.949 F720.000
G1 X2.196 Y-28.015 Z-12.000 F720.000
G2 X-5.804 Y-20.015 Z-12.000 I0.000 J8.000 F720.000
G1 X-5.804 Y-10.985 Z-12.000 F720.000
G2 X4.196 Y-0.985 Z-12.000 I10.012 J-0.012 F720.000
G1 X8.256 Y-0.985 Z-12.000 F720.000
G1 X9.132 Y-0.109 Z-12.000 F720.000
G2 X16.742 Y5.451 Z-12.000 I7.624 J-2.447 F720.000
G1 X22.096 Y5.451 Z-12.000 F720.000
G2 X29.750 Y-0.254 Z-12.000 I-0.013 J-8.004 F720.000
G1 X30.582 Y-1.085 Z-12.000 F720.000
G1 X47.191 Y-1.085 Z-12.000 F720.000
G2 X51.044 Y-2.102 Z-12.000 I-0.013 J-7.861 F720.000
G0 Z5.000
(finish operation: Profile_Edges)
(begin operation: T4: 12mm Endmill)
(machine: not set, mm/min)
(T4: 12mm Endmill)
M6 T4 G43 H4
M3 S3000
(finish operation: T4: 12mm Endmill)
(begin operation: Profile_Edges001)
(machine: not set, mm/min)
(Profile_Edges001)
(Compensated Tool Path. Diameter: 12.0)
G0 Z5.000
G0 X35.250 Y-9.985
G0 Z3.000
G1 X35.250 Y-9.985 Z-0.500 F30.000
G1 X35.250 Y-11.574 Z-0.500 F720.000
G1 X26.196 Y-11.574 Z-0.500 F720.000
G1 X26.196 Y-9.985 Z-0.500 F720.000
G1 X35.250 Y-9.985 Z-0.500 F720.000
G1 X35.250 Y-9.985 Z-1.000 F30.000
G1 X35.250 Y-11.574 Z-1.000 F720.000
G1 X26.196 Y-11.574 Z-1.000 F720.000
G1 X26.196 Y-9.985 Z-1.000 F720.000
G1 X35.250 Y-9.985 Z-1.000 F720.000
G1 X35.250 Y-9.985 Z-1.500 F30.000
G1 X35.250 Y-11.574 Z-1.500 F720.000
G1 X26.196 Y-11.574 Z-1.500 F720.000
G1 X26.196 Y-9.985 Z-1.500 F720.000
G1 X35.250 Y-9.985 Z-1.500 F720.000
G1 X35.250 Y-9.985 Z-2.000 F30.000
G1 X35.250 Y-11.574 Z-2.000 F720.000
G1 X26.196 Y-11.574 Z-2.000 F720.000
G1 X26.196 Y-9.985 Z-2.000 F720.000
G1 X35.250 Y-9.985 Z-2.000 F720.000
G1 X35.250 Y-9.985 Z-2.500 F30.000
G1 X35.250 Y-11.574 Z-2.500 F720.000
G1 X26.196 Y-11.574 Z-2.500 F720.000
G1 X26.196 Y-9.985 Z-2.500 F720.000
G1 X35.250 Y-9.985 Z-2.500 F720.000
G1 X35.250 Y-9.985 Z-3.000 F30.000
G1 X35.250 Y-11.574 Z-3.000 F720.000
G1 X26.196 Y-11.574 Z-3.000 F720.000
G1 X26.196 Y-9.985 Z-3.000 F720.000
G1 X35.250 Y-9.985 Z-3.000 F720.000
G1 X35.250 Y-9.985 Z-3.500 F30.000
G1 X35.250 Y-11.574 Z-3.500 F720.000
G1 X26.196 Y-11.574 Z-3.500 F720.000
G1 X26.196 Y-9.985 Z-3.500 F720.000
G1 X35.250 Y-9.985 Z-3.500 F720.000
G1 X35.250 Y-9.985 Z-4.000 F30.000
G1 X35.250 Y-11.574 Z-4.000 F720.000
G1 X26.196 Y-11.574 Z-4.000 F720.000
G1 X26.196 Y-9.985 Z-4.000 F720.000
G1 X35.250 Y-9.985 Z-4.000 F720.000
G1 X35.250 Y-9.985 Z-4.500 F30.000
G1 X35.250 Y-11.574 Z-4.500 F720.000
G1 X26.196 Y-11.574 Z-4.500 F720.000
G1 X26.196 Y-9.985 Z-4.500 F720.000
G1 X35.250 Y-9.985 Z-4.500 F720.000
G1 X35.250 Y-9.985 Z-5.000 F30.000
G1 X35.250 Y-11.574 Z-5.000 F720.000
G1 X26.196 Y-11.574 Z-5.000 F720.000
G1 X26.196 Y-9.985 Z-5.000 F720.000
G1 X35.250 Y-9.985 Z-5.000 F720.000
G1 X35.250 Y-9.985 Z-5.500 F30.000
G1 X35.250 Y-11.574 Z-5.500 F720.000
G1 X26.196 Y-11.574 Z-5.500 F720.000
G1 X26.196 Y-9.985 Z-5.500 F720.000
G1 X35.250 Y-9.985 Z-5.500 F720.000
G1 X35.250 Y-9.985 Z-6.000 F30.000
G1 X35.250 Y-11.574 Z-6.000 F720.000
G1 X26.196 Y-11.574 Z-6.000 F720.000
G1 X26.196 Y-9.985 Z-6.000 F720.000
G1 X35.250 Y-9.985 Z-6.000 F720.000
G1 X35.250 Y-9.985 Z-6.500 F30.000
G1 X35.250 Y-11.574 Z-6.500 F720.000
G1 X26.196 Y-11.574 Z-6.500 F720.000
G1 X26.196 Y-9.985 Z-6.500 F720.000
G1 X35.250 Y-9.985 Z-6.500 F720.000
G1 X35.250 Y-9.985 Z-7.000 F30.000
G1 X35.250 Y-11.574 Z-7.000 F720.000
G1 X26.196 Y-11.574 Z-7.000 F720.000
G1 X26.196 Y-9.985 Z-7.000 F720.000
G1 X35.250 Y-9.985 Z-7.000 F720.000
G0 Z5.000
(finish operation: Profile_Edges001)
(begin operation: T4: 12mm Endmill)
(machine: not set, mm/min)
(T4: 12mm Endmill)
M6 T4 G43 H4
M3 S3000
(finish operation: T4: 12mm Endmill)
(begin operation: Profile_Edges002)
(machine: not set, mm/min)
(Profile_Edges002)
(Compensated Tool Path. Diameter: 12.0)
G0 Z5.000
G0 X40.250 Y-4.985
G0 Z3.000
G1 X40.250 Y-4.985 Z-0.500 F30.000
G1 X40.250 Y-16.574 Z-0.500 F720.000
G1 X21.196 Y-16.574 Z-0.500 F720.000
G1 X21.196 Y-6.985 Z-0.500 F720.000
G3 X21.004 Y-4.985 Z-0.500 I-10.343 J0.014 F720.000
G1 X40.250 Y-4.985 Z-0.500 F720.000
G1 X40.250 Y-4.985 Z-1.000 F30.000
G1 X40.250 Y-16.574 Z-1.000 F720.000
G1 X21.196 Y-16.574 Z-1.000 F720.000
G1 X21.196 Y-6.985 Z-1.000 F720.000
G3 X21.004 Y-4.985 Z-1.000 I-10.343 J0.014 F720.000
G1 X40.250 Y-4.985 Z-1.000 F720.000
G1 X40.250 Y-4.985 Z-1.500 F30.000
G1 X40.250 Y-16.574 Z-1.500 F720.000
G1 X21.196 Y-16.574 Z-1.500 F720.000
G1 X21.196 Y-6.985 Z-1.500 F720.000
G3 X21.004 Y-4.985 Z-1.500 I-10.343 J0.014 F720.000
G1 X40.250 Y-4.985 Z-1.500 F720.000
G1 X40.250 Y-4.985 Z-2.000 F30.000
G1 X40.250 Y-16.574 Z-2.000 F720.000
G1 X21.196 Y-16.574 Z-2.000 F720.000
G1 X21.196 Y-6.985 Z-2.000 F720.000
G3 X21.004 Y-4.985 Z-2.000 I-10.343 J0.014 F720.000
G1 X40.250 Y-4.985 Z-2.000 F720.000
G1 X40.250 Y-4.985 Z-2.500 F30.000
G1 X40.250 Y-16.574 Z-2.500 F720.000
G1 X21.196 Y-16.574 Z-2.500 F720.000
G1 X21.196 Y-6.985 Z-2.500 F720.000
G3 X21.004 Y-4.985 Z-2.500 I-10.343 J0.014 F720.000
G1 X40.250 Y-4.985 Z-2.500 F720.000
G1 X40.250 Y-4.985 Z-3.000 F30.000
G1 X40.250 Y-16.574 Z-3.000 F720.000
G1 X21.196 Y-16.574 Z-3.000 F720.000
G1 X21.196 Y-6.985 Z-3.000 F720.000
G3 X21.004 Y-4.985 Z-3.000 I-10.343 J0.014 F720.000
G1 X40.250 Y-4.985 Z-3.000 F720.000
G1 X40.250 Y-4.985 Z-3.500 F30.000
G1 X40.250 Y-16.574 Z-3.500 F720.000
G1 X21.196 Y-16.574 Z-3.500 F720.000
G1 X21.196 Y-6.985 Z-3.500 F720.000
G3 X21.004 Y-4.985 Z-3.500 I-10.343 J0.014 F720.000
G1 X40.250 Y-4.985 Z-3.500 F720.000
G1 X40.250 Y-4.985 Z-4.000 F30.000
G1 X40.250 Y-16.574 Z-4.000 F720.000
G1 X21.196 Y-16.574 Z-4.000 F720.000
G1 X21.196 Y-6.985 Z-4.000 F720.000
G3 X21.004 Y-4.985 Z-4.000 I-10.343 J0.014 F720.000
G1 X40.250 Y-4.985 Z-4.000 F720.000
G1 X40.250 Y-4.985 Z-4.500 F30.000
G1 X40.250 Y-16.574 Z-4.500 F720.000
G1 X21.196 Y-16.574 Z-4.500 F720.000
G1 X21.196 Y-6.985 Z-4.500 F720.000
G3 X21.004 Y-4.985 Z-4.500 I-10.343 J0.014 F720.000
G1 X40.250 Y-4.985 Z-4.500 F720.000
G1 X40.250 Y-4.985 Z-5.000 F30.000
G1 X40.250 Y-16.574 Z-5.000 F720.000
G1 X21.196 Y-16.574 Z-5.000 F720.000
G1 X21.196 Y-6.985 Z-5.000 F720.000
G3 X21.004 Y-4.985 Z-5.000 I-10.343 J0.014 F720.000
G1 X40.250 Y-4.985 Z-5.000 F720.000
G1 X40.250 Y-4.985 Z-5.500 F30.000
G1 X40.250 Y-16.574 Z-5.500 F720.000
G1 X21.196 Y-16.574 Z-5.500 F720.000
G1 X21.196 Y-6.985 Z-5.500 F720.000
G3 X21.004 Y-4.985 Z-5.500 I-10.343 J0.014 F720.000
G1 X40.250 Y-4.985 Z-5.500 F720.000
G1 X40.250 Y-4.985 Z-6.000 F30.000
G1 X40.250 Y-16.574 Z-6.000 F720.000
G1 X21.196 Y-16.574 Z-6.000 F720.000
G1 X21.196 Y-6.985 Z-6.000 F720.000
G3 X21.004 Y-4.985 Z-6.000 I-10.343 J0.014 F720.000
G1 X40.250 Y-4.985 Z-6.000 F720.000
G1 X40.250 Y-4.985 Z-6.500 F30.000
G1 X40.250 Y-16.574 Z-6.500 F720.000
G1 X21.196 Y-16.574 Z-6.500 F720.000
G1 X21.196 Y-6.985 Z-6.500 F720.000
G3 X21.004 Y-4.985 Z-6.500 I-10.343 J0.014 F720.000
G1 X40.250 Y-4.985 Z-6.500 F720.000
G1 X40.250 Y-4.985 Z-7.000 F30.000
G1 X40.250 Y-16.574 Z-7.000 F720.000
G1 X21.196 Y-16.574 Z-7.000 F720.000
G1 X21.196 Y-6.985 Z-7.000 F720.000
G3 X21.004 Y-4.985 Z-7.000 I-10.343 J0.014 F720.000
G1 X40.250 Y-4.985 Z-7.000 F720.000
G0 Z5.000
(finish operation: Profile_Edges002)
(begin operation: T4: 12mm Endmill)
(machine: not set, mm/min)
(T4: 12mm Endmill)
M6 T4 G43 H4
M3 S3000
(finish operation: T4: 12mm Endmill)
(begin operation: Profile_Edges003)
(machine: not set, mm/min)
(Profile_Edges003)
(Compensated Tool Path. Diameter: 12.0)
G0 Z5.000
G0 X45.250 Y0.015
G0 Z3.000
G1 X45.250 Y0.015 Z-0.500 F30.000
G1 X45.250 Y-21.574 Z-0.500 F720.000
G1 X16.196 Y-21.574 Z-0.500 F720.000
G1 X16.196 Y-6.985 Z-0.500 F720.000
G3 X10.196 Y-0.985 Z-0.500 I-6.000 J-0.000 F720.000
G1 X3.196 Y-0.985 Z-0.500 F720.000
G1 X3.196 Y0.015 Z-0.500 F720.000
G1 X45.250 Y0.015 Z-0.500 F720.000
G1 X45.250 Y0.015 Z-1.000 F30.000
G1 X45.250 Y-21.574 Z-1.000 F720.000
G1 X16.196 Y-21.574 Z-1.000 F720.000
G1 X16.196 Y-6.985 Z-1.000 F720.000
G3 X10.196 Y-0.985 Z-1.000 I-6.000 J-0.000 F720.000
G1 X3.196 Y-0.985 Z-1.000 F720.000
G1 X3.196 Y0.015 Z-1.000 F720.000
G1 X45.250 Y0.015 Z-1.000 F720.000
G1 X45.250 Y0.015 Z-1.500 F30.000
G1 X45.250 Y-21.574 Z-1.500 F720.000
G1 X16.196 Y-21.574 Z-1.500 F720.000
G1 X16.196 Y-6.985 Z-1.500 F720.000
G3 X10.196 Y-0.985 Z-1.500 I-6.000 J-0.000 F720.000
G1 X3.196 Y-0.985 Z-1.500 F720.000
G1 X3.196 Y0.015 Z-1.500 F720.000
G1 X45.250 Y0.015 Z-1.500 F720.000
G1 X45.250 Y0.015 Z-2.000 F30.000
G1 X45.250 Y-21.574 Z-2.000 F720.000
G1 X16.196 Y-21.574 Z-2.000 F720.000
G1 X16.196 Y-6.985 Z-2.000 F720.000
G3 X10.196 Y-0.985 Z-2.000 I-6.000 J-0.000 F720.000
G1 X3.196 Y-0.985 Z-2.000 F720.000
G1 X3.196 Y0.015 Z-2.000 F720.000
G1 X45.250 Y0.015 Z-2.000 F720.000
G1 X45.250 Y0.015 Z-2.500 F30.000
G1 X45.250 Y-21.574 Z-2.500 F720.000
G1 X16.196 Y-21.574 Z-2.500 F720.000
G1 X16.196 Y-6.985 Z-2.500 F720.000
G3 X10.196 Y-0.985 Z-2.500 I-6.000 J-0.000 F720.000
G1 X3.196 Y-0.985 Z-2.500 F720.000
G1 X3.196 Y0.015 Z-2.500 F720.000
G1 X45.250 Y0.015 Z-2.500 F720.000
G1 X45.250 Y0.015 Z-3.000 F30.000
G1 X45.250 Y-21.574 Z-3.000 F720.000
G1 X16.196 Y-21.574 Z-3.000 F720.000
G1 X16.196 Y-6.985 Z-3.000 F720.000
G3 X10.196 Y-0.985 Z-3.000 I-6.000 J-0.000 F720.000
G1 X3.196 Y-0.985 Z-3.000 F720.000
G1 X3.196 Y0.015 Z-3.000 F720.000
G1 X45.250 Y0.015 Z-3.000 F720.000
G1 X45.250 Y0.015 Z-3.500 F30.000
G1 X45.250 Y-21.574 Z-3.500 F720.000
G1 X16.196 Y-21.574 Z-3.500 F720.000
G1 X16.196 Y-6.985 Z-3.500 F720.000
G3 X10.196 Y-0.985 Z-3.500 I-6.000 J-0.000 F720.000
G1 X3.196 Y-0.985 Z-3.500 F720.000
G1 X3.196 Y0.015 Z-3.500 F720.000
G1 X45.250 Y0.015 Z-3.500 F720.000
G1 X45.250 Y0.015 Z-4.000 F30.000
G1 X45.250 Y-21.574 Z-4.000 F720.000
G1 X16.196 Y-21.574 Z-4.000 F720.000
G1 X16.196 Y-6.985 Z-4.000 F720.000
G3 X10.196 Y-0.985 Z-4.000 I-6.000 J-0.000 F720.000
G1 X3.196 Y-0.985 Z-4.000 F720.000
G1 X3.196 Y0.015 Z-4.000 F720.000
G1 X45.250 Y0.015 Z-4.000 F720.000
G1 X45.250 Y0.015 Z-4.500 F30.000
G1 X45.250 Y-21.574 Z-4.500 F720.000
G1 X16.196 Y-21.574 Z-4.500 F720.000
G1 X16.196 Y-6.985 Z-4.500 F720.000
G3 X10.196 Y-0.985 Z-4.500 I-6.000 J-0.000 F720.000
G1 X3.196 Y-0.985 Z-4.500 F720.000
G1 X3.196 Y0.015 Z-4.500 F720.000
G1 X45.250 Y0.015 Z-4.500 F720.000
G1 X45.250 Y0.015 Z-5.000 F30.000
G1 X45.250 Y-21.574 Z-5.000 F720.000
G1 X16.196 Y-21.574 Z-5.000 F720.000
G1 X16.196 Y-6.985 Z-5.000 F720.000
G3 X10.196 Y-0.985 Z-5.000 I-6.000 J-0.000 F720.000
G1 X3.196 Y-0.985 Z-5.000 F720.000
G1 X3.196 Y0.015 Z-5.000 F720.000
G1 X45.250 Y0.015 Z-5.000 F720.000
G1 X45.250 Y0.015 Z-5.500 F30.000
G1 X45.250 Y-21.574 Z-5.500 F720.000
G1 X16.196 Y-21.574 Z-5.500 F720.000
G1 X16.196 Y-6.985 Z-5.500 F720.000
G3 X10.196 Y-0.985 Z-5.500 I-6.000 J-0.000 F720.000
G1 X3.196 Y-0.985 Z-5.500 F720.000
G1 X3.196 Y0.015 Z-5.500 F720.000
G1 X45.250 Y0.015 Z-5.500 F720.000
G1 X45.250 Y0.015 Z-6.000 F30.000
G1 X45.250 Y-21.574 Z-6.000 F720.000
G1 X16.196 Y-21.574 Z-6.000 F720.000
G1 X16.196 Y-6.985 Z-6.000 F720.000
G3 X10.196 Y-0.985 Z-6.000 I-6.000 J-0.000 F720.000
G1 X3.196 Y-0.985 Z-6.000 F720.000
G1 X3.196 Y0.015 Z-6.000 F720.000
G1 X45.250 Y0.015 Z-6.000 F720.000
G1 X45.250 Y0.015 Z-6.500 F30.000
G1 X45.250 Y-21.574 Z-6.500 F720.000
G1 X16.196 Y-21.574 Z-6.500 F720.000
G1 X16.196 Y-6.985 Z-6.500 F720.000
G3 X10.196 Y-0.985 Z-6.500 I-6.000 J-0.000 F720.000
G1 X3.196 Y-0.985 Z-6.500 F720.000
G1 X3.196 Y0.015 Z-6.500 F720.000
G1 X45.250 Y0.015 Z-6.500 F720.000
G1 X45.250 Y0.015 Z-7.000 F30.000
G1 X45.250 Y-21.574 Z-7.000 F720.000
G1 X16.196 Y-21.574 Z-7.000 F720.000
G1 X16.196 Y-6.985 Z-7.000 F720.000
G3 X10.196 Y-0.985 Z-7.000 I-6.000 J-0.000 F720.000
G1 X3.196 Y-0.985 Z-7.000 F720.000
G1 X3.196 Y0.015 Z-7.000 F720.000
G1 X45.250 Y0.015 Z-7.000 F720.000
G0 Z5.000
(finish operation: Profile_Edges003)
(begin operation: T6: 4mm Endmill)
(machine: not set, mm/min)
(T6: 4mm Endmill)
M6 T6 G43 H6
M3 S3000
(finish operation: T6: 4mm Endmill)
(begin operation: Profile_Edges004)
(machine: not set, mm/min)
(Profile_Edges004)
(Compensated Tool Path. Diameter: 4.0)
G0 Z5.000
G0 X6.102 Y-11.443
G0 Z3.000
G1 X6.102 Y-11.443 Z-0.200 F15.000
G2 X5.486 Y-13.928 Z-0.200 I-1.057 J-1.057 F180.000
G2 X3.617 Y-12.940 Z-0.200 I-0.440 J1.428 F180.000
G2 X4.605 Y-11.072 Z-0.200 I1.428 J0.440 F180.000
G2 X6.102 Y-11.443 Z-0.200 I0.440 J-1.428 F180.000
G1 X6.102 Y-11.443 Z-0.400 F15.000
G2 X5.486 Y-13.928 Z-0.400 I-1.057 J-1.057 F180.000
G2 X3.617 Y-12.940 Z-0.400 I-0.440 J1.428 F180.000
G2 X4.605 Y-11.072 Z-0.400 I1.428 J0.440 F180.000
G2 X6.102 Y-11.443 Z-0.400 I0.440 J-1.428 F180.000
G1 X6.102 Y-11.443 Z-0.600 F15.000
G2 X5.486 Y-13.928 Z-0.600 I-1.057 J-1.057 F180.000
G2 X3.617 Y-12.940 Z-0.600 I-0.440 J1.428 F180.000
G2 X4.605 Y-11.072 Z-0.600 I1.428 J0.440 F180.000
G2 X6.102 Y-11.443 Z-0.600 I0.440 J-1.428 F180.000
G1 X6.102 Y-11.443 Z-0.800 F15.000
G2 X5.486 Y-13.928 Z-0.800 I-1.057 J-1.057 F180.000
G2 X3.617 Y-12.940 Z-0.800 I-0.440 J1.428 F180.000
G2 X4.605 Y-11.072 Z-0.800 I1.428 J0.440 F180.000
G2 X6.102 Y-11.443 Z-0.800 I0.440 J-1.428 F180.000
G1 X6.102 Y-11.443 Z-1.000 F15.000
G2 X5.486 Y-13.928 Z-1.000 I-1.057 J-1.057 F180.000
G2 X3.617 Y-12.940 Z-1.000 I-0.440 J1.428 F180.000
G2 X4.605 Y-11.072 Z-1.000 I1.428 J0.440 F180.000
G2 X6.102 Y-11.443 Z-1.000 I0.440 J-1.428 F180.000
G1 X6.102 Y-11.443 Z-1.200 F15.000
G2 X5.486 Y-13.928 Z-1.200 I-1.057 J-1.057 F180.000
G2 X3.617 Y-12.940 Z-1.200 I-0.440 J1.428 F180.000
G2 X4.605 Y-11.072 Z-1.200 I1.428 J0.440 F180.000
G2 X6.102 Y-11.443 Z-1.200 I0.440 J-1.428 F180.000
G1 X6.102 Y-11.443 Z-1.400 F15.000
G2 X5.486 Y-13.928 Z-1.400 I-1.057 J-1.057 F180.000
G2 X3.617 Y-12.940 Z-1.400 I-0.440 J1.428 F180.000
G2 X4.605 Y-11.072 Z-1.400 I1.428 J0.440 F180.000
G2 X6.102 Y-11.443 Z-1.400 I0.440 J-1.428 F180.000
G1 X6.102 Y-11.443 Z-1.600 F15.000
G2 X5.486 Y-13.928 Z-1.600 I-1.057 J-1.057 F180.000
G2 X3.617 Y-12.940 Z-1.600 I-0.440 J1.428 F180.000
G2 X4.605 Y-11.072 Z-1.600 I1.428 J0.440 F180.000
G2 X6.102 Y-11.443 Z-1.600 I0.440 J-1.428 F180.000
G1 X6.102 Y-11.443 Z-1.800 F15.000
G2 X5.486 Y-13.928 Z-1.800 I-1.057 J-1.057 F180.000
G2 X3.617 Y-12.940 Z-1.800 I-0.440 J1.428 F180.000
G2 X4.605 Y-11.072 Z-1.800 I1.428 J0.440 F180.000
G2 X6.102 Y-11.443 Z-1.800 I0.440 J-1.428 F180.000
G1 X6.102 Y-11.443 Z-2.000 F15.000
G2 X5.486 Y-13.928 Z-2.000 I-1.057 J-1.057 F180.000
G2 X3.617 Y-12.940 Z-2.000 I-0.440 J1.428 F180.000
G2 X4.605 Y-11.072 Z-2.000 I1.428 J0.440 F180.000
G2 X6.102 Y-11.443 Z-2.000 I0.440 J-1.428 F180.000
G1 X6.102 Y-11.443 Z-2.200 F15.000
G2 X5.486 Y-13.928 Z-2.200 I-1.057 J-1.057 F180.000
G2 X3.617 Y-12.940 Z-2.200 I-0.440 J1.428 F180.000
G2 X4.605 Y-11.072 Z-2.200 I1.428 J0.440 F180.000
G2 X6.102 Y-11.443 Z-2.200 I0.440 J-1.428 F180.000
G1 X6.102 Y-11.443 Z-2.400 F15.000
G2 X5.486 Y-13.928 Z-2.400 I-1.057 J-1.057 F180.000
G2 X3.617 Y-12.940 Z-2.400 I-0.440 J1.428 F180.000
G2 X4.605 Y-11.072 Z-2.400 I1.428 J0.440 F180.000
G2 X6.102 Y-11.443 Z-2.400 I0.440 J-1.428 F180.000
G1 X6.102 Y-11.443 Z-2.600 F15.000
G2 X5.486 Y-13.928 Z-2.600 I-1.057 J-1.057 F180.000
G2 X3.617 Y-12.940 Z-2.600 I-0.440 J1.428 F180.000
G2 X4.605 Y-11.072 Z-2.600 I1.428 J0.440 F180.000
G2 X6.102 Y-11.443 Z-2.600 I0.440 J-1.428 F180.000
G1 X6.102 Y-11.443 Z-2.800 F15.000
G2 X5.486 Y-13.928 Z-2.800 I-1.057 J-1.057 F180.000
G2 X3.617 Y-12.940 Z-2.800 I-0.440 J1.428 F180.000
G2 X4.605 Y-11.072 Z-2.800 I1.428 J0.440 F180.000
G2 X6.102 Y-11.443 Z-2.800 I0.440 J-1.428 F180.000
G1 X6.102 Y-11.443 Z-3.000 F15.000
G2 X5.486 Y-13.928 Z-3.000 I-1.057 J-1.057 F180.000
G2 X3.617 Y-12.940 Z-3.000 I-0.440 J1.428 F180.000
G2 X4.605 Y-11.072 Z-3.000 I1.428 J0.440 F180.000
G2 X6.102 Y-11.443 Z-3.000 I0.440 J-1.428 F180.000
G1 X6.102 Y-11.443 Z-3.200 F15.000
G2 X5.486 Y-13.928 Z-3.200 I-1.057 J-1.057 F180.000
G2 X3.617 Y-12.940 Z-3.200 I-0.440 J1.428 F180.000
G2 X4.605 Y-11.072 Z-3.200 I1.428 J0.440 F180.000
G2 X6.102 Y-11.443 Z-3.200 I0.440 J-1.428 F180.000
G1 X6.102 Y-11.443 Z-3.400 F15.000
G2 X5.486 Y-13.928 Z-3.400 I-1.057 J-1.057 F180.000
G2 X3.617 Y-12.940 Z-3.400 I-0.440 J1.428 F180.000
G2 X4.605 Y-11.072 Z-3.400 I1.428 J0.440 F180.000
G2 X6.102 Y-11.443 Z-3.400 I0.440 J-1.428 F180.000
G1 X6.102 Y-11.443 Z-3.600 F15.000
G2 X5.486 Y-13.928 Z-3.600 I-1.057 J-1.057 F180.000
G2 X3.617 Y-12.940 Z-3.600 I-0.440 J1.428 F180.000
G2 X4.605 Y-11.072 Z-3.600 I1.428 J0.440 F180.000
G2 X6.102 Y-11.443 Z-3.600 I0.440 J-1.428 F180.000
G1 X6.102 Y-11.443 Z-3.800 F15.000
G2 X5.486 Y-13.928 Z-3.800 I-1.057 J-1.057 F180.000
G2 X3.617 Y-12.940 Z-3.800 I-0.440 J1.428 F180.000
G2 X4.605 Y-11.072 Z-3.800 I1.428 J0.440 F180.000
G2 X6.102 Y-11.443 Z-3.800 I0.440 J-1.428 F180.000
G1 X6.102 Y-11.443 Z-4.000 F15.000
G2 X5.486 Y-13.928 Z-4.000 I-1.057 J-1.057 F180.000
G2 X3.617 Y-12.940 Z-4.000 I-0.440 J1.428 F180.000
G2 X4.605 Y-11.072 Z-4.000 I1.428 J0.440 F180.000
G2 X6.102 Y-11.443 Z-4.000 I0.440 J-1.428 F180.000
G1 X6.102 Y-11.443 Z-4.200 F15.000
G2 X5.486 Y-13.928 Z-4.200 I-1.057 J-1.057 F180.000
G2 X3.617 Y-12.940 Z-4.200 I-0.440 J1.428 F180.000
G2 X4.605 Y-11.072 Z-4.200 I1.428 J0.440 F180.000
G2 X6.102 Y-11.443 Z-4.200 I0.440 J-1.428 F180.000
G1 X6.102 Y-11.443 Z-4.400 F15.000
G2 X5.486 Y-13.928 Z-4.400 I-1.057 J-1.057 F180.000
G2 X3.617 Y-12.940 Z-4.400 I-0.440 J1.428 F180.000
G2 X4.605 Y-11.072 Z-4.400 I1.428 J0.440 F180.000
G2 X6.102 Y-11.443 Z-4.400 I0.440 J-1.428 F180.000
G1 X6.102 Y-11.443 Z-4.600 F15.000
G2 X5.486 Y-13.928 Z-4.600 I-1.057 J-1.057 F180.000
G2 X3.617 Y-12.940 Z-4.600 I-0.440 J1.428 F180.000
G2 X4.605 Y-11.072 Z-4.600 I1.428 J0.440 F180.000
G2 X6.102 Y-11.443 Z-4.600 I0.440 J-1.428 F180.000
G1 X6.102 Y-11.443 Z-4.800 F15.000
G2 X5.486 Y-13.928 Z-4.800 I-1.057 J-1.057 F180.000
G2 X3.617 Y-12.940 Z-4.800 I-0.440 J1.428 F180.000
G2 X4.605 Y-11.072 Z-4.800 I1.428 J0.440 F180.000
G2 X6.102 Y-11.443 Z-4.800 I0.440 J-1.428 F180.000
G1 X6.102 Y-11.443 Z-5.000 F15.000
G2 X5.486 Y-13.928 Z-5.000 I-1.057 J-1.057 F180.000
G2 X3.617 Y-12.940 Z-5.000 I-0.440 J1.428 F180.000
G2 X4.605 Y-11.072 Z-5.000 I1.428 J0.440 F180.000
G2 X6.102 Y-11.443 Z-5.000 I0.440 J-1.428 F180.000
G1 X6.102 Y-11.443 Z-5.200 F15.000
G2 X5.486 Y-13.928 Z-5.200 I-1.057 J-1.057 F180.000
G2 X3.617 Y-12.940 Z-5.200 I-0.440 J1.428 F180.000
G2 X4.605 Y-11.072 Z-5.200 I1.428 J0.440 F180.000
G2 X6.102 Y-11.443 Z-5.200 I0.440 J-1.428 F180.000
G1 X6.102 Y-11.443 Z-5.400 F15.000
G2 X5.486 Y-13.928 Z-5.400 I-1.057 J-1.057 F180.000
G2 X3.617 Y-12.940 Z-5.400 I-0.440 J1.428 F180.000
G2 X4.605 Y-11.072 Z-5.400 I1.428 J0.440 F180.000
G2 X6.102 Y-11.443 Z-5.400 I0.440 J-1.428 F180.000
G1 X6.102 Y-11.443 Z-5.600 F15.000
G2 X5.486 Y-13.928 Z-5.600 I-1.057 J-1.057 F180.000
G2 X3.617 Y-12.940 Z-5.600 I-0.440 J1.428 F180.000
G2 X4.605 Y-11.072 Z-5.600 I1.428 J0.440 F180.000
G2 X6.102 Y-11.443 Z-5.600 I0.440 J-1.428 F180.000
G1 X6.102 Y-11.443 Z-5.800 F15.000
G2 X5.486 Y-13.928 Z-5.800 I-1.057 J-1.057 F180.000
G2 X3.617 Y-12.940 Z-5.800 I-0.440 J1.428 F180.000
G2 X4.605 Y-11.072 Z-5.800 I1.428 J0.440 F180.000
G2 X6.102 Y-11.443 Z-5.800 I0.440 J-1.428 F180.000
G1 X6.102 Y-11.443 Z-6.000 F15.000
G2 X5.486 Y-13.928 Z-6.000 I-1.057 J-1.057 F180.000
G2 X3.617 Y-12.940 Z-6.000 I-0.440 J1.428 F180.000
G2 X4.605 Y-11.072 Z-6.000 I1.428 J0.440 F180.000
G2 X6.102 Y-11.443 Z-6.000 I0.440 J-1.428 F180.000
G1 X6.102 Y-11.443 Z-6.200 F15.000
G2 X5.486 Y-13.928 Z-6.200 I-1.057 J-1.057 F180.000
G2 X3.617 Y-12.940 Z-6.200 I-0.440 J1.428 F180.000
G2 X4.605 Y-11.072 Z-6.200 I1.428 J0.440 F180.000
G2 X6.102 Y-11.443 Z-6.200 I0.440 J-1.428 F180.000
G1 X6.102 Y-11.443 Z-6.400 F15.000
G2 X5.486 Y-13.928 Z-6.400 I-1.057 J-1.057 F180.000
G2 X3.617 Y-12.940 Z-6.400 I-0.440 J1.428 F180.000
G2 X4.605 Y-11.072 Z-6.400 I1.428 J0.440 F180.000
G2 X6.102 Y-11.443 Z-6.400 I0.440 J-1.428 F180.000
G1 X6.102 Y-11.443 Z-6.600 F15.000
G2 X5.486 Y-13.928 Z-6.600 I-1.057 J-1.057 F180.000
G2 X3.617 Y-12.940 Z-6.600 I-0.440 J1.428 F180.000
G2 X4.605 Y-11.072 Z-6.600 I1.428 J0.440 F180.000
G2 X6.102 Y-11.443 Z-6.600 I0.440 J-1.428 F180.000
G1 X6.102 Y-11.443 Z-6.800 F15.000
G2 X5.486 Y-13.928 Z-6.800 I-1.057 J-1.057 F180.000
G2 X3.617 Y-12.940 Z-6.800 I-0.440 J1.428 F180.000
G2 X4.605 Y-11.072 Z-6.800 I1.428 J0.440 F180.000
G2 X6.102 Y-11.443 Z-6.800 I0.440 J-1.428 F180.000
G1 X6.102 Y-11.443 Z-7.000 F15.000
G2 X5.486 Y-13.928 Z-7.000 I-1.057 J-1.057 F180.000
G2 X3.617 Y-12.940 Z-7.000 I-0.440 J1.428 F180.000
G2 X4.605 Y-11.072 Z-7.000 I1.428 J0.440 F180.000
G2 X6.102 Y-11.443 Z-7.000 I0.440 J-1.428 F180.000
G1 X6.102 Y-11.443 Z-7.200 F15.000
G2 X5.486 Y-13.928 Z-7.200 I-1.057 J-1.057 F180.000
G2 X3.617 Y-12.940 Z-7.200 I-0.440 J1.428 F180.000
G2 X4.605 Y-11.072 Z-7.200 I1.428 J0.440 F180.000
G2 X6.102 Y-11.443 Z-7.200 I0.440 J-1.428 F180.000
G1 X6.102 Y-11.443 Z-7.400 F15.000
G2 X5.486 Y-13.928 Z-7.400 I-1.057 J-1.057 F180.000
G2 X3.617 Y-12.940 Z-7.400 I-0.440 J1.428 F180.000
G2 X4.605 Y-11.072 Z-7.400 I1.428 J0.440 F180.000
G2 X6.102 Y-11.443 Z-7.400 I0.440 J-1.428 F180.000
G1 X6.102 Y-11.443 Z-7.600 F15.000
G2 X5.486 Y-13.928 Z-7.600 I-1.057 J-1.057 F180.000
G2 X3.617 Y-12.940 Z-7.600 I-0.440 J1.428 F180.000
G2 X4.605 Y-11.072 Z-7.600 I1.428 J0.440 F180.000
G2 X6.102 Y-11.443 Z-7.600 I0.440 J-1.428 F180.000
G1 X6.102 Y-11.443 Z-7.800 F15.000
G2 X5.486 Y-13.928 Z-7.800 I-1.057 J-1.057 F180.000
G2 X3.617 Y-12.940 Z-7.800 I-0.440 J1.428 F180.000
G2 X4.605 Y-11.072 Z-7.800 I1.428 J0.440 F180.000
G2 X6.102 Y-11.443 Z-7.800 I0.440 J-1.428 F180.000
G1 X6.102 Y-11.443 Z-8.000 F15.000
G2 X5.486 Y-13.928 Z-8.000 I-1.057 J-1.057 F180.000
G2 X3.617 Y-12.940 Z-8.000 I-0.440 J1.428 F180.000
G2 X4.605 Y-11.072 Z-8.000 I1.428 J0.440 F180.000
G2 X6.102 Y-11.443 Z-8.000 I0.440 J-1.428 F180.000
G1 X6.102 Y-11.443 Z-8.200 F15.000
G2 X5.486 Y-13.928 Z-8.200 I-1.057 J-1.057 F180.000
G2 X3.617 Y-12.940 Z-8.200 I-0.440 J1.428 F180.000
G2 X4.605 Y-11.072 Z-8.200 I1.428 J0.440 F180.000
G2 X6.102 Y-11.443 Z-8.200 I0.440 J-1.428 F180.000
G1 X6.102 Y-11.443 Z-8.400 F15.000
G2 X5.486 Y-13.928 Z-8.400 I-1.057 J-1.057 F180.000
G2 X3.617 Y-12.940 Z-8.400 I-0.440 J1.428 F180.000
G2 X4.605 Y-11.072 Z-8.400 I1.428 J0.440 F180.000
G2 X6.102 Y-11.443 Z-8.400 I0.440 J-1.428 F180.000
G1 X6.102 Y-11.443 Z-8.600 F15.000
G2 X5.486 Y-13.928 Z-8.600 I-1.057 J-1.057 F180.000
G2 X3.617 Y-12.940 Z-8.600 I-0.440 J1.428 F180.000
G2 X4.605 Y-11.072 Z-8.600 I1.428 J0.440 F180.000
G2 X6.102 Y-11.443 Z-8.600 I0.440 J-1.428 F180.000
G1 X6.102 Y-11.443 Z-8.800 F15.000
G2 X5.486 Y-13.928 Z-8.800 I-1.057 J-1.057 F180.000
G2 X3.617 Y-12.940 Z-8.800 I-0.440 J1.428 F180.000
G2 X4.605 Y-11.072 Z-8.800 I1.428 J0.440 F180.000
G2 X6.102 Y-11.443 Z-8.800 I0.440 J-1.428 F180.000
G1 X6.102 Y-11.443 Z-9.000 F15.000
G2 X5.486 Y-13.928 Z-9.000 I-1.057 J-1.057 F180.000
G2 X3.617 Y-12.940 Z-9.000 I-0.440 J1.428 F180.000
G2 X4.605 Y-11.072 Z-9.000 I1.428 J0.440 F180.000
G2 X6.102 Y-11.443 Z-9.000 I0.440 J-1.428 F180.000
G1 X6.102 Y-11.443 Z-9.200 F15.000
G2 X5.486 Y-13.928 Z-9.200 I-1.057 J-1.057 F180.000
G2 X3.617 Y-12.940 Z-9.200 I-0.440 J1.428 F180.000
G2 X4.605 Y-11.072 Z-9.200 I1.428 J0.440 F180.000
G2 X6.102 Y-11.443 Z-9.200 I0.440 J-1.428 F180.000
G1 X6.102 Y-11.443 Z-9.400 F15.000
G2 X5.486 Y-13.928 Z-9.400 I-1.057 J-1.057 F180.000
G2 X3.617 Y-12.940 Z-9.400 I-0.440 J1.428 F180.000
G2 X4.605 Y-11.072 Z-9.400 I1.428 J0.440 F180.000
G2 X6.102 Y-11.443 Z-9.400 I0.440 J-1.428 F180.000
G1 X6.102 Y-11.443 Z-9.600 F15.000
G2 X5.486 Y-13.928 Z-9.600 I-1.057 J-1.057 F180.000
G2 X3.617 Y-12.940 Z-9.600 I-0.440 J1.428 F180.000
G2 X4.605 Y-11.072 Z-9.600 I1.428 J0.440 F180.000
G2 X6.102 Y-11.443 Z-9.600 I0.440 J-1.428 F180.000
G1 X6.102 Y-11.443 Z-9.800 F15.000
G2 X5.486 Y-13.928 Z-9.800 I-1.057 J-1.057 F180.000
G2 X3.617 Y-12.940 Z-9.800 I-0.440 J1.428 F180.000
G2 X4.605 Y-11.072 Z-9.800 I1.428 J0.440 F180.000
G2 X6.102 Y-11.443 Z-9.800 I0.440 J-1.428 F180.000
G1 X6.102 Y-11.443 Z-10.000 F15.000
G2 X5.486 Y-13.928 Z-10.000 I-1.057 J-1.057 F180.000
G2 X3.617 Y-12.940 Z-10.000 I-0.440 J1.428 F180.000
G2 X4.605 Y-11.072 Z-10.000 I1.428 J0.440 F180.000
G2 X6.102 Y-11.443 Z-10.000 I0.440 J-1.428 F180.000
G1 X6.102 Y-11.443 Z-10.200 F15.000
G2 X5.486 Y-13.928 Z-10.200 I-1.057 J-1.057 F180.000
G2 X3.617 Y-12.940 Z-10.200 I-0.440 J1.428 F180.000
G2 X4.605 Y-11.072 Z-10.200 I1.428 J0.440 F180.000
G2 X6.102 Y-11.443 Z-10.200 I0.440 J-1.428 F180.000
G1 X6.102 Y-11.443 Z-10.400 F15.000
G2 X5.486 Y-13.928 Z-10.400 I-1.057 J-1.057 F180.000
G2 X3.617 Y-12.940 Z-10.400 I-0.440 J1.428 F180.000
G2 X4.605 Y-11.072 Z-10.400 I1.428 J0.440 F180.000
G2 X6.102 Y-11.443 Z-10.400 I0.440 J-1.428 F180.000
G1 X6.102 Y-11.443 Z-10.600 F15.000
G2 X5.486 Y-13.928 Z-10.600 I-1.057 J-1.057 F180.000
G2 X3.617 Y-12.940 Z-10.600 I-0.440 J1.428 F180.000
G2 X4.605 Y-11.072 Z-10.600 I1.428 J0.440 F180.000
G2 X6.102 Y-11.443 Z-10.600 I0.440 J-1.428 F180.000
G1 X6.102 Y-11.443 Z-10.800 F15.000
G2 X5.486 Y-13.928 Z-10.800 I-1.057 J-1.057 F180.000
G2 X3.617 Y-12.940 Z-10.800 I-0.440 J1.428 F180.000
G2 X4.605 Y-11.072 Z-10.800 I1.428 J0.440 F180.000
G2 X6.102 Y-11.443 Z-10.800 I0.440 J-1.428 F180.000
G1 X6.102 Y-11.443 Z-11.000 F15.000
G2 X5.486 Y-13.928 Z-11.000 I-1.057 J-1.057 F180.000
G2 X3.617 Y-12.940 Z-11.000 I-0.440 J1.428 F180.000
G2 X4.605 Y-11.072 Z-11.000 I1.428 J0.440 F180.000
G2 X6.102 Y-11.443 Z-11.000 I0.440 J-1.428 F180.000
G1 X6.102 Y-11.443 Z-11.200 F15.000
G2 X5.486 Y-13.928 Z-11.200 I-1.057 J-1.057 F180.000
G2 X3.617 Y-12.940 Z-11.200 I-0.440 J1.428 F180.000
G2 X4.605 Y-11.072 Z-11.200 I1.428 J0.440 F180.000
G2 X6.102 Y-11.443 Z-11.200 I0.440 J-1.428 F180.000
G1 X6.102 Y-11.443 Z-11.400 F15.000
G2 X5.486 Y-13.928 Z-11.400 I-1.057 J-1.057 F180.000
G2 X3.617 Y-12.940 Z-11.400 I-0.440 J1.428 F180.000
G2 X4.605 Y-11.072 Z-11.400 I1.428 J0.440 F180.000
G2 X6.102 Y-11.443 Z-11.400 I0.440 J-1.428 F180.000
G1 X6.102 Y-11.443 Z-11.600 F15.000
G2 X5.486 Y-13.928 Z-11.600 I-1.057 J-1.057 F180.000
G2 X3.617 Y-12.940 Z-11.600 I-0.440 J1.428 F180.000
G2 X4.605 Y-11.072 Z-11.600 I1.428 J0.440 F180.000
G2 X6.102 Y-11.443 Z-11.600 I0.440 J-1.428 F180.000
G1 X6.102 Y-11.443 Z-11.800 F15.000
G2 X5.486 Y-13.928 Z-11.800 I-1.057 J-1.057 F180.000
G2 X3.617 Y-12.940 Z-11.800 I-0.440 J1.428 F180.000
G2 X4.605 Y-11.072 Z-11.800 I1.428 J0.440 F180.000
G2 X6.102 Y-11.443 Z-11.800 I0.440 J-1.428 F180.000
G1 X6.102 Y-11.443 Z-12.000 F15.000
G2 X5.486 Y-13.928 Z-12.000 I-1.057 J-1.057 F180.000
G2 X3.617 Y-12.940 Z-12.000 I-0.440 J1.428 F180.000
G2 X4.605 Y-11.072 Z-12.000 I1.428 J0.440 F180.000
G2 X6.102 Y-11.443 Z-12.000 I0.440 J-1.428 F180.000
G0 Z5.000
(finish operation: Profile_Edges004)
(begin operation: T6: 4mm Endmill)
(machine: not set, mm/min)
(T6: 4mm Endmill)
M6 T6 G43 H6
M3 S3000
(finish operation: T6: 4mm Endmill)
(begin operation: Profile_Edges005)
(machine: not set, mm/min)
(Profile_Edges005)
(Compensated Tool Path. Diameter: 4.0)
G0 Z5.000
G0 X21.906 Y-10.240
G1 X21.906 Y-10.240 Z-7.200 F15.000
G2 X20.410 Y-15.603 Z-7.200 I-2.260 J-2.260 F180.000
G2 X18.880 Y-9.397 Z-7.200 I-0.765 J3.103 F180.000
G2 X21.906 Y-10.240 Z-7.200 I0.765 J-3.103 F180.000
G1 X21.906 Y-10.240 Z-7.400 F15.000
G2 X20.410 Y-15.603 Z-7.400 I-2.260 J-2.260 F180.000
G2 X18.880 Y-9.397 Z-7.400 I-0.765 J3.103 F180.000
G2 X21.906 Y-10.240 Z-7.400 I0.765 J-3.103 F180.000
G1 X21.906 Y-10.240 Z-7.600 F15.000
G2 X20.410 Y-15.603 Z-7.600 I-2.260 J-2.260 F180.000
G2 X18.880 Y-9.397 Z-7.600 I-0.765 J3.103 F180.000
G2 X21.906 Y-10.240 Z-7.600 I0.765 J-3.103 F180.000
G1 X21.906 Y-10.240 Z-7.800 F15.000
G2 X20.410 Y-15.603 Z-7.800 I-2.260 J-2.260 F180.000
G2 X18.880 Y-9.397 Z-7.800 I-0.765 J3.103 F180.000
G2 X21.906 Y-10.240 Z-7.800 I0.765 J-3.103 F180.000
G1 X21.906 Y-10.240 Z-8.000 F15.000
G2 X20.410 Y-15.603 Z-8.000 I-2.260 J-2.260 F180.000
G2 X18.880 Y-9.397 Z-8.000 I-0.765 J3.103 F180.000
G2 X21.906 Y-10.240 Z-8.000 I0.765 J-3.103 F180.000
G1 X21.906 Y-10.240 Z-8.200 F15.000
G2 X20.410 Y-15.603 Z-8.200 I-2.260 J-2.260 F180.000
G2 X18.880 Y-9.397 Z-8.200 I-0.765 J3.103 F180.000
G2 X21.906 Y-10.240 Z-8.200 I0.765 J-3.103 F180.000
G1 X21.906 Y-10.240 Z-8.400 F15.000
G2 X20.410 Y-15.603 Z-8.400 I-2.260 J-2.260 F180.000
G2 X18.880 Y-9.397 Z-8.400 I-0.765 J3.103 F180.000
G2 X21.906 Y-10.240 Z-8.400 I0.765 J-3.103 F180.000
G1 X21.906 Y-10.240 Z-8.600 F15.000
G2 X20.410 Y-15.603 Z-8.600 I-2.260 J-2.260 F180.000
G2 X18.880 Y-9.397 Z-8.600 I-0.765 J3.103 F180.000
G2 X21.906 Y-10.240 Z-8.600 I0.765 J-3.103 F180.000
G1 X21.906 Y-10.240 Z-8.800 F15.000
G2 X20.410 Y-15.603 Z-8.800 I-2.260 J-2.260 F180.000
G2 X18.880 Y-9.397 Z-8.800 I-0.765 J3.103 F180.000
G2 X21.906 Y-10.240 Z-8.800 I0.765 J-3.103 F180.000
G1 X21.906 Y-10.240 Z-9.000 F15.000
G2 X20.410 Y-15.603 Z-9.000 I-2.260 J-2.260 F180.000
G2 X18.880 Y-9.397 Z-9.000 I-0.765 J3.103 F180.000
G2 X21.906 Y-10.240 Z-9.000 I0.765 J-3.103 F180.000
G1 X21.906 Y-10.240 Z-9.200 F15.000
G2 X20.410 Y-15.603 Z-9.200 I-2.260 J-2.260 F180.000
G2 X18.880 Y-9.397 Z-9.200 I-0.765 J3.103 F180.000
G2 X21.906 Y-10.240 Z-9.200 I0.765 J-3.103 F180.000
G1 X21.906 Y-10.240 Z-9.400 F15.000
G2 X20.410 Y-15.603 Z-9.400 I-2.260 J-2.260 F180.000
G2 X18.880 Y-9.397 Z-9.400 I-0.765 J3.103 F180.000
G2 X21.906 Y-10.240 Z-9.400 I0.765 J-3.103 F180.000
G1 X21.906 Y-10.240 Z-9.600 F15.000
G2 X20.410 Y-15.603 Z-9.600 I-2.260 J-2.260 F180.000
G2 X18.880 Y-9.397 Z-9.600 I-0.765 J3.103 F180.000
G2 X21.906 Y-10.240 Z-9.600 I0.765 J-3.103 F180.000
G1 X21.906 Y-10.240 Z-9.800 F15.000
G2 X20.410 Y-15.603 Z-9.800 I-2.260 J-2.260 F180.000
G2 X18.880 Y-9.397 Z-9.800 I-0.765 J3.103 F180.000
G2 X21.906 Y-10.240 Z-9.800 I0.765 J-3.103 F180.000
G1 X21.906 Y-10.240 Z-10.000 F15.000
G2 X20.410 Y-15.603 Z-10.000 I-2.260 J-2.260 F180.000
G2 X18.880 Y-9.397 Z-10.000 I-0.765 J3.103 F180.000
G2 X21.906 Y-10.240 Z-10.000 I0.765 J-3.103 F180.000
G1 X21.906 Y-10.240 Z-10.200 F15.000
G2 X20.410 Y-15.603 Z-10.200 I-2.260 J-2.260 F180.000
G2 X18.880 Y-9.397 Z-10.200 I-0.765 J3.103 F180.000
G2 X21.906 Y-10.240 Z-10.200 I0.765 J-3.103 F180.000
G1 X21.906 Y-10.240 Z-10.400 F15.000
G2 X20.410 Y-15.603 Z-10.400 I-2.260 J-2.260 F180.000
G2 X18.880 Y-9.397 Z-10.400 I-0.765 J3.103 F180.000
G2 X21.906 Y-10.240 Z-10.400 I0.765 J-3.103 F180.000
G1 X21.906 Y-10.240 Z-10.600 F15.000
G2 X20.410 Y-15.603 Z-10.600 I-2.260 J-2.260 F180.000
G2 X18.880 Y-9.397 Z-10.600 I-0.765 J3.103 F180.000
G2 X21.906 Y-10.240 Z-10.600 I0.765 J-3.103 F180.000
G1 X21.906 Y-10.240 Z-10.800 F15.000
G2 X20.410 Y-15.603 Z-10.800 I-2.260 J-2.260 F180.000
G2 X18.880 Y-9.397 Z-10.800 I-0.765 J3.103 F180.000
G2 X21.906 Y-10.240 Z-10.800 I0.765 J-3.103 F180.000
G1 X21.906 Y-10.240 Z-11.000 F15.000
G2 X20.410 Y-15.603 Z-11.000 I-2.260 J-2.260 F180.000
G2 X18.880 Y-9.397 Z-11.000 I-0.765 J3.103 F180.000
G2 X21.906 Y-10.240 Z-11.000 I0.765 J-3.103 F180.000
G1 X21.906 Y-10.240 Z-11.200 F15.000
G2 X20.410 Y-15.603 Z-11.200 I-2.260 J-2.260 F180.000
G2 X18.880 Y-9.397 Z-11.200 I-0.765 J3.103 F180.000
G2 X21.906 Y-10.240 Z-11.200 I0.765 J-3.103 F180.000
G1 X21.906 Y-10.240 Z-11.400 F15.000
G2 X20.410 Y-15.603 Z-11.400 I-2.260 J-2.260 F180.000
G2 X18.880 Y-9.397 Z-11.400 I-0.765 J3.103 F180.000
G2 X21.906 Y-10.240 Z-11.400 I0.765 J-3.103 F180.000
G1 X21.906 Y-10.240 Z-11.600 F15.000
G2 X20.410 Y-15.603 Z-11.600 I-2.260 J-2.260 F180.000
G2 X18.880 Y-9.397 Z-11.600 I-0.765 J3.103 F180.000
G2 X21.906 Y-10.240 Z-11.600 I0.765 J-3.103 F180.000
G1 X21.906 Y-10.240 Z-11.800 F15.000
G2 X20.410 Y-15.603 Z-11.800 I-2.260 J-2.260 F180.000
G2 X18.880 Y-9.397 Z-11.800 I-0.765 J3.103 F180.000
G2 X21.906 Y-10.240 Z-11.800 I0.765 J-3.103 F180.000
G1 X21.906 Y-10.240 Z-12.000 F15.000
G2 X20.410 Y-15.603 Z-12.000 I-2.260 J-2.260 F180.000
G2 X18.880 Y-9.397 Z-12.000 I-0.765 J3.103 F180.000
G2 X21.906 Y-10.240 Z-12.000 I0.765 J-3.103 F180.000
G0 Z5.000
(finish operation: Profile_Edges005)
(begin operation: T9: 2.5mm Drill (M3 tap))
(machine: not set, mm/min)
(T9: 2.5mm Drill M3 tap)
M6 T9 G43 H9
M3 S800
(finish operation: T9: 2.5mm Drill (M3 tap))
(begin operation: Drilling)
(machine: not set, mm/min)
(Drilling)
(Begin Drilling)
G0 Z5.000
G90
G98
G83 X19.645 Y-4.880 Z-14.000 F60.000 Q0.100 R3.000
G83 X19.645 Y-20.120 Z-14.000 F60.000 Q0.100 R3.000
G80
G0 Z5.000
(finish operation: Drilling)
(begin operation: T7: 3mm Endmill)
(machine: not set, mm/min)
(T7: 3mm Endmill)
M6 T7 G43 H7
M3 S3000
(finish operation: T7: 3mm Endmill)
(begin operation: Profile_Edges006)
(machine: not set, mm/min)
(Profile_Edges006)
(Compensated Tool Path. Diameter: 3.0)
G0 Z5.000
G0 X51.544 Y-6.530
G1 X51.544 Y-6.530 Z-7.150 F9.000
G1 X51.544 Y-18.470 Z-7.150 F120.000
G1 X50.544 Y-18.470 Z-7.150 F120.000
G1 X50.544 Y-15.970 Z-7.150 F120.000
G3 X50.105 Y-14.910 Z-7.150 I-1.500 J-0.000 F120.000
G1 X48.434 Y-13.239 Z-7.150 F120.000
G3 X47.374 Y-12.800 Z-7.150 I-1.061 J-1.061 F120.000
G1 X44.436 Y-12.800 Z-7.150 F120.000
G2 X44.237 Y-12.772 Z-7.150 I-0.030 J0.511 F120.000
G2 X44.436 Y-12.200 Z-7.150 I0.121 J0.278 F120.000
G1 X47.374 Y-12.200 Z-7.150 F120.000
G3 X48.434 Y-11.761 Z-7.150 I0.000 J1.500 F120.000
G1 X50.105 Y-10.090 Z-7.150 F120.000
G3 X50.544 Y-9.030 Z-7.150 I-1.061 J1.061 F120.000
G1 X50.544 Y-6.530 Z-7.150 F120.000
G1 X51.544 Y-6.530 Z-7.150 F120.000
G1 X51.544 Y-6.530 Z-7.300 F9.000
G1 X51.544 Y-18.470 Z-7.300 F120.000
G1 X50.544 Y-18.470 Z-7.300 F120.000
G1 X50.544 Y-15.970 Z-7.300 F120.000
G3 X50.105 Y-14.910 Z-7.300 I-1.500 J-0.000 F120.000
G1 X48.434 Y-13.239 Z-7.300 F120.000
G3 X47.374 Y-12.800 Z-7.300 I-1.061 J-1.061 F120.000
G1 X44.436 Y-12.800 Z-7.300 F120.000
G2 X44.237 Y-12.772 Z-7.300 I-0.030 J0.511 F120.000
G2 X44.436 Y-12.200 Z-7.300 I0.121 J0.278 F120.000
G1 X47.374 Y-12.200 Z-7.300 F120.000
G3 X48.434 Y-11.761 Z-7.300 I0.000 J1.500 F120.000
G1 X50.105 Y-10.090 Z-7.300 F120.000
G3 X50.544 Y-9.030 Z-7.300 I-1.061 J1.061 F120.000
G1 X50.544 Y-6.530 Z-7.300 F120.000
G1 X51.544 Y-6.530 Z-7.300 F120.000
G1 X51.544 Y-6.530 Z-7.450 F9.000
G1 X51.544 Y-18.470 Z-7.450 F120.000
G1 X50.544 Y-18.470 Z-7.450 F120.000
G1 X50.544 Y-15.970 Z-7.450 F120.000
G3 X50.105 Y-14.910 Z-7.450 I-1.500 J-0.000 F120.000
G1 X48.434 Y-13.239 Z-7.450 F120.000
G3 X47.374 Y-12.800 Z-7.450 I-1.061 J-1.061 F120.000
G1 X44.436 Y-12.800 Z-7.450 F120.000
G2 X44.237 Y-12.772 Z-7.450 I-0.030 J0.511 F120.000
G2 X44.436 Y-12.200 Z-7.450 I0.121 J0.278 F120.000
G1 X47.374 Y-12.200 Z-7.450 F120.000
G3 X48.434 Y-11.761 Z-7.450 I0.000 J1.500 F120.000
G1 X50.105 Y-10.090 Z-7.450 F120.000
G3 X50.544 Y-9.030 Z-7.450 I-1.061 J1.061 F120.000
G1 X50.544 Y-6.530 Z-7.450 F120.000
G1 X51.544 Y-6.530 Z-7.450 F120.000
G1 X51.544 Y-6.530 Z-7.600 F9.000
G1 X51.544 Y-18.470 Z-7.600 F120.000
G1 X50.544 Y-18.470 Z-7.600 F120.000
G1 X50.544 Y-15.970 Z-7.600 F120.000
G3 X50.105 Y-14.910 Z-7.600 I-1.500 J-0.000 F120.000
G1 X48.434 Y-13.239 Z-7.600 F120.000
G3 X47.374 Y-12.800 Z-7.600 I-1.061 J-1.061 F120.000
G1 X44.436 Y-12.800 Z-7.600 F120.000
G2 X44.237 Y-12.772 Z-7.600 I-0.030 J0.511 F120.000
G2 X44.436 Y-12.200 Z-7.600 I0.121 J0.278 F120.000
G1 X47.374 Y-12.200 Z-7.600 F120.000
G3 X48.434 Y-11.761 Z-7.600 I0.000 J1.500 F120.000
G1 X50.105 Y-10.090 Z-7.600 F120.000
G3 X50.544 Y-9.030 Z-7.600 I-1.061 J1.061 F120.000
G1 X50.544 Y-6.530 Z-7.600 F120.000
G1 X51.544 Y-6.530 Z-7.600 F120.000
G1 X51.544 Y-6.530 Z-7.750 F9.000
G1 X51.544 Y-18.470 Z-7.750 F120.000
G1 X50.544 Y-18.470 Z-7.750 F120.000
G1 X50.544 Y-15.970 Z-7.750 F120.000
G3 X50.105 Y-14.910 Z-7.750 I-1.500 J-0.000 F120.000
G1 X48.434 Y-13.239 Z-7.750 F120.000
G3 X47.374 Y-12.800 Z-7.750 I-1.061 J-1.061 F120.000
G1 X44.436 Y-12.800 Z-7.750 F120.000
G2 X44.237 Y-12.772 Z-7.750 I-0.030 J0.511 F120.000
G2 X44.436 Y-12.200 Z-7.750 I0.121 J0.278 F120.000
G1 X47.374 Y-12.200 Z-7.750 F120.000
G3 X48.434 Y-11.761 Z-7.750 I0.000 J1.500 F120.000
G1 X50.105 Y-10.090 Z-7.750 F120.000
G3 X50.544 Y-9.030 Z-7.750 I-1.061 J1.061 F120.000
G1 X50.544 Y-6.530 Z-7.750 F120.000
G1 X51.544 Y-6.530 Z-7.750 F120.000
G1 X51.544 Y-6.530 Z-7.900 F9.000
G1 X51.544 Y-18.470 Z-7.900 F120.000
G1 X50.544 Y-18.470 Z-7.900 F120.000
G1 X50.544 Y-15.970 Z-7.900 F120.000
G3 X50.105 Y-14.910 Z-7.900 I-1.500 J-0.000 F120.000
G1 X48.434 Y-13.239 Z-7.900 F120.000
G3 X47.374 Y-12.800 Z-7.900 I-1.061 J-1.061 F120.000
G1 X44.436 Y-12.800 Z-7.900 F120.000
G2 X44.237 Y-12.772 Z-7.900 I-0.030 J0.511 F120.000
G2 X44.436 Y-12.200 Z-7.900 I0.121 J0.278 F120.000
G1 X47.374 Y-12.200 Z-7.900 F120.000
G3 X48.434 Y-11.761 Z-7.900 I0.000 J1.500 F120.000
G1 X50.105 Y-10.090 Z-7.900 F120.000
G3 X50.544 Y-9.030 Z-7.900 I-1.061 J1.061 F120.000
G1 X50.544 Y-6.530 Z-7.900 F120.000
G1 X51.544 Y-6.530 Z-7.900 F120.000
G1 X51.544 Y-6.530 Z-8.050 F9.000
G1 X51.544 Y-18.470 Z-8.050 F120.000
G1 X50.544 Y-18.470 Z-8.050 F120.000
G1 X50.544 Y-15.970 Z-8.050 F120.000
G3 X50.105 Y-14.910 Z-8.050 I-1.500 J-0.000 F120.000
G1 X48.434 Y-13.239 Z-8.050 F120.000
G3 X47.374 Y-12.800 Z-8.050 I-1.061 J-1.061 F120.000
G1 X44.436 Y-12.800 Z-8.050 F120.000
G2 X44.237 Y-12.772 Z-8.050 I-0.030 J0.511 F120.000
G2 X44.436 Y-12.200 Z-8.050 I0.121 J0.278 F120.000
G1 X47.374 Y-12.200 Z-8.050 F120.000
G3 X48.434 Y-11.761 Z-8.050 I0.000 J1.500 F120.000
G1 X50.105 Y-10.090 Z-8.050 F120.000
G3 X50.544 Y-9.030 Z-8.050 I-1.061 J1.061 F120.000
G1 X50.544 Y-6.530 Z-8.050 F120.000
G1 X51.544 Y-6.530 Z-8.050 F120.000
G1 X51.544 Y-6.530 Z-8.200 F9.000
G1 X51.544 Y-18.470 Z-8.200 F120.000
G1 X50.544 Y-18.470 Z-8.200 F120.000
G1 X50.544 Y-15.970 Z-8.200 F120.000
G3 X50.105 Y-14.910 Z-8.200 I-1.500 J-0.000 F120.000
G1 X48.434 Y-13.239 Z-8.200 F120.000
G3 X47.374 Y-12.800 Z-8.200 I-1.061 J-1.061 F120.000
G1 X44.436 Y-12.800 Z-8.200 F120.000
G2 X44.237 Y-12.772 Z-8.200 I-0.030 J0.511 F120.000
G2 X44.436 Y-12.200 Z-8.200 I0.121 J0.278 F120.000
G1 X47.374 Y-12.200 Z-8.200 F120.000
G3 X48.434 Y-11.761 Z-8.200 I0.000 J1.500 F120.000
G1 X50.105 Y-10.090 Z-8.200 F120.000
G3 X50.544 Y-9.030 Z-8.200 I-1.061 J1.061 F120.000
G1 X50.544 Y-6.530 Z-8.200 F120.000
G1 X51.544 Y-6.530 Z-8.200 F120.000
G1 X51.544 Y-6.530 Z-8.350 F9.000
G1 X51.544 Y-18.470 Z-8.350 F120.000
G1 X50.544 Y-18.470 Z-8.350 F120.000
G1 X50.544 Y-15.970 Z-8.350 F120.000
G3 X50.105 Y-14.910 Z-8.350 I-1.500 J-0.000 F120.000
G1 X48.434 Y-13.239 Z-8.350 F120.000
G3 X47.374 Y-12.800 Z-8.350 I-1.061 J-1.061 F120.000
G1 X44.436 Y-12.800 Z-8.350 F120.000
G2 X44.237 Y-12.772 Z-8.350 I-0.030 J0.511 F120.000
G2 X44.436 Y-12.200 Z-8.350 I0.121 J0.278 F120.000
G1 X47.374 Y-12.200 Z-8.350 F120.000
G3 X48.434 Y-11.761 Z-8.350 I0.000 J1.500 F120.000
G1 X50.105 Y-10.090 Z-8.350 F120.000
G3 X50.544 Y-9.030 Z-8.350 I-1.061 J1.061 F120.000
G1 X50.544 Y-6.530 Z-8.350 F120.000
G1 X51.544 Y-6.530 Z-8.350 F120.000
G1 X51.544 Y-6.530 Z-8.500 F9.000
G1 X51.544 Y-18.470 Z-8.500 F120.000
G1 X50.544 Y-18.470 Z-8.500 F120.000
G1 X50.544 Y-15.970 Z-8.500 F120.000
G3 X50.105 Y-14.910 Z-8.500 I-1.500 J-0.000 F120.000
G1 X48.434 Y-13.239 Z-8.500 F120.000
G3 X47.374 Y-12.800 Z-8.500 I-1.061 J-1.061 F120.000
G1 X44.436 Y-12.800 Z-8.500 F120.000
G2 X44.237 Y-12.772 Z-8.500 I-0.030 J0.511 F120.000
G2 X44.436 Y-12.200 Z-8.500 I0.121 J0.278 F120.000
G1 X47.374 Y-12.200 Z-8.500 F120.000
G3 X48.434 Y-11.761 Z-8.500 I0.000 J1.500 F120.000
G1 X50.105 Y-10.090 Z-8.500 F120.000
G3 X50.544 Y-9.030 Z-8.500 I-1.061 J1.061 F120.000
G1 X50.544 Y-6.530 Z-8.500 F120.000
G1 X51.544 Y-6.530 Z-8.500 F120.000
G1 X51.544 Y-6.530 Z-8.650 F9.000
G1 X51.544 Y-18.470 Z-8.650 F120.000
G1 X50.544 Y-18.470 Z-8.650 F120.000
G1 X50.544 Y-15.970 Z-8.650 F120.000
G3 X50.105 Y-14.910 Z-8.650 I-1.500 J-0.000 F120.000
G1 X48.434 Y-13.239 Z-8.650 F120.000
G3 X47.374 Y-12.800 Z-8.650 I-1.061 J-1.061 F120.000
G1 X44.436 Y-12.800 Z-8.650 F120.000
G2 X44.237 Y-12.772 Z-8.650 I-0.030 J0.511 F120.000
G2 X44.436 Y-12.200 Z-8.650 I0.121 J0.278 F120.000
G1 X47.374 Y-12.200 Z-8.650 F120.000
G3 X48.434 Y-11.761 Z-8.650 I0.000 J1.500 F120.000
G1 X50.105 Y-10.090 Z-8.650 F120.000
G3 X50.544 Y-9.030 Z-8.650 I-1.061 J1.061 F120.000
G1 X50.544 Y-6.530 Z-8.650 F120.000
G1 X51.544 Y-6.530 Z-8.650 F120.000
G1 X51.544 Y-6.530 Z-8.800 F9.000
G1 X51.544 Y-18.470 Z-8.800 F120.000
G1 X50.544 Y-18.470 Z-8.800 F120.000
G1 X50.544 Y-15.970 Z-8.800 F120.000
G3 X50.105 Y-14.910 Z-8.800 I-1.500 J-0.000 F120.000
G1 X48.434 Y-13.239 Z-8.800 F120.000
G3 X47.374 Y-12.800 Z-8.800 I-1.061 J-1.061 F120.000
G1 X44.436 Y-12.800 Z-8.800 F120.000
G2 X44.237 Y-12.772 Z-8.800 I-0.030 J0.511 F120.000
G2 X44.436 Y-12.200 Z-8.800 I0.121 J0.278 F120.000
G1 X47.374 Y-12.200 Z-8.800 F120.000
G3 X48.434 Y-11.761 Z-8.800 I0.000 J1.500 F120.000
G1 X50.105 Y-10.090 Z-8.800 F120.000
G3 X50.544 Y-9.030 Z-8.800 I-1.061 J1.061 F120.000
G1 X50.544 Y-6.530 Z-8.800 F120.000
G1 X51.544 Y-6.530 Z-8.800 F120.000
G1 X51.544 Y-6.530 Z-8.950 F9.000
G1 X51.544 Y-18.470 Z-8.950 F120.000
G1 X50.544 Y-18.470 Z-8.950 F120.000
G1 X50.544 Y-15.970 Z-8.950 F120.000
G3 X50.105 Y-14.910 Z-8.950 I-1.500 J-0.000 F120.000
G1 X48.434 Y-13.239 Z-8.950 F120.000
G3 X47.374 Y-12.800 Z-8.950 I-1.061 J-1.061 F120.000
G1 X44.436 Y-12.800 Z-8.950 F120.000
G2 X44.237 Y-12.772 Z-8.950 I-0.030 J0.511 F120.000
G2 X44.436 Y-12.200 Z-8.950 I0.121 J0.278 F120.000
G1 X47.374 Y-12.200 Z-8.950 F120.000
G3 X48.434 Y-11.761 Z-8.950 I0.000 J1.500 F120.000
G1 X50.105 Y-10.090 Z-8.950 F120.000
G3 X50.544 Y-9.030 Z-8.950 I-1.061 J1.061 F120.000
G1 X50.544 Y-6.530 Z-8.950 F120.000
G1 X51.544 Y-6.530 Z-8.950 F120.000
G1 X51.544 Y-6.530 Z-9.100 F9.000
G1 X51.544 Y-18.470 Z-9.100 F120.000
G1 X50.544 Y-18.470 Z-9.100 F120.000
G1 X50.544 Y-15.970 Z-9.100 F120.000
G3 X50.105 Y-14.910 Z-9.100 I-1.500 J-0.000 F120.000
G1 X48.434 Y-13.239 Z-9.100 F120.000
G3 X47.374 Y-12.800 Z-9.100 I-1.061 J-1.061 F120.000
G1 X44.436 Y-12.800 Z-9.100 F120.000
G2 X44.237 Y-12.772 Z-9.100 I-0.030 J0.511 F120.000
G2 X44.436 Y-12.200 Z-9.100 I0.121 J0.278 F120.000
G1 X47.374 Y-12.200 Z-9.100 F120.000
G3 X48.434 Y-11.761 Z-9.100 I0.000 J1.500 F120.000
G1 X50.105 Y-10.090 Z-9.100 F120.000
G3 X50.544 Y-9.030 Z-9.100 I-1.061 J1.061 F120.000
G1 X50.544 Y-6.530 Z-9.100 F120.000
G1 X51.544 Y-6.530 Z-9.100 F120.000
G1 X51.544 Y-6.530 Z-9.250 F9.000
G1 X51.544 Y-18.470 Z-9.250 F120.000
G1 X50.544 Y-18.470 Z-9.250 F120.000
G1 X50.544 Y-15.970 Z-9.250 F120.000
G3 X50.105 Y-14.910 Z-9.250 I-1.500 J-0.000 F120.000
G1 X48.434 Y-13.239 Z-9.250 F120.000
G3 X47.374 Y-12.800 Z-9.250 I-1.061 J-1.061 F120.000
G1 X44.436 Y-12.800 Z-9.250 F120.000
G2 X44.237 Y-12.772 Z-9.250 I-0.030 J0.511 F120.000
G2 X44.436 Y-12.200 Z-9.250 I0.121 J0.278 F120.000
G1 X47.374 Y-12.200 Z-9.250 F120.000
G3 X48.434 Y-11.761 Z-9.250 I0.000 J1.500 F120.000
G1 X50.105 Y-10.090 Z-9.250 F120.000
G3 X50.544 Y-9.030 Z-9.250 I-1.061 J1.061 F120.000
G1 X50.544 Y-6.530 Z-9.250 F120.000
G1 X51.544 Y-6.530 Z-9.250 F120.000
G1 X51.544 Y-6.530 Z-9.400 F9.000
G1 X51.544 Y-18.470 Z-9.400 F120.000
G1 X50.544 Y-18.470 Z-9.400 F120.000
G1 X50.544 Y-15.970 Z-9.400 F120.000
G3 X50.105 Y-14.910 Z-9.400 I-1.500 J-0.000 F120.000
G1 X48.434 Y-13.239 Z-9.400 F120.000
G3 X47.374 Y-12.800 Z-9.400 I-1.061 J-1.061 F120.000
G1 X44.436 Y-12.800 Z-9.400 F120.000
G2 X44.237 Y-12.772 Z-9.400 I-0.030 J0.511 F120.000
G2 X44.436 Y-12.200 Z-9.400 I0.121 J0.278 F120.000
G1 X47.374 Y-12.200 Z-9.400 F120.000
G3 X48.434 Y-11.761 Z-9.400 I0.000 J1.500 F120.000
G1 X50.105 Y-10.090 Z-9.400 F120.000
G3 X50.544 Y-9.030 Z-9.400 I-1.061 J1.061 F120.000
G1 X50.544 Y-6.530 Z-9.400 F120.000
G1 X51.544 Y-6.530 Z-9.400 F120.000
G1 X51.544 Y-6.530 Z-9.550 F9.000
G1 X51.544 Y-18.470 Z-9.550 F120.000
G1 X50.544 Y-18.470 Z-9.550 F120.000
G1 X50.544 Y-15.970 Z-9.550 F120.000
G3 X50.105 Y-14.910 Z-9.550 I-1.500 J-0.000 F120.000
G1 X48.434 Y-13.239 Z-9.550 F120.000
G3 X47.374 Y-12.800 Z-9.550 I-1.061 J-1.061 F120.000
G1 X44.436 Y-12.800 Z-9.550 F120.000
G2 X44.237 Y-12.772 Z-9.550 I-0.030 J0.511 F120.000
G2 X44.436 Y-12.200 Z-9.550 I0.121 J0.278 F120.000
G1 X47.374 Y-12.200 Z-9.550 F120.000
G3 X48.434 Y-11.761 Z-9.550 I0.000 J1.500 F120.000
G1 X50.105 Y-10.090 Z-9.550 F120.000
G3 X50.544 Y-9.030 Z-9.550 I-1.061 J1.061 F120.000
G1 X50.544 Y-6.530 Z-9.550 F120.000
G1 X51.544 Y-6.530 Z-9.550 F120.000
G1 X51.544 Y-6.530 Z-9.700 F9.000
G1 X51.544 Y-18.470 Z-9.700 F120.000
G1 X50.544 Y-18.470 Z-9.700 F120.000
G1 X50.544 Y-15.970 Z-9.700 F120.000
G3 X50.105 Y-14.910 Z-9.700 I-1.500 J-0.000 F120.000
G1 X48.434 Y-13.239 Z-9.700 F120.000
G3 X47.374 Y-12.800 Z-9.700 I-1.061 J-1.061 F120.000
G1 X44.436 Y-12.800 Z-9.700 F120.000
G2 X44.237 Y-12.772 Z-9.700 I-0.030 J0.511 F120.000
G2 X44.436 Y-12.200 Z-9.700 I0.121 J0.278 F120.000
G1 X47.374 Y-12.200 Z-9.700 F120.000
G3 X48.434 Y-11.761 Z-9.700 I0.000 J1.500 F120.000
G1 X50.105 Y-10.090 Z-9.700 F120.000
G3 X50.544 Y-9.030 Z-9.700 I-1.061 J1.061 F120.000
G1 X50.544 Y-6.530 Z-9.700 F120.000
G1 X51.544 Y-6.530 Z-9.700 F120.000
G1 X51.544 Y-6.530 Z-9.850 F9.000
G1 X51.544 Y-18.470 Z-9.850 F120.000
G1 X50.544 Y-18.470 Z-9.850 F120.000
G1 X50.544 Y-15.970 Z-9.850 F120.000
G3 X50.105 Y-14.910 Z-9.850 I-1.500 J-0.000 F120.000
G1 X48.434 Y-13.239 Z-9.850 F120.000
G3 X47.374 Y-12.800 Z-9.850 I-1.061 J-1.061 F120.000
G1 X44.436 Y-12.800 Z-9.850 F120.000
G2 X44.237 Y-12.772 Z-9.850 I-0.030 J0.511 F120.000
G2 X44.436 Y-12.200 Z-9.850 I0.121 J0.278 F120.000
G1 X47.374 Y-12.200 Z-9.850 F120.000
G3 X48.434 Y-11.761 Z-9.850 I0.000 J1.500 F120.000
G1 X50.105 Y-10.090 Z-9.850 F120.000
G3 X50.544 Y-9.030 Z-9.850 I-1.061 J1.061 F120.000
G1 X50.544 Y-6.530 Z-9.850 F120.000
G1 X51.544 Y-6.530 Z-9.850 F120.000
G1 X51.544 Y-6.530 Z-10.000 F9.000
G1 X51.544 Y-18.470 Z-10.000 F120.000
G1 X50.544 Y-18.470 Z-10.000 F120.000
G1 X50.544 Y-15.970 Z-10.000 F120.000
G3 X50.105 Y-14.910 Z-10.000 I-1.500 J-0.000 F120.000
G1 X48.434 Y-13.239 Z-10.000 F120.000
G3 X47.374 Y-12.800 Z-10.000 I-1.061 J-1.061 F120.000
G1 X44.436 Y-12.800 Z-10.000 F120.000
G2 X44.237 Y-12.772 Z-10.000 I-0.030 J0.511 F120.000
G2 X44.436 Y-12.200 Z-10.000 I0.121 J0.278 F120.000
G1 X47.374 Y-12.200 Z-10.000 F120.000
G3 X48.434 Y-11.761 Z-10.000 I0.000 J1.500 F120.000
G1 X50.105 Y-10.090 Z-10.000 F120.000
G3 X50.544 Y-9.030 Z-10.000 I-1.061 J1.061 F120.000
G1 X50.544 Y-6.530 Z-10.000 F120.000
G1 X51.544 Y-6.530 Z-10.000 F120.000
G1 X51.544 Y-6.530 Z-10.150 F9.000
G1 X51.544 Y-18.470 Z-10.150 F120.000
G1 X50.544 Y-18.470 Z-10.150 F120.000
G1 X50.544 Y-15.970 Z-10.150 F120.000
G3 X50.105 Y-14.910 Z-10.150 I-1.500 J-0.000 F120.000
G1 X48.434 Y-13.239 Z-10.150 F120.000
G3 X47.374 Y-12.800 Z-10.150 I-1.061 J-1.061 F120.000
G1 X44.436 Y-12.800 Z-10.150 F120.000
G2 X44.237 Y-12.772 Z-10.150 I-0.030 J0.511 F120.000
G2 X44.436 Y-12.200 Z-10.150 I0.121 J0.278 F120.000
G1 X47.374 Y-12.200 Z-10.150 F120.000
G3 X48.434 Y-11.761 Z-10.150 I0.000 J1.500 F120.000
G1 X50.105 Y-10.090 Z-10.150 F120.000
G3 X50.544 Y-9.030 Z-10.150 I-1.061 J1.061 F120.000
G1 X50.544 Y-6.530 Z-10.150 F120.000
G1 X51.544 Y-6.530 Z-10.150 F120.000
G1 X51.544 Y-6.530 Z-10.300 F9.000
G1 X51.544 Y-18.470 Z-10.300 F120.000
G1 X50.544 Y-18.470 Z-10.300 F120.000
G1 X50.544 Y-15.970 Z-10.300 F120.000
G3 X50.105 Y-14.910 Z-10.300 I-1.500 J-0.000 F120.000
G1 X48.434 Y-13.239 Z-10.300 F120.000
G3 X47.374 Y-12.800 Z-10.300 I-1.061 J-1.061 F120.000
G1 X44.436 Y-12.800 Z-10.300 F120.000
G2 X44.237 Y-12.772 Z-10.300 I-0.030 J0.511 F120.000
G2 X44.436 Y-12.200 Z-10.300 I0.121 J0.278 F120.000
G1 X47.374 Y-12.200 Z-10.300 F120.000
G3 X48.434 Y-11.761 Z-10.300 I0.000 J1.500 F120.000
G1 X50.105 Y-10.090 Z-10.300 F120.000
G3 X50.544 Y-9.030 Z-10.300 I-1.061 J1.061 F120.000
G1 X50.544 Y-6.530 Z-10.300 F120.000
G1 X51.544 Y-6.530 Z-10.300 F120.000
G1 X51.544 Y-6.530 Z-10.450 F9.000
G1 X51.544 Y-18.470 Z-10.450 F120.000
G1 X50.544 Y-18.470 Z-10.450 F120.000
G1 X50.544 Y-15.970 Z-10.450 F120.000
G3 X50.105 Y-14.910 Z-10.450 I-1.500 J-0.000 F120.000
G1 X48.434 Y-13.239 Z-10.450 F120.000
G3 X47.374 Y-12.800 Z-10.450 I-1.061 J-1.061 F120.000
G1 X44.436 Y-12.800 Z-10.450 F120.000
G2 X44.237 Y-12.772 Z-10.450 I-0.030 J0.511 F120.000
G2 X44.436 Y-12.200 Z-10.450 I0.121 J0.278 F120.000
G1 X47.374 Y-12.200 Z-10.450 F120.000
G3 X48.434 Y-11.761 Z-10.450 I0.000 J1.500 F120.000
G1 X50.105 Y-10.090 Z-10.450 F120.000
G3 X50.544 Y-9.030 Z-10.450 I-1.061 J1.061 F120.000
G1 X50.544 Y-6.530 Z-10.450 F120.000
G1 X51.544 Y-6.530 Z-10.450 F120.000
G1 X51.544 Y-6.530 Z-10.600 F9.000
G1 X51.544 Y-18.470 Z-10.600 F120.000
G1 X50.544 Y-18.470 Z-10.600 F120.000
G1 X50.544 Y-15.970 Z-10.600 F120.000
G3 X50.105 Y-14.910 Z-10.600 I-1.500 J-0.000 F120.000
G1 X48.434 Y-13.239 Z-10.600 F120.000
G3 X47.374 Y-12.800 Z-10.600 I-1.061 J-1.061 F120.000
G1 X44.436 Y-12.800 Z-10.600 F120.000
G2 X44.237 Y-12.772 Z-10.600 I-0.030 J0.511 F120.000
G2 X44.436 Y-12.200 Z-10.600 I0.121 J0.278 F120.000
G1 X47.374 Y-12.200 Z-10.600 F120.000
G3 X48.434 Y-11.761 Z-10.600 I0.000 J1.500 F120.000
G1 X50.105 Y-10.090 Z-10.600 F120.000
G3 X50.544 Y-9.030 Z-10.600 I-1.061 J1.061 F120.000
G1 X50.544 Y-6.530 Z-10.600 F120.000
G1 X51.544 Y-6.530 Z-10.600 F120.000
G1 X51.544 Y-6.530 Z-10.750 F9.000
G1 X51.544 Y-18.470 Z-10.750 F120.000
G1 X50.544 Y-18.470 Z-10.750 F120.000
G1 X50.544 Y-15.970 Z-10.750 F120.000
G3 X50.105 Y-14.910 Z-10.750 I-1.500 J-0.000 F120.000
G1 X48.434 Y-13.239 Z-10.750 F120.000
G3 X47.374 Y-12.800 Z-10.750 I-1.061 J-1.061 F120.000
G1 X44.436 Y-12.800 Z-10.750 F120.000
G2 X44.237 Y-12.772 Z-10.750 I-0.030 J0.511 F120.000
G2 X44.436 Y-12.200 Z-10.750 I0.121 J0.278 F120.000
G1 X47.374 Y-12.200 Z-10.750 F120.000
G3 X48.434 Y-11.761 Z-10.750 I0.000 J1.500 F120.000
G1 X50.105 Y-10.090 Z-10.750 F120.000
G3 X50.544 Y-9.030 Z-10.750 I-1.061 J1.061 F120.000
G1 X50.544 Y-6.530 Z-10.750 F120.000
G1 X51.544 Y-6.530 Z-10.750 F120.000
G1 X51.544 Y-6.530 Z-10.900 F9.000
G1 X51.544 Y-18.470 Z-10.900 F120.000
G1 X50.544 Y-18.470 Z-10.900 F120.000
G1 X50.544 Y-15.970 Z-10.900 F120.000
G3 X50.105 Y-14.910 Z-10.900 I-1.500 J-0.000 F120.000
G1 X48.434 Y-13.239 Z-10.900 F120.000
G3 X47.374 Y-12.800 Z-10.900 I-1.061 J-1.061 F120.000
G1 X44.436 Y-12.800 Z-10.900 F120.000
G2 X44.237 Y-12.772 Z-10.900 I-0.030 J0.511 F120.000
G2 X44.436 Y-12.200 Z-10.900 I0.121 J0.278 F120.000
G1 X47.374 Y-12.200 Z-10.900 F120.000
G3 X48.434 Y-11.761 Z-10.900 I0.000 J1.500 F120.000
G1 X50.105 Y-10.090 Z-10.900 F120.000
G3 X50.544 Y-9.030 Z-10.900 I-1.061 J1.061 F120.000
G1 X50.544 Y-6.530 Z-10.900 F120.000
G1 X51.544 Y-6.530 Z-10.900 F120.000
G1 X51.544 Y-6.530 Z-11.050 F9.000
G1 X51.544 Y-18.470 Z-11.050 F120.000
G1 X50.544 Y-18.470 Z-11.050 F120.000
G1 X50.544 Y-15.970 Z-11.050 F120.000
G3 X50.105 Y-14.910 Z-11.050 I-1.500 J-0.000 F120.000
G1 X48.434 Y-13.239 Z-11.050 F120.000
G3 X47.374 Y-12.800 Z-11.050 I-1.061 J-1.061 F120.000
G1 X44.436 Y-12.800 Z-11.050 F120.000
G2 X44.237 Y-12.772 Z-11.050 I-0.030 J0.511 F120.000
G2 X44.436 Y-12.200 Z-11.050 I0.121 J0.278 F120.000
G1 X47.374 Y-12.200 Z-11.050 F120.000
G3 X48.434 Y-11.761 Z-11.050 I0.000 J1.500 F120.000
G1 X50.105 Y-10.090 Z-11.050 F120.000
G3 X50.544 Y-9.030 Z-11.050 I-1.061 J1.061 F120.000
G1 X50.544 Y-6.530 Z-11.050 F120.000
G1 X51.544 Y-6.530 Z-11.050 F120.000
G1 X51.544 Y-6.530 Z-11.200 F9.000
G1 X51.544 Y-18.470 Z-11.200 F120.000
G1 X50.544 Y-18.470 Z-11.200 F120.000
G1 X50.544 Y-15.970 Z-11.200 F120.000
G3 X50.105 Y-14.910 Z-11.200 I-1.500 J-0.000 F120.000
G1 X48.434 Y-13.239 Z-11.200 F120.000
G3 X47.374 Y-12.800 Z-11.200 I-1.061 J-1.061 F120.000
G1 X44.436 Y-12.800 Z-11.200 F120.000
G2 X44.237 Y-12.772 Z-11.200 I-0.030 J0.511 F120.000
G2 X44.436 Y-12.200 Z-11.200 I0.121 J0.278 F120.000
G1 X47.374 Y-12.200 Z-11.200 F120.000
G3 X48.434 Y-11.761 Z-11.200 I0.000 J1.500 F120.000
G1 X50.105 Y-10.090 Z-11.200 F120.000
G3 X50.544 Y-9.030 Z-11.200 I-1.061 J1.061 F120.000
G1 X50.544 Y-6.530 Z-11.200 F120.000
G1 X51.544 Y-6.530 Z-11.200 F120.000
G1 X51.544 Y-6.530 Z-11.350 F9.000
G1 X51.544 Y-18.470 Z-11.350 F120.000
G1 X50.544 Y-18.470 Z-11.350 F120.000
G1 X50.544 Y-15.970 Z-11.350 F120.000
G3 X50.105 Y-14.910 Z-11.350 I-1.500 J-0.000 F120.000
G1 X48.434 Y-13.239 Z-11.350 F120.000
G3 X47.374 Y-12.800 Z-11.350 I-1.061 J-1.061 F120.000
G1 X44.436 Y-12.800 Z-11.350 F120.000
G2 X44.237 Y-12.772 Z-11.350 I-0.030 J0.511 F120.000
G2 X44.436 Y-12.200 Z-11.350 I0.121 J0.278 F120.000
G1 X47.374 Y-12.200 Z-11.350 F120.000
G3 X48.434 Y-11.761 Z-11.350 I0.000 J1.500 F120.000
G1 X50.105 Y-10.090 Z-11.350 F120.000
G3 X50.544 Y-9.030 Z-11.350 I-1.061 J1.061 F120.000
G1 X50.544 Y-6.530 Z-11.350 F120.000
G1 X51.544 Y-6.530 Z-11.350 F120.000
G1 X51.544 Y-6.530 Z-11.500 F9.000
G1 X51.544 Y-18.470 Z-11.500 F120.000
G1 X50.544 Y-18.470 Z-11.500 F120.000
G1 X50.544 Y-15.970 Z-11.500 F120.000
G3 X50.105 Y-14.910 Z-11.500 I-1.500 J-0.000 F120.000
G1 X48.434 Y-13.239 Z-11.500 F120.000
G3 X47.374 Y-12.800 Z-11.500 I-1.061 J-1.061 F120.000
G1 X44.436 Y-12.800 Z-11.500 F120.000
G2 X44.237 Y-12.772 Z-11.500 I-0.030 J0.511 F120.000
G2 X44.436 Y-12.200 Z-11.500 I0.121 J0.278 F120.000
G1 X47.374 Y-12.200 Z-11.500 F120.000
G3 X48.434 Y-11.761 Z-11.500 I0.000 J1.500 F120.000
G1 X50.105 Y-10.090 Z-11.500 F120.000
G3 X50.544 Y-9.030 Z-11.500 I-1.061 J1.061 F120.000
G1 X50.544 Y-6.530 Z-11.500 F120.000
G1 X51.544 Y-6.530 Z-11.500 F120.000
G1 X51.544 Y-6.530 Z-11.650 F9.000
G1 X51.544 Y-18.470 Z-11.650 F120.000
G1 X50.544 Y-18.470 Z-11.650 F120.000
G1 X50.544 Y-15.970 Z-11.650 F120.000
G3 X50.105 Y-14.910 Z-11.650 I-1.500 J-0.000 F120.000
G1 X48.434 Y-13.239 Z-11.650 F120.000
G3 X47.374 Y-12.800 Z-11.650 I-1.061 J-1.061 F120.000
G1 X44.436 Y-12.800 Z-11.650 F120.000
G2 X44.237 Y-12.772 Z-11.650 I-0.030 J0.511 F120.000
G2 X44.436 Y-12.200 Z-11.650 I0.121 J0.278 F120.000
G1 X47.374 Y-12.200 Z-11.650 F120.000
G3 X48.434 Y-11.761 Z-11.650 I0.000 J1.500 F120.000
G1 X50.105 Y-10.090 Z-11.650 F120.000
G3 X50.544 Y-9.030 Z-11.650 I-1.061 J1.061 F120.000
G1 X50.544 Y-6.530 Z-11.650 F120.000
G1 X51.544 Y-6.530 Z-11.650 F120.000
G1 X51.544 Y-6.530 Z-11.800 F9.000
G1 X51.544 Y-18.470 Z-11.800 F120.000
G1 X50.544 Y-18.470 Z-11.800 F120.000
G1 X50.544 Y-15.970 Z-11.800 F120.000
G3 X50.105 Y-14.910 Z-11.800 I-1.500 J-0.000 F120.000
G1 X48.434 Y-13.239 Z-11.800 F120.000
G3 X47.374 Y-12.800 Z-11.800 I-1.061 J-1.061 F120.000
G1 X44.436 Y-12.800 Z-11.800 F120.000
G2 X44.237 Y-12.772 Z-11.800 I-0.030 J0.511 F120.000
G2 X44.436 Y-12.200 Z-11.800 I0.121 J0.278 F120.000
G1 X47.374 Y-12.200 Z-11.800 F120.000
G3 X48.434 Y-11.761 Z-11.800 I0.000 J1.500 F120.000
G1 X50.105 Y-10.090 Z-11.800 F120.000
G3 X50.544 Y-9.030 Z-11.800 I-1.061 J1.061 F120.000
G1 X50.544 Y-6.530 Z-11.800 F120.000
G1 X51.544 Y-6.530 Z-11.800 F120.000
G1 X51.544 Y-6.530 Z-11.950 F9.000
G1 X51.544 Y-18.470 Z-11.950 F120.000
G1 X50.544 Y-18.470 Z-11.950 F120.000
G1 X50.544 Y-15.970 Z-11.950 F120.000
G3 X50.105 Y-14.910 Z-11.950 I-1.500 J-0.000 F120.000
G1 X48.434 Y-13.239 Z-11.950 F120.000
G3 X47.374 Y-12.800 Z-11.950 I-1.061 J-1.061 F120.000
G1 X44.436 Y-12.800 Z-11.950 F120.000
G2 X44.237 Y-12.772 Z-11.950 I-0.030 J0.511 F120.000
G2 X44.436 Y-12.200 Z-11.950 I0.121 J0.278 F120.000
G1 X47.374 Y-12.200 Z-11.950 F120.000
G3 X48.434 Y-11.761 Z-11.950 I0.000 J1.500 F120.000
G1 X50.105 Y-10.090 Z-11.950 F120.000
G3 X50.544 Y-9.030 Z-11.950 I-1.061 J1.061 F120.000
G1 X50.544 Y-6.530 Z-11.950 F120.000
G1 X51.544 Y-6.530 Z-11.950 F120.000
G1 X51.544 Y-6.530 Z-12.000 F9.000
G1 X51.544 Y-18.470 Z-12.000 F120.000
G1 X50.544 Y-18.470 Z-12.000 F120.000
G1 X50.544 Y-15.970 Z-12.000 F120.000
G3 X50.105 Y-14.910 Z-12.000 I-1.500 J-0.000 F120.000
G1 X48.434 Y-13.239 Z-12.000 F120.000
G3 X47.374 Y-12.800 Z-12.000 I-1.061 J-1.061 F120.000
G1 X44.436 Y-12.800 Z-12.000 F120.000
G2 X44.237 Y-12.772 Z-12.000 I-0.030 J0.511 F120.000
G2 X44.436 Y-12.200 Z-12.000 I0.121 J0.278 F120.000
G1 X47.374 Y-12.200 Z-12.000 F120.000
G3 X48.434 Y-11.761 Z-12.000 I0.000 J1.500 F120.000
G1 X50.105 Y-10.090 Z-12.000 F120.000
G3 X50.544 Y-9.030 Z-12.000 I-1.061 J1.061 F120.000
G1 X50.544 Y-6.530 Z-12.000 F120.000
G1 X51.544 Y-6.530 Z-12.000 F120.000
G0 Z5.000
(finish operation: Profile_Edges006)
(begin postamble)
M05
G17 G54 G90 G80 G40
M2
