(Exported by FreeCAD)
(Post Processor: linuxcnc_post)
(Output Time:2019-05-30 13:07:49.720243)
(begin preamble)
G17 G54 G40 G49 G80 G90
G21
M8
(begin operation: T4: 12mm Endmill)
(machine: not set, mm/min)
(T4: 12mm Endmill)
M6 T4 G43 H4
M3 S3000
(finish operation: T4: 12mm Endmill)
(begin operation: Profile_Edges)
(machine: not set, mm/min)
(Profile_Edges)
(Compensated Tool Path. Diameter: 12.0)
G0 Z5.000
G0 X74.017 Y-12.879
G0 Z3.000
G1 X74.017 Y-12.879 Z-0.500 F30.000
G2 X78.483 Y-18.680 Z-0.500 I-1.533 J-5.801 F720.000
G1 X78.483 Y-26.294 Z-0.500 F720.000
G2 X72.483 Y-32.294 Z-0.500 I-6.000 J0.000 F720.000
G1 X37.391 Y-32.294 Z-0.500 F720.000
G1 X36.368 Y-34.066 Z-0.500 F720.000
G2 X31.171 Y-37.066 Z-0.500 I-5.196 J3.000 F720.000
G1 X3.127 Y-37.066 Z-0.500 F720.000
G2 X-1.116 Y-35.308 Z-0.500 I0.000 J6.000 F720.000
G1 X-3.316 Y-33.108 Z-0.500 F720.000
G2 X-5.073 Y-28.866 Z-0.500 I4.243 J4.243 F720.000
G1 X-5.073 Y-18.415 Z-0.500 F720.000
G2 X2.986 Y-9.471 Z-0.500 I9.007 J-0.012 F720.000
G2 X5.623 Y-9.415 Z-0.500 I1.714 J-18.775 F720.000
G2 X11.466 Y-11.578 Z-0.500 I-0.034 J-9.063 F720.000
G2 X14.373 Y-16.233 Z-0.500 I-6.059 J-7.020 F720.000
G3 X18.148 Y-16.101 Z-0.500 I1.865 J0.702 F720.000
G2 X19.248 Y-13.508 Z-0.500 I6.317 J-1.151 F720.000
G1 X19.248 Y-0.605 Z-0.500 F720.000
G2 X25.248 Y5.395 Z-0.500 I6.000 J-0.000 F720.000
G1 X54.366 Y5.395 Z-0.500 F720.000
G2 X60.366 Y-0.605 Z-0.500 I-0.000 J-6.000 F720.000
G1 X60.366 Y-12.511 Z-0.500 F720.000
G1 X60.375 Y-12.671 Z-0.500 F720.000
G1 X60.535 Y-12.680 Z-0.500 F720.000
G1 X72.483 Y-12.680 Z-0.500 F720.000
G2 X74.017 Y-12.879 Z-0.500 I-0.000 J-6.000 F720.000
G1 X74.017 Y-12.879 Z-1.000 F30.000
G2 X78.483 Y-18.680 Z-1.000 I-1.533 J-5.801 F720.000
G1 X78.483 Y-26.294 Z-1.000 F720.000
G2 X72.483 Y-32.294 Z-1.000 I-6.000 J0.000 F720.000
G1 X37.391 Y-32.294 Z-1.000 F720.000
G1 X36.368 Y-34.066 Z-1.000 F720.000
G2 X31.171 Y-37.066 Z-1.000 I-5.196 J3.000 F720.000
G1 X3.127 Y-37.066 Z-1.000 F720.000
G2 X-1.116 Y-35.308 Z-1.000 I0.000 J6.000 F720.000
G1 X-3.316 Y-33.108 Z-1.000 F720.000
G2 X-5.073 Y-28.866 Z-1.000 I4.243 J4.243 F720.000
G1 X-5.073 Y-18.415 Z-1.000 F720.000
G2 X2.986 Y-9.471 Z-1.000 I9.007 J-0.012 F720.000
G2 X5.623 Y-9.415 Z-1.000 I1.714 J-18.775 F720.000
G2 X11.466 Y-11.578 Z-1.000 I-0.034 J-9.063 F720.000
G2 X14.373 Y-16.233 Z-1.000 I-6.059 J-7.020 F720.000
G3 X18.148 Y-16.101 Z-1.000 I1.865 J0.702 F720.000
G2 X19.248 Y-13.508 Z-1.000 I6.317 J-1.151 F720.000
G1 X19.248 Y-0.605 Z-1.000 F720.000
G2 X25.248 Y5.395 Z-1.000 I6.000 J-0.000 F720.000
G1 X54.366 Y5.395 Z-1.000 F720.000
G2 X60.366 Y-0.605 Z-1.000 I-0.000 J-6.000 F720.000
G1 X60.366 Y-12.511 Z-1.000 F720.000
G1 X60.375 Y-12.671 Z-1.000 F720.000
G1 X60.535 Y-12.680 Z-1.000 F720.000
G1 X72.483 Y-12.680 Z-1.000 F720.000
G2 X74.017 Y-12.879 Z-1.000 I-0.000 J-6.000 F720.000
G1 X74.017 Y-12.879 Z-1.500 F30.000
G2 X78.483 Y-18.680 Z-1.500 I-1.533 J-5.801 F720.000
G1 X78.483 Y-26.294 Z-1.500 F720.000
G2 X72.483 Y-32.294 Z-1.500 I-6.000 J0.000 F720.000
G1 X37.391 Y-32.294 Z-1.500 F720.000
G1 X36.368 Y-34.066 Z-1.500 F720.000
G2 X31.171 Y-37.066 Z-1.500 I-5.196 J3.000 F720.000
G1 X3.127 Y-37.066 Z-1.500 F720.000
G2 X-1.116 Y-35.308 Z-1.500 I0.000 J6.000 F720.000
G1 X-3.316 Y-33.108 Z-1.500 F720.000
G2 X-5.073 Y-28.866 Z-1.500 I4.243 J4.243 F720.000
G1 X-5.073 Y-18.415 Z-1.500 F720.000
G2 X2.986 Y-9.471 Z-1.500 I9.007 J-0.012 F720.000
G2 X5.623 Y-9.415 Z-1.500 I1.714 J-18.775 F720.000
G2 X11.466 Y-11.578 Z-1.500 I-0.034 J-9.063 F720.000
G2 X14.373 Y-16.233 Z-1.500 I-6.059 J-7.020 F720.000
G3 X18.148 Y-16.101 Z-1.500 I1.865 J0.702 F720.000
G2 X19.248 Y-13.508 Z-1.500 I6.317 J-1.151 F720.000
G1 X19.248 Y-0.605 Z-1.500 F720.000
G2 X25.248 Y5.395 Z-1.500 I6.000 J-0.000 F720.000
G1 X54.366 Y5.395 Z-1.500 F720.000
G2 X60.366 Y-0.605 Z-1.500 I-0.000 J-6.000 F720.000
G1 X60.366 Y-12.511 Z-1.500 F720.000
G1 X60.375 Y-12.671 Z-1.500 F720.000
G1 X60.535 Y-12.680 Z-1.500 F720.000
G1 X72.483 Y-12.680 Z-1.500 F720.000
G2 X74.017 Y-12.879 Z-1.500 I-0.000 J-6.000 F720.000
G1 X74.017 Y-12.879 Z-2.000 F30.000
G2 X78.483 Y-18.680 Z-2.000 I-1.533 J-5.801 F720.000
G1 X78.483 Y-26.294 Z-2.000 F720.000
G2 X72.483 Y-32.294 Z-2.000 I-6.000 J0.000 F720.000
G1 X37.391 Y-32.294 Z-2.000 F720.000
G1 X36.368 Y-34.066 Z-2.000 F720.000
G2 X31.171 Y-37.066 Z-2.000 I-5.196 J3.000 F720.000
G1 X3.127 Y-37.066 Z-2.000 F720.000
G2 X-1.116 Y-35.308 Z-2.000 I0.000 J6.000 F720.000
G1 X-3.316 Y-33.108 Z-2.000 F720.000
G2 X-5.073 Y-28.866 Z-2.000 I4.243 J4.243 F720.000
G1 X-5.073 Y-18.415 Z-2.000 F720.000
G2 X2.986 Y-9.471 Z-2.000 I9.007 J-0.012 F720.000
G2 X5.623 Y-9.415 Z-2.000 I1.714 J-18.775 F720.000
G2 X11.466 Y-11.578 Z-2.000 I-0.034 J-9.063 F720.000
G2 X14.373 Y-16.233 Z-2.000 I-6.059 J-7.020 F720.000
G3 X18.148 Y-16.101 Z-2.000 I1.865 J0.702 F720.000
G2 X19.248 Y-13.508 Z-2.000 I6.317 J-1.151 F720.000
G1 X19.248 Y-0.605 Z-2.000 F720.000
G2 X25.248 Y5.395 Z-2.000 I6.000 J-0.000 F720.000
G1 X54.366 Y5.395 Z-2.000 F720.000
G2 X60.366 Y-0.605 Z-2.000 I-0.000 J-6.000 F720.000
G1 X60.366 Y-12.511 Z-2.000 F720.000
G1 X60.375 Y-12.671 Z-2.000 F720.000
G1 X60.535 Y-12.680 Z-2.000 F720.000
G1 X72.483 Y-12.680 Z-2.000 F720.000
G2 X74.017 Y-12.879 Z-2.000 I-0.000 J-6.000 F720.000
G1 X74.017 Y-12.879 Z-2.500 F30.000
G2 X78.483 Y-18.680 Z-2.500 I-1.533 J-5.801 F720.000
G1 X78.483 Y-26.294 Z-2.500 F720.000
G2 X72.483 Y-32.294 Z-2.500 I-6.000 J0.000 F720.000
G1 X37.391 Y-32.294 Z-2.500 F720.000
G1 X36.368 Y-34.066 Z-2.500 F720.000
G2 X31.171 Y-37.066 Z-2.500 I-5.196 J3.000 F720.000
G1 X3.127 Y-37.066 Z-2.500 F720.000
G2 X-1.116 Y-35.308 Z-2.500 I0.000 J6.000 F720.000
G1 X-3.316 Y-33.108 Z-2.500 F720.000
G2 X-5.073 Y-28.866 Z-2.500 I4.243 J4.243 F720.000
G1 X-5.073 Y-18.415 Z-2.500 F720.000
G2 X2.986 Y-9.471 Z-2.500 I9.007 J-0.012 F720.000
G2 X5.623 Y-9.415 Z-2.500 I1.714 J-18.775 F720.000
G2 X11.466 Y-11.578 Z-2.500 I-0.034 J-9.063 F720.000
G2 X14.373 Y-16.233 Z-2.500 I-6.059 J-7.020 F720.000
G3 X18.148 Y-16.101 Z-2.500 I1.865 J0.702 F720.000
G2 X19.248 Y-13.508 Z-2.500 I6.317 J-1.151 F720.000
G1 X19.248 Y-0.605 Z-2.500 F720.000
G2 X25.248 Y5.395 Z-2.500 I6.000 J-0.000 F720.000
G1 X54.366 Y5.395 Z-2.500 F720.000
G2 X60.366 Y-0.605 Z-2.500 I-0.000 J-6.000 F720.000
G1 X60.366 Y-12.511 Z-2.500 F720.000
G1 X60.375 Y-12.671 Z-2.500 F720.000
G1 X60.535 Y-12.680 Z-2.500 F720.000
G1 X72.483 Y-12.680 Z-2.500 F720.000
G2 X74.017 Y-12.879 Z-2.500 I-0.000 J-6.000 F720.000
G1 X74.017 Y-12.879 Z-3.000 F30.000
G2 X78.483 Y-18.680 Z-3.000 I-1.533 J-5.801 F720.000
G1 X78.483 Y-26.294 Z-3.000 F720.000
G2 X72.483 Y-32.294 Z-3.000 I-6.000 J0.000 F720.000
G1 X37.391 Y-32.294 Z-3.000 F720.000
G1 X36.368 Y-34.066 Z-3.000 F720.000
G2 X31.171 Y-37.066 Z-3.000 I-5.196 J3.000 F720.000
G1 X3.127 Y-37.066 Z-3.000 F720.000
G2 X-1.116 Y-35.308 Z-3.000 I0.000 J6.000 F720.000
G1 X-3.316 Y-33.108 Z-3.000 F720.000
G2 X-5.073 Y-28.866 Z-3.000 I4.243 J4.243 F720.000
G1 X-5.073 Y-18.415 Z-3.000 F720.000
G2 X2.986 Y-9.471 Z-3.000 I9.007 J-0.012 F720.000
G2 X5.623 Y-9.415 Z-3.000 I1.714 J-18.775 F720.000
G2 X11.466 Y-11.578 Z-3.000 I-0.034 J-9.063 F720.000
G2 X14.373 Y-16.233 Z-3.000 I-6.059 J-7.020 F720.000
G3 X18.148 Y-16.101 Z-3.000 I1.865 J0.702 F720.000
G2 X19.248 Y-13.508 Z-3.000 I6.317 J-1.151 F720.000
G1 X19.248 Y-0.605 Z-3.000 F720.000
G2 X25.248 Y5.395 Z-3.000 I6.000 J-0.000 F720.000
G1 X54.366 Y5.395 Z-3.000 F720.000
G2 X60.366 Y-0.605 Z-3.000 I-0.000 J-6.000 F720.000
G1 X60.366 Y-12.511 Z-3.000 F720.000
G1 X60.375 Y-12.671 Z-3.000 F720.000
G1 X60.535 Y-12.680 Z-3.000 F720.000
G1 X72.483 Y-12.680 Z-3.000 F720.000
G2 X74.017 Y-12.879 Z-3.000 I-0.000 J-6.000 F720.000
G1 X74.017 Y-12.879 Z-3.500 F30.000
G2 X78.483 Y-18.680 Z-3.500 I-1.533 J-5.801 F720.000
G1 X78.483 Y-26.294 Z-3.500 F720.000
G2 X72.483 Y-32.294 Z-3.500 I-6.000 J0.000 F720.000
G1 X37.391 Y-32.294 Z-3.500 F720.000
G1 X36.368 Y-34.066 Z-3.500 F720.000
G2 X31.171 Y-37.066 Z-3.500 I-5.196 J3.000 F720.000
G1 X3.127 Y-37.066 Z-3.500 F720.000
G2 X-1.116 Y-35.308 Z-3.500 I0.000 J6.000 F720.000
G1 X-3.316 Y-33.108 Z-3.500 F720.000
G2 X-5.073 Y-28.866 Z-3.500 I4.243 J4.243 F720.000
G1 X-5.073 Y-18.415 Z-3.500 F720.000
G2 X2.986 Y-9.471 Z-3.500 I9.007 J-0.012 F720.000
G2 X5.623 Y-9.415 Z-3.500 I1.714 J-18.775 F720.000
G2 X11.466 Y-11.578 Z-3.500 I-0.034 J-9.063 F720.000
G2 X14.373 Y-16.233 Z-3.500 I-6.059 J-7.020 F720.000
G3 X18.148 Y-16.101 Z-3.500 I1.865 J0.702 F720.000
G2 X19.248 Y-13.508 Z-3.500 I6.317 J-1.151 F720.000
G1 X19.248 Y-0.605 Z-3.500 F720.000
G2 X25.248 Y5.395 Z-3.500 I6.000 J-0.000 F720.000
G1 X54.366 Y5.395 Z-3.500 F720.000
G2 X60.366 Y-0.605 Z-3.500 I-0.000 J-6.000 F720.000
G1 X60.366 Y-12.511 Z-3.500 F720.000
G1 X60.375 Y-12.671 Z-3.500 F720.000
G1 X60.535 Y-12.680 Z-3.500 F720.000
G1 X72.483 Y-12.680 Z-3.500 F720.000
G2 X74.017 Y-12.879 Z-3.500 I-0.000 J-6.000 F720.000
G1 X74.017 Y-12.879 Z-4.000 F30.000
G2 X78.483 Y-18.680 Z-4.000 I-1.533 J-5.801 F720.000
G1 X78.483 Y-26.294 Z-4.000 F720.000
G2 X72.483 Y-32.294 Z-4.000 I-6.000 J0.000 F720.000
G1 X37.391 Y-32.294 Z-4.000 F720.000
G1 X36.368 Y-34.066 Z-4.000 F720.000
G2 X31.171 Y-37.066 Z-4.000 I-5.196 J3.000 F720.000
G1 X3.127 Y-37.066 Z-4.000 F720.000
G2 X-1.116 Y-35.308 Z-4.000 I0.000 J6.000 F720.000
G1 X-3.316 Y-33.108 Z-4.000 F720.000
G2 X-5.073 Y-28.866 Z-4.000 I4.243 J4.243 F720.000
G1 X-5.073 Y-18.415 Z-4.000 F720.000
G2 X2.986 Y-9.471 Z-4.000 I9.007 J-0.012 F720.000
G2 X5.623 Y-9.415 Z-4.000 I1.714 J-18.775 F720.000
G2 X11.466 Y-11.578 Z-4.000 I-0.034 J-9.063 F720.000
G2 X14.373 Y-16.233 Z-4.000 I-6.059 J-7.020 F720.000
G3 X18.148 Y-16.101 Z-4.000 I1.865 J0.702 F720.000
G2 X19.248 Y-13.508 Z-4.000 I6.317 J-1.151 F720.000
G1 X19.248 Y-0.605 Z-4.000 F720.000
G2 X25.248 Y5.395 Z-4.000 I6.000 J-0.000 F720.000
G1 X54.366 Y5.395 Z-4.000 F720.000
G2 X60.366 Y-0.605 Z-4.000 I-0.000 J-6.000 F720.000
G1 X60.366 Y-12.511 Z-4.000 F720.000
G1 X60.375 Y-12.671 Z-4.000 F720.000
G1 X60.535 Y-12.680 Z-4.000 F720.000
G1 X72.483 Y-12.680 Z-4.000 F720.000
G2 X74.017 Y-12.879 Z-4.000 I-0.000 J-6.000 F720.000
G1 X74.017 Y-12.879 Z-4.500 F30.000
G2 X78.483 Y-18.680 Z-4.500 I-1.533 J-5.801 F720.000
G1 X78.483 Y-26.294 Z-4.500 F720.000
G2 X72.483 Y-32.294 Z-4.500 I-6.000 J0.000 F720.000
G1 X37.391 Y-32.294 Z-4.500 F720.000
G1 X36.368 Y-34.066 Z-4.500 F720.000
G2 X31.171 Y-37.066 Z-4.500 I-5.196 J3.000 F720.000
G1 X3.127 Y-37.066 Z-4.500 F720.000
G2 X-1.116 Y-35.308 Z-4.500 I0.000 J6.000 F720.000
G1 X-3.316 Y-33.108 Z-4.500 F720.000
G2 X-5.073 Y-28.866 Z-4.500 I4.243 J4.243 F720.000
G1 X-5.073 Y-18.415 Z-4.500 F720.000
G2 X2.986 Y-9.471 Z-4.500 I9.007 J-0.012 F720.000
G2 X5.623 Y-9.415 Z-4.500 I1.714 J-18.775 F720.000
G2 X11.466 Y-11.578 Z-4.500 I-0.034 J-9.063 F720.000
G2 X14.373 Y-16.233 Z-4.500 I-6.059 J-7.020 F720.000
G3 X18.148 Y-16.101 Z-4.500 I1.865 J0.702 F720.000
G2 X19.248 Y-13.508 Z-4.500 I6.317 J-1.151 F720.000
G1 X19.248 Y-0.605 Z-4.500 F720.000
G2 X25.248 Y5.395 Z-4.500 I6.000 J-0.000 F720.000
G1 X54.366 Y5.395 Z-4.500 F720.000
G2 X60.366 Y-0.605 Z-4.500 I-0.000 J-6.000 F720.000
G1 X60.366 Y-12.511 Z-4.500 F720.000
G1 X60.375 Y-12.671 Z-4.500 F720.000
G1 X60.535 Y-12.680 Z-4.500 F720.000
G1 X72.483 Y-12.680 Z-4.500 F720.000
G2 X74.017 Y-12.879 Z-4.500 I-0.000 J-6.000 F720.000
G1 X74.017 Y-12.879 Z-5.000 F30.000
G2 X78.483 Y-18.680 Z-5.000 I-1.533 J-5.801 F720.000
G1 X78.483 Y-26.294 Z-5.000 F720.000
G2 X72.483 Y-32.294 Z-5.000 I-6.000 J0.000 F720.000
G1 X37.391 Y-32.294 Z-5.000 F720.000
G1 X36.368 Y-34.066 Z-5.000 F720.000
G2 X31.171 Y-37.066 Z-5.000 I-5.196 J3.000 F720.000
G1 X3.127 Y-37.066 Z-5.000 F720.000
G2 X-1.116 Y-35.308 Z-5.000 I0.000 J6.000 F720.000
G1 X-3.316 Y-33.108 Z-5.000 F720.000
G2 X-5.073 Y-28.866 Z-5.000 I4.243 J4.243 F720.000
G1 X-5.073 Y-18.415 Z-5.000 F720.000
G2 X2.986 Y-9.471 Z-5.000 I9.007 J-0.012 F720.000
G2 X5.623 Y-9.415 Z-5.000 I1.714 J-18.775 F720.000
G2 X11.466 Y-11.578 Z-5.000 I-0.034 J-9.063 F720.000
G2 X14.373 Y-16.233 Z-5.000 I-6.059 J-7.020 F720.000
G3 X18.148 Y-16.101 Z-5.000 I1.865 J0.702 F720.000
G2 X19.248 Y-13.508 Z-5.000 I6.317 J-1.151 F720.000
G1 X19.248 Y-0.605 Z-5.000 F720.000
G2 X25.248 Y5.395 Z-5.000 I6.000 J-0.000 F720.000
G1 X54.366 Y5.395 Z-5.000 F720.000
G2 X60.366 Y-0.605 Z-5.000 I-0.000 J-6.000 F720.000
G1 X60.366 Y-12.511 Z-5.000 F720.000
G1 X60.375 Y-12.671 Z-5.000 F720.000
G1 X60.535 Y-12.680 Z-5.000 F720.000
G1 X72.483 Y-12.680 Z-5.000 F720.000
G2 X74.017 Y-12.879 Z-5.000 I-0.000 J-6.000 F720.000
G1 X74.017 Y-12.879 Z-5.500 F30.000
G2 X78.483 Y-18.680 Z-5.500 I-1.533 J-5.801 F720.000
G1 X78.483 Y-26.294 Z-5.500 F720.000
G2 X72.483 Y-32.294 Z-5.500 I-6.000 J0.000 F720.000
G1 X37.391 Y-32.294 Z-5.500 F720.000
G1 X36.368 Y-34.066 Z-5.500 F720.000
G2 X31.171 Y-37.066 Z-5.500 I-5.196 J3.000 F720.000
G1 X3.127 Y-37.066 Z-5.500 F720.000
G2 X-1.116 Y-35.308 Z-5.500 I0.000 J6.000 F720.000
G1 X-3.316 Y-33.108 Z-5.500 F720.000
G2 X-5.073 Y-28.866 Z-5.500 I4.243 J4.243 F720.000
G1 X-5.073 Y-18.415 Z-5.500 F720.000
G2 X2.986 Y-9.471 Z-5.500 I9.007 J-0.012 F720.000
G2 X5.623 Y-9.415 Z-5.500 I1.714 J-18.775 F720.000
G2 X11.466 Y-11.578 Z-5.500 I-0.034 J-9.063 F720.000
G2 X14.373 Y-16.233 Z-5.500 I-6.059 J-7.020 F720.000
G3 X18.148 Y-16.101 Z-5.500 I1.865 J0.702 F720.000
G2 X19.248 Y-13.508 Z-5.500 I6.317 J-1.151 F720.000
G1 X19.248 Y-0.605 Z-5.500 F720.000
G2 X25.248 Y5.395 Z-5.500 I6.000 J-0.000 F720.000
G1 X54.366 Y5.395 Z-5.500 F720.000
G2 X60.366 Y-0.605 Z-5.500 I-0.000 J-6.000 F720.000
G1 X60.366 Y-12.511 Z-5.500 F720.000
G1 X60.375 Y-12.671 Z-5.500 F720.000
G1 X60.535 Y-12.680 Z-5.500 F720.000
G1 X72.483 Y-12.680 Z-5.500 F720.000
G2 X74.017 Y-12.879 Z-5.500 I-0.000 J-6.000 F720.000
G1 X74.017 Y-12.879 Z-6.000 F30.000
G2 X78.483 Y-18.680 Z-6.000 I-1.533 J-5.801 F720.000
G1 X78.483 Y-26.294 Z-6.000 F720.000
G2 X72.483 Y-32.294 Z-6.000 I-6.000 J0.000 F720.000
G1 X37.391 Y-32.294 Z-6.000 F720.000
G1 X36.368 Y-34.066 Z-6.000 F720.000
G2 X31.171 Y-37.066 Z-6.000 I-5.196 J3.000 F720.000
G1 X3.127 Y-37.066 Z-6.000 F720.000
G2 X-1.116 Y-35.308 Z-6.000 I0.000 J6.000 F720.000
G1 X-3.316 Y-33.108 Z-6.000 F720.000
G2 X-5.073 Y-28.866 Z-6.000 I4.243 J4.243 F720.000
G1 X-5.073 Y-18.415 Z-6.000 F720.000
G2 X2.986 Y-9.471 Z-6.000 I9.007 J-0.012 F720.000
G2 X5.623 Y-9.415 Z-6.000 I1.714 J-18.775 F720.000
G2 X11.466 Y-11.578 Z-6.000 I-0.034 J-9.063 F720.000
G2 X14.373 Y-16.233 Z-6.000 I-6.059 J-7.020 F720.000
G3 X18.148 Y-16.101 Z-6.000 I1.865 J0.702 F720.000
G2 X19.248 Y-13.508 Z-6.000 I6.317 J-1.151 F720.000
G1 X19.248 Y-0.605 Z-6.000 F720.000
G2 X25.248 Y5.395 Z-6.000 I6.000 J-0.000 F720.000
G1 X54.366 Y5.395 Z-6.000 F720.000
G2 X60.366 Y-0.605 Z-6.000 I-0.000 J-6.000 F720.000
G1 X60.366 Y-12.511 Z-6.000 F720.000
G1 X60.375 Y-12.671 Z-6.000 F720.000
G1 X60.535 Y-12.680 Z-6.000 F720.000
G1 X72.483 Y-12.680 Z-6.000 F720.000
G2 X74.017 Y-12.879 Z-6.000 I-0.000 J-6.000 F720.000
G1 X74.017 Y-12.879 Z-6.500 F30.000
G2 X78.483 Y-18.680 Z-6.500 I-1.533 J-5.801 F720.000
G1 X78.483 Y-26.294 Z-6.500 F720.000
G2 X72.483 Y-32.294 Z-6.500 I-6.000 J0.000 F720.000
G1 X37.391 Y-32.294 Z-6.500 F720.000
G1 X36.368 Y-34.066 Z-6.500 F720.000
G2 X31.171 Y-37.066 Z-6.500 I-5.196 J3.000 F720.000
G1 X3.127 Y-37.066 Z-6.500 F720.000
G2 X-1.116 Y-35.308 Z-6.500 I0.000 J6.000 F720.000
G1 X-3.316 Y-33.108 Z-6.500 F720.000
G2 X-5.073 Y-28.866 Z-6.500 I4.243 J4.243 F720.000
G1 X-5.073 Y-18.415 Z-6.500 F720.000
G2 X2.986 Y-9.471 Z-6.500 I9.007 J-0.012 F720.000
G2 X5.623 Y-9.415 Z-6.500 I1.714 J-18.775 F720.000
G2 X11.466 Y-11.578 Z-6.500 I-0.034 J-9.063 F720.000
G2 X14.373 Y-16.233 Z-6.500 I-6.059 J-7.020 F720.000
G3 X18.148 Y-16.101 Z-6.500 I1.865 J0.702 F720.000
G2 X19.248 Y-13.508 Z-6.500 I6.317 J-1.151 F720.000
G1 X19.248 Y-0.605 Z-6.500 F720.000
G2 X25.248 Y5.395 Z-6.500 I6.000 J-0.000 F720.000
G1 X54.366 Y5.395 Z-6.500 F720.000
G2 X60.366 Y-0.605 Z-6.500 I-0.000 J-6.000 F720.000
G1 X60.366 Y-12.511 Z-6.500 F720.000
G1 X60.375 Y-12.671 Z-6.500 F720.000
G1 X60.535 Y-12.680 Z-6.500 F720.000
G1 X72.483 Y-12.680 Z-6.500 F720.000
G2 X74.017 Y-12.879 Z-6.500 I-0.000 J-6.000 F720.000
G1 X74.017 Y-12.879 Z-7.000 F30.000
G2 X78.483 Y-18.680 Z-7.000 I-1.533 J-5.801 F720.000
G1 X78.483 Y-26.294 Z-7.000 F720.000
G2 X72.483 Y-32.294 Z-7.000 I-6.000 J0.000 F720.000
G1 X37.391 Y-32.294 Z-7.000 F720.000
G1 X36.368 Y-34.066 Z-7.000 F720.000
G2 X31.171 Y-37.066 Z-7.000 I-5.196 J3.000 F720.000
G1 X3.127 Y-37.066 Z-7.000 F720.000
G2 X-1.116 Y-35.308 Z-7.000 I0.000 J6.000 F720.000
G1 X-3.316 Y-33.108 Z-7.000 F720.000
G2 X-5.073 Y-28.866 Z-7.000 I4.243 J4.243 F720.000
G1 X-5.073 Y-18.415 Z-7.000 F720.000
G2 X2.986 Y-9.471 Z-7.000 I9.007 J-0.012 F720.000
G2 X5.623 Y-9.415 Z-7.000 I1.714 J-18.775 F720.000
G2 X11.466 Y-11.578 Z-7.000 I-0.034 J-9.063 F720.000
G2 X14.373 Y-16.233 Z-7.000 I-6.059 J-7.020 F720.000
G3 X18.148 Y-16.101 Z-7.000 I1.865 J0.702 F720.000
G2 X19.248 Y-13.508 Z-7.000 I6.317 J-1.151 F720.000
G1 X19.248 Y-0.605 Z-7.000 F720.000
G2 X25.248 Y5.395 Z-7.000 I6.000 J-0.000 F720.000
G1 X54.366 Y5.395 Z-7.000 F720.000
G2 X60.366 Y-0.605 Z-7.000 I-0.000 J-6.000 F720.000
G1 X60.366 Y-12.511 Z-7.000 F720.000
G1 X60.375 Y-12.671 Z-7.000 F720.000
G1 X60.535 Y-12.680 Z-7.000 F720.000
G1 X72.483 Y-12.680 Z-7.000 F720.000
G2 X74.017 Y-12.879 Z-7.000 I-0.000 J-6.000 F720.000
G1 X74.017 Y-12.879 Z-7.500 F30.000
G2 X78.483 Y-18.680 Z-7.500 I-1.533 J-5.801 F720.000
G1 X78.483 Y-26.294 Z-7.500 F720.000
G2 X72.483 Y-32.294 Z-7.500 I-6.000 J0.000 F720.000
G1 X37.391 Y-32.294 Z-7.500 F720.000
G1 X36.368 Y-34.066 Z-7.500 F720.000
G2 X31.171 Y-37.066 Z-7.500 I-5.196 J3.000 F720.000
G1 X3.127 Y-37.066 Z-7.500 F720.000
G2 X-1.116 Y-35.308 Z-7.500 I0.000 J6.000 F720.000
G1 X-3.316 Y-33.108 Z-7.500 F720.000
G2 X-5.073 Y-28.866 Z-7.500 I4.243 J4.243 F720.000
G1 X-5.073 Y-18.415 Z-7.500 F720.000
G2 X2.986 Y-9.471 Z-7.500 I9.007 J-0.012 F720.000
G2 X5.623 Y-9.415 Z-7.500 I1.714 J-18.775 F720.000
G2 X11.466 Y-11.578 Z-7.500 I-0.034 J-9.063 F720.000
G2 X14.373 Y-16.233 Z-7.500 I-6.059 J-7.020 F720.000
G3 X18.148 Y-16.101 Z-7.500 I1.865 J0.702 F720.000
G2 X19.248 Y-13.508 Z-7.500 I6.317 J-1.151 F720.000
G1 X19.248 Y-0.605 Z-7.500 F720.000
G2 X25.248 Y5.395 Z-7.500 I6.000 J-0.000 F720.000
G1 X54.366 Y5.395 Z-7.500 F720.000
G2 X60.366 Y-0.605 Z-7.500 I-0.000 J-6.000 F720.000
G1 X60.366 Y-12.511 Z-7.500 F720.000
G1 X60.375 Y-12.671 Z-7.500 F720.000
G1 X60.535 Y-12.680 Z-7.500 F720.000
G1 X72.483 Y-12.680 Z-7.500 F720.000
G2 X74.017 Y-12.879 Z-7.500 I-0.000 J-6.000 F720.000
G1 X74.017 Y-12.879 Z-8.000 F30.000
G2 X78.483 Y-18.680 Z-8.000 I-1.533 J-5.801 F720.000
G1 X78.483 Y-26.294 Z-8.000 F720.000
G2 X72.483 Y-32.294 Z-8.000 I-6.000 J0.000 F720.000
G1 X37.391 Y-32.294 Z-8.000 F720.000
G1 X36.368 Y-34.066 Z-8.000 F720.000
G2 X31.171 Y-37.066 Z-8.000 I-5.196 J3.000 F720.000
G1 X3.127 Y-37.066 Z-8.000 F720.000
G2 X-1.116 Y-35.308 Z-8.000 I0.000 J6.000 F720.000
G1 X-3.316 Y-33.108 Z-8.000 F720.000
G2 X-5.073 Y-28.866 Z-8.000 I4.243 J4.243 F720.000
G1 X-5.073 Y-18.415 Z-8.000 F720.000
G2 X2.986 Y-9.471 Z-8.000 I9.007 J-0.012 F720.000
G2 X5.623 Y-9.415 Z-8.000 I1.714 J-18.775 F720.000
G2 X11.466 Y-11.578 Z-8.000 I-0.034 J-9.063 F720.000
G2 X14.373 Y-16.233 Z-8.000 I-6.059 J-7.020 F720.000
G3 X18.148 Y-16.101 Z-8.000 I1.865 J0.702 F720.000
G2 X19.248 Y-13.508 Z-8.000 I6.317 J-1.151 F720.000
G1 X19.248 Y-0.605 Z-8.000 F720.000
G2 X25.248 Y5.395 Z-8.000 I6.000 J-0.000 F720.000
G1 X54.366 Y5.395 Z-8.000 F720.000
G2 X60.366 Y-0.605 Z-8.000 I-0.000 J-6.000 F720.000
G1 X60.366 Y-12.511 Z-8.000 F720.000
G1 X60.375 Y-12.671 Z-8.000 F720.000
G1 X60.535 Y-12.680 Z-8.000 F720.000
G1 X72.483 Y-12.680 Z-8.000 F720.000
G2 X74.017 Y-12.879 Z-8.000 I-0.000 J-6.000 F720.000
G0 Z5.000
(finish operation: Profile_Edges)
(begin operation: T4: 12mm Endmill)
(machine: not set, mm/min)
(T4: 12mm Endmill)
M6 T4 G43 H4
M3 S3000
(finish operation: T4: 12mm Endmill)
(begin operation: Profile_Edges001)
(machine: not set, mm/min)
(Profile_Edges001)
(Compensated Tool Path. Diameter: 12.0)
G0 Z5.000
G0 X67.182 Y0.395
G0 Z3.000
G1 X67.182 Y0.395 Z-0.500 F30.000
G1 X67.182 Y-27.294 Z-0.500 F720.000
G1 X55.182 Y-27.294 Z-0.500 F720.000
G1 X55.182 Y0.395 Z-0.500 F720.000
G1 X67.182 Y0.395 Z-0.500 F720.000
G1 X67.182 Y0.395 Z-1.000 F30.000
G1 X67.182 Y-27.294 Z-1.000 F720.000
G1 X55.182 Y-27.294 Z-1.000 F720.000
G1 X55.182 Y0.395 Z-1.000 F720.000
G1 X67.182 Y0.395 Z-1.000 F720.000
G1 X67.182 Y0.395 Z-1.500 F30.000
G1 X67.182 Y-27.294 Z-1.500 F720.000
G1 X55.182 Y-27.294 Z-1.500 F720.000
G1 X55.182 Y0.395 Z-1.500 F720.000
G1 X67.182 Y0.395 Z-1.500 F720.000
G1 X67.182 Y0.395 Z-2.000 F30.000
G1 X67.182 Y-27.294 Z-2.000 F720.000
G1 X55.182 Y-27.294 Z-2.000 F720.000
G1 X55.182 Y0.395 Z-2.000 F720.000
G1 X67.182 Y0.395 Z-2.000 F720.000
G1 X67.182 Y0.395 Z-2.500 F30.000
G1 X67.182 Y-27.294 Z-2.500 F720.000
G1 X55.182 Y-27.294 Z-2.500 F720.000
G1 X55.182 Y0.395 Z-2.500 F720.000
G1 X67.182 Y0.395 Z-2.500 F720.000
G1 X67.182 Y0.395 Z-3.000 F30.000
G1 X67.182 Y-27.294 Z-3.000 F720.000
G1 X55.182 Y-27.294 Z-3.000 F720.000
G1 X55.182 Y0.395 Z-3.000 F720.000
G1 X67.182 Y0.395 Z-3.000 F720.000
G1 X67.182 Y0.395 Z-3.500 F30.000
G1 X67.182 Y-27.294 Z-3.500 F720.000
G1 X55.182 Y-27.294 Z-3.500 F720.000
G1 X55.182 Y0.395 Z-3.500 F720.000
G1 X67.182 Y0.395 Z-3.500 F720.000
G1 X67.182 Y0.395 Z-4.000 F30.000
G1 X67.182 Y-27.294 Z-4.000 F720.000
G1 X55.182 Y-27.294 Z-4.000 F720.000
G1 X55.182 Y0.395 Z-4.000 F720.000
G1 X67.182 Y0.395 Z-4.000 F720.000
G1 X67.182 Y0.395 Z-4.500 F30.000
G1 X67.182 Y-27.294 Z-4.500 F720.000
G1 X55.182 Y-27.294 Z-4.500 F720.000
G1 X55.182 Y0.395 Z-4.500 F720.000
G1 X67.182 Y0.395 Z-4.500 F720.000
G1 X67.182 Y0.395 Z-5.000 F30.000
G1 X67.182 Y-27.294 Z-5.000 F720.000
G1 X55.182 Y-27.294 Z-5.000 F720.000
G1 X55.182 Y0.395 Z-5.000 F720.000
G1 X67.182 Y0.395 Z-5.000 F720.000
G0 Z5.000
(finish operation: Profile_Edges001)
(begin operation: T9: 2.5mm Drill (M3 tap))
(machine: not set, mm/min)
(T9: 2.5mm Drill M3 tap)
M6 T9 G43 H9
M3 S800
(finish operation: T9: 2.5mm Drill (M3 tap))
(begin operation: Drilling)
(machine: not set, mm/min)
(Drilling)
(Begin Drilling)
G0 Z5.000
G90
G98
G83 X4.739 Y-27.031 Z-9.000 F60.000 Q0.100 R3.000
G83 X27.739 Y-27.031 Z-9.000 F60.000 Q0.100 R3.000
G83 X31.737 Y-15.830 Z-9.000 F60.000 Q0.100 R3.000
G83 X27.739 Y-4.031 Z-9.000 F60.000 Q0.100 R3.000
G83 X46.710 Y-15.809 Z-9.000 F60.000 Q0.100 R3.000
G80
G0 Z5.000
(finish operation: Drilling)
(begin operation: T9: 2.5mm Drill (M3 tap))
(machine: not set, mm/min)
(T9: 2.5mm Drill M3 tap)
M6 T9 G43 H9
M3 S800
(finish operation: T9: 2.5mm Drill (M3 tap))
(begin operation: Drilling001)
(machine: not set, mm/min)
(Drilling001)
(Begin Drilling)
G0 Z5.000
G90
G98
G83 X51.977 Y-5.690 Z-9.000 F60.000 Q0.100 R0.000
G83 X52.977 Y-22.756 Z-9.000 F60.000 Q0.100 R0.000
G83 X67.518 Y-22.756 Z-9.000 F60.000 Q0.100 R0.000
G80
G0 Z5.000
(finish operation: Drilling001)
(begin postamble)
M05
G17 G54 G90 G80 G40
M2
