(Exported by FreeCAD)
(Post Processor: linuxcnc_post)
(Output Time:2019-04-24 08:06:30.770527)
(begin preamble)
G17 G54 G40 G49 G80 G90
G21
M8
(begin operation: T5: 6mm Endmill)
(machine: not set, mm/min)
(T5: 6mm Endmill)
M6 T5 G43 H5
M3 S3000
(finish operation: T5: 6mm Endmill)
(begin operation: Profile_Edges)
(machine: not set, mm/min)
(Profile_Edges)
(Compensated Tool Path. Diameter: 6.0)
G0 Z5.000
G0 X21.509 Y-3.091
G1 X21.509 Y-3.091 Z-9.200 F18.000
G2 X20.596 Y-6.430 Z-9.200 I-1.409 J-1.409 F180.000
G2 X19.605 Y-2.570 Z-9.200 I-0.496 J1.930 F180.000
G2 X21.509 Y-3.091 Z-9.200 I0.496 J-1.930 F180.000
G1 X21.509 Y-3.091 Z-9.400 F18.000
G2 X20.596 Y-6.430 Z-9.400 I-1.409 J-1.409 F180.000
G2 X19.605 Y-2.570 Z-9.400 I-0.496 J1.930 F180.000
G2 X21.509 Y-3.091 Z-9.400 I0.496 J-1.930 F180.000
G1 X21.509 Y-3.091 Z-9.600 F18.000
G2 X20.596 Y-6.430 Z-9.600 I-1.409 J-1.409 F180.000
G2 X19.605 Y-2.570 Z-9.600 I-0.496 J1.930 F180.000
G2 X21.509 Y-3.091 Z-9.600 I0.496 J-1.930 F180.000
G1 X21.509 Y-3.091 Z-9.800 F18.000
G2 X20.596 Y-6.430 Z-9.800 I-1.409 J-1.409 F180.000
G2 X19.605 Y-2.570 Z-9.800 I-0.496 J1.930 F180.000
G2 X21.509 Y-3.091 Z-9.800 I0.496 J-1.930 F180.000
G1 X21.509 Y-3.091 Z-10.000 F18.000
G2 X20.596 Y-6.430 Z-10.000 I-1.409 J-1.409 F180.000
G2 X19.605 Y-2.570 Z-10.000 I-0.496 J1.930 F180.000
G2 X21.509 Y-3.091 Z-10.000 I0.496 J-1.930 F180.000
G1 X21.509 Y-3.091 Z-10.200 F18.000
G2 X20.596 Y-6.430 Z-10.200 I-1.409 J-1.409 F180.000
G2 X19.605 Y-2.570 Z-10.200 I-0.496 J1.930 F180.000
G2 X21.509 Y-3.091 Z-10.200 I0.496 J-1.930 F180.000
G1 X21.509 Y-3.091 Z-10.400 F18.000
G2 X20.596 Y-6.430 Z-10.400 I-1.409 J-1.409 F180.000
G2 X19.605 Y-2.570 Z-10.400 I-0.496 J1.930 F180.000
G2 X21.509 Y-3.091 Z-10.400 I0.496 J-1.930 F180.000
G1 X21.509 Y-3.091 Z-10.600 F18.000
G2 X20.596 Y-6.430 Z-10.600 I-1.409 J-1.409 F180.000
G2 X19.605 Y-2.570 Z-10.600 I-0.496 J1.930 F180.000
G2 X21.509 Y-3.091 Z-10.600 I0.496 J-1.930 F180.000
G1 X21.509 Y-3.091 Z-10.800 F18.000
G2 X20.596 Y-6.430 Z-10.800 I-1.409 J-1.409 F180.000
G2 X19.605 Y-2.570 Z-10.800 I-0.496 J1.930 F180.000
G2 X21.509 Y-3.091 Z-10.800 I0.496 J-1.930 F180.000
G1 X21.509 Y-3.091 Z-11.000 F18.000
G2 X20.596 Y-6.430 Z-11.000 I-1.409 J-1.409 F180.000
G2 X19.605 Y-2.570 Z-11.000 I-0.496 J1.930 F180.000
G2 X21.509 Y-3.091 Z-11.000 I0.496 J-1.930 F180.000
G1 X21.509 Y-3.091 Z-11.200 F18.000
G2 X20.596 Y-6.430 Z-11.200 I-1.409 J-1.409 F180.000
G2 X19.605 Y-2.570 Z-11.200 I-0.496 J1.930 F180.000
G2 X21.509 Y-3.091 Z-11.200 I0.496 J-1.930 F180.000
G1 X21.509 Y-3.091 Z-11.400 F18.000
G2 X20.596 Y-6.430 Z-11.400 I-1.409 J-1.409 F180.000
G2 X19.605 Y-2.570 Z-11.400 I-0.496 J1.930 F180.000
G2 X21.509 Y-3.091 Z-11.400 I0.496 J-1.930 F180.000
G1 X21.509 Y-3.091 Z-11.600 F18.000
G2 X20.596 Y-6.430 Z-11.600 I-1.409 J-1.409 F180.000
G2 X19.605 Y-2.570 Z-11.600 I-0.496 J1.930 F180.000
G2 X21.509 Y-3.091 Z-11.600 I0.496 J-1.930 F180.000
G1 X21.509 Y-3.091 Z-11.800 F18.000
G2 X20.596 Y-6.430 Z-11.800 I-1.409 J-1.409 F180.000
G2 X19.605 Y-2.570 Z-11.800 I-0.496 J1.930 F180.000
G2 X21.509 Y-3.091 Z-11.800 I0.496 J-1.930 F180.000
G1 X21.509 Y-3.091 Z-12.000 F18.000
G2 X20.596 Y-6.430 Z-12.000 I-1.409 J-1.409 F180.000
G2 X19.605 Y-2.570 Z-12.000 I-0.496 J1.930 F180.000
G2 X21.509 Y-3.091 Z-12.000 I0.496 J-1.930 F180.000
G1 X21.509 Y-3.091 Z-12.200 F18.000
G2 X20.596 Y-6.430 Z-12.200 I-1.409 J-1.409 F180.000
G2 X19.605 Y-2.570 Z-12.200 I-0.496 J1.930 F180.000
G2 X21.509 Y-3.091 Z-12.200 I0.496 J-1.930 F180.000
G1 X21.509 Y-3.091 Z-12.400 F18.000
G2 X20.596 Y-6.430 Z-12.400 I-1.409 J-1.409 F180.000
G2 X19.605 Y-2.570 Z-12.400 I-0.496 J1.930 F180.000
G2 X21.509 Y-3.091 Z-12.400 I0.496 J-1.930 F180.000
G1 X21.509 Y-3.091 Z-12.600 F18.000
G2 X20.596 Y-6.430 Z-12.600 I-1.409 J-1.409 F180.000
G2 X19.605 Y-2.570 Z-12.600 I-0.496 J1.930 F180.000
G2 X21.509 Y-3.091 Z-12.600 I0.496 J-1.930 F180.000
G1 X21.509 Y-3.091 Z-12.800 F18.000
G2 X20.596 Y-6.430 Z-12.800 I-1.409 J-1.409 F180.000
G2 X19.605 Y-2.570 Z-12.800 I-0.496 J1.930 F180.000
G2 X21.509 Y-3.091 Z-12.800 I0.496 J-1.930 F180.000
G1 X21.509 Y-3.091 Z-13.000 F18.000
G2 X20.596 Y-6.430 Z-13.000 I-1.409 J-1.409 F180.000
G2 X19.605 Y-2.570 Z-13.000 I-0.496 J1.930 F180.000
G2 X21.509 Y-3.091 Z-13.000 I0.496 J-1.930 F180.000
G1 X21.509 Y-3.091 Z-13.200 F18.000
G2 X20.596 Y-6.430 Z-13.200 I-1.409 J-1.409 F180.000
G2 X19.605 Y-2.570 Z-13.200 I-0.496 J1.930 F180.000
G2 X21.509 Y-3.091 Z-13.200 I0.496 J-1.930 F180.000
G1 X21.509 Y-3.091 Z-13.400 F18.000
G2 X20.596 Y-6.430 Z-13.400 I-1.409 J-1.409 F180.000
G2 X19.605 Y-2.570 Z-13.400 I-0.496 J1.930 F180.000
G2 X21.509 Y-3.091 Z-13.400 I0.496 J-1.930 F180.000
G1 X21.509 Y-3.091 Z-13.600 F18.000
G2 X20.596 Y-6.430 Z-13.600 I-1.409 J-1.409 F180.000
G2 X19.605 Y-2.570 Z-13.600 I-0.496 J1.930 F180.000
G2 X21.509 Y-3.091 Z-13.600 I0.496 J-1.930 F180.000
G1 X21.509 Y-3.091 Z-13.800 F18.000
G2 X20.596 Y-6.430 Z-13.800 I-1.409 J-1.409 F180.000
G2 X19.605 Y-2.570 Z-13.800 I-0.496 J1.930 F180.000
G2 X21.509 Y-3.091 Z-13.800 I0.496 J-1.930 F180.000
G1 X21.509 Y-3.091 Z-14.000 F18.000
G2 X20.596 Y-6.430 Z-14.000 I-1.409 J-1.409 F180.000
G2 X19.605 Y-2.570 Z-14.000 I-0.496 J1.930 F180.000
G2 X21.509 Y-3.091 Z-14.000 I0.496 J-1.930 F180.000
G0 Z5.000
(finish operation: Profile_Edges)
(begin postamble)
M05
G17 G54 G90 G80 G40
M2
