(Exported by FreeCAD)
(Post Processor: linuxcnc_post)
(Output Time:2019-04-18 10:41:25.813767)
(begin preamble)
G17 G54 G40 G49 G80 G90
G21
M8
(begin operation: T4: 12mm Endmill)
(machine: not set, mm/min)
(T4: 12mm Endmill)
M6 T4 G43 H4
M3 S3000
(finish operation: T4: 12mm Endmill)
(begin operation: Profile_Edges)
(machine: not set, mm/min)
(Profile_Edges)
(Compensated Tool Path. Diameter: 12.0)
G0 Z5.000
G0 X31.372 Y1.614
G0 Z3.000
G1 X31.372 Y1.614 Z-0.500 F30.000
G2 X34.522 Y-4.286 Z-0.500 I-8.137 J-8.134 F720.000
G2 X34.745 Y-7.515 Z-0.500 I-13.686 J-2.566 F720.000
G2 X23.581 Y-19.006 Z-0.500 I-11.504 J0.008 F720.000
G1 X1.020 Y-19.015 Z-0.500 F720.000
G2 X-4.980 Y-13.015 Z-0.500 I0.000 J6.000 F720.000
G1 X-4.980 Y-1.015 Z-0.500 F720.000
G2 X1.020 Y4.985 Z-0.500 I6.000 J-0.000 F720.000
G1 X23.245 Y4.985 Z-0.500 F720.000
G2 X31.372 Y1.614 Z-0.500 I-0.009 J-11.505 F720.000
G1 X31.372 Y1.614 Z-1.000 F30.000
G2 X34.522 Y-4.286 Z-1.000 I-8.137 J-8.134 F720.000
G2 X34.745 Y-7.515 Z-1.000 I-13.686 J-2.566 F720.000
G2 X23.581 Y-19.006 Z-1.000 I-11.504 J0.008 F720.000
G1 X1.020 Y-19.015 Z-1.000 F720.000
G2 X-4.980 Y-13.015 Z-1.000 I0.000 J6.000 F720.000
G1 X-4.980 Y-1.015 Z-1.000 F720.000
G2 X1.020 Y4.985 Z-1.000 I6.000 J-0.000 F720.000
G1 X23.245 Y4.985 Z-1.000 F720.000
G2 X31.372 Y1.614 Z-1.000 I-0.009 J-11.505 F720.000
G1 X31.372 Y1.614 Z-1.500 F30.000
G2 X34.522 Y-4.286 Z-1.500 I-8.137 J-8.134 F720.000
G2 X34.745 Y-7.515 Z-1.500 I-13.686 J-2.566 F720.000
G2 X23.581 Y-19.006 Z-1.500 I-11.504 J0.008 F720.000
G1 X1.020 Y-19.015 Z-1.500 F720.000
G2 X-4.980 Y-13.015 Z-1.500 I0.000 J6.000 F720.000
G1 X-4.980 Y-1.015 Z-1.500 F720.000
G2 X1.020 Y4.985 Z-1.500 I6.000 J-0.000 F720.000
G1 X23.245 Y4.985 Z-1.500 F720.000
G2 X31.372 Y1.614 Z-1.500 I-0.009 J-11.505 F720.000
G1 X31.372 Y1.614 Z-2.000 F30.000
G2 X34.522 Y-4.286 Z-2.000 I-8.137 J-8.134 F720.000
G2 X34.745 Y-7.515 Z-2.000 I-13.686 J-2.566 F720.000
G2 X23.581 Y-19.006 Z-2.000 I-11.504 J0.008 F720.000
G1 X1.020 Y-19.015 Z-2.000 F720.000
G2 X-4.980 Y-13.015 Z-2.000 I0.000 J6.000 F720.000
G1 X-4.980 Y-1.015 Z-2.000 F720.000
G2 X1.020 Y4.985 Z-2.000 I6.000 J-0.000 F720.000
G1 X23.245 Y4.985 Z-2.000 F720.000
G2 X31.372 Y1.614 Z-2.000 I-0.009 J-11.505 F720.000
G1 X31.372 Y1.614 Z-2.500 F30.000
G2 X34.522 Y-4.286 Z-2.500 I-8.137 J-8.134 F720.000
G2 X34.745 Y-7.515 Z-2.500 I-13.686 J-2.566 F720.000
G2 X23.581 Y-19.006 Z-2.500 I-11.504 J0.008 F720.000
G1 X1.020 Y-19.015 Z-2.500 F720.000
G2 X-4.980 Y-13.015 Z-2.500 I0.000 J6.000 F720.000
G1 X-4.980 Y-1.015 Z-2.500 F720.000
G2 X1.020 Y4.985 Z-2.500 I6.000 J-0.000 F720.000
G1 X23.245 Y4.985 Z-2.500 F720.000
G2 X31.372 Y1.614 Z-2.500 I-0.009 J-11.505 F720.000
G1 X31.372 Y1.614 Z-3.000 F30.000
G2 X34.522 Y-4.286 Z-3.000 I-8.137 J-8.134 F720.000
G2 X34.745 Y-7.515 Z-3.000 I-13.686 J-2.566 F720.000
G2 X23.581 Y-19.006 Z-3.000 I-11.504 J0.008 F720.000
G1 X1.020 Y-19.015 Z-3.000 F720.000
G2 X-4.980 Y-13.015 Z-3.000 I0.000 J6.000 F720.000
G1 X-4.980 Y-1.015 Z-3.000 F720.000
G2 X1.020 Y4.985 Z-3.000 I6.000 J-0.000 F720.000
G1 X23.245 Y4.985 Z-3.000 F720.000
G2 X31.372 Y1.614 Z-3.000 I-0.009 J-11.505 F720.000
G1 X31.372 Y1.614 Z-3.500 F30.000
G2 X34.522 Y-4.286 Z-3.500 I-8.137 J-8.134 F720.000
G2 X34.745 Y-7.515 Z-3.500 I-13.686 J-2.566 F720.000
G2 X23.581 Y-19.006 Z-3.500 I-11.504 J0.008 F720.000
G1 X1.020 Y-19.015 Z-3.500 F720.000
G2 X-4.980 Y-13.015 Z-3.500 I0.000 J6.000 F720.000
G1 X-4.980 Y-1.015 Z-3.500 F720.000
G2 X1.020 Y4.985 Z-3.500 I6.000 J-0.000 F720.000
G1 X23.245 Y4.985 Z-3.500 F720.000
G2 X31.372 Y1.614 Z-3.500 I-0.009 J-11.505 F720.000
G1 X31.372 Y1.614 Z-4.000 F30.000
G2 X34.522 Y-4.286 Z-4.000 I-8.137 J-8.134 F720.000
G2 X34.745 Y-7.515 Z-4.000 I-13.686 J-2.566 F720.000
G2 X23.581 Y-19.006 Z-4.000 I-11.504 J0.008 F720.000
G1 X1.020 Y-19.015 Z-4.000 F720.000
G2 X-4.980 Y-13.015 Z-4.000 I0.000 J6.000 F720.000
G1 X-4.980 Y-1.015 Z-4.000 F720.000
G2 X1.020 Y4.985 Z-4.000 I6.000 J-0.000 F720.000
G1 X23.245 Y4.985 Z-4.000 F720.000
G2 X31.372 Y1.614 Z-4.000 I-0.009 J-11.505 F720.000
G1 X31.372 Y1.614 Z-4.500 F30.000
G2 X34.522 Y-4.286 Z-4.500 I-8.137 J-8.134 F720.000
G2 X34.745 Y-7.515 Z-4.500 I-13.686 J-2.566 F720.000
G2 X23.581 Y-19.006 Z-4.500 I-11.504 J0.008 F720.000
G1 X1.020 Y-19.015 Z-4.500 F720.000
G2 X-4.980 Y-13.015 Z-4.500 I0.000 J6.000 F720.000
G1 X-4.980 Y-1.015 Z-4.500 F720.000
G2 X1.020 Y4.985 Z-4.500 I6.000 J-0.000 F720.000
G1 X23.245 Y4.985 Z-4.500 F720.000
G2 X31.372 Y1.614 Z-4.500 I-0.009 J-11.505 F720.000
G1 X31.372 Y1.614 Z-5.000 F30.000
G2 X34.522 Y-4.286 Z-5.000 I-8.137 J-8.134 F720.000
G2 X34.745 Y-7.515 Z-5.000 I-13.686 J-2.566 F720.000
G2 X23.581 Y-19.006 Z-5.000 I-11.504 J0.008 F720.000
G1 X1.020 Y-19.015 Z-5.000 F720.000
G2 X-4.980 Y-13.015 Z-5.000 I0.000 J6.000 F720.000
G1 X-4.980 Y-1.015 Z-5.000 F720.000
G2 X1.020 Y4.985 Z-5.000 I6.000 J-0.000 F720.000
G1 X23.245 Y4.985 Z-5.000 F720.000
G2 X31.372 Y1.614 Z-5.000 I-0.009 J-11.505 F720.000
G1 X31.372 Y1.614 Z-5.500 F30.000
G2 X34.522 Y-4.286 Z-5.500 I-8.137 J-8.134 F720.000
G2 X34.745 Y-7.515 Z-5.500 I-13.686 J-2.566 F720.000
G2 X23.581 Y-19.006 Z-5.500 I-11.504 J0.008 F720.000
G1 X1.020 Y-19.015 Z-5.500 F720.000
G2 X-4.980 Y-13.015 Z-5.500 I0.000 J6.000 F720.000
G1 X-4.980 Y-1.015 Z-5.500 F720.000
G2 X1.020 Y4.985 Z-5.500 I6.000 J-0.000 F720.000
G1 X23.245 Y4.985 Z-5.500 F720.000
G2 X31.372 Y1.614 Z-5.500 I-0.009 J-11.505 F720.000
G1 X31.372 Y1.614 Z-6.000 F30.000
G2 X34.522 Y-4.286 Z-6.000 I-8.137 J-8.134 F720.000
G2 X34.745 Y-7.515 Z-6.000 I-13.686 J-2.566 F720.000
G2 X23.581 Y-19.006 Z-6.000 I-11.504 J0.008 F720.000
G1 X1.020 Y-19.015 Z-6.000 F720.000
G2 X-4.980 Y-13.015 Z-6.000 I0.000 J6.000 F720.000
G1 X-4.980 Y-1.015 Z-6.000 F720.000
G2 X1.020 Y4.985 Z-6.000 I6.000 J-0.000 F720.000
G1 X23.245 Y4.985 Z-6.000 F720.000
G2 X31.372 Y1.614 Z-6.000 I-0.009 J-11.505 F720.000
G1 X31.372 Y1.614 Z-6.500 F30.000
G2 X34.522 Y-4.286 Z-6.500 I-8.137 J-8.134 F720.000
G2 X34.745 Y-7.515 Z-6.500 I-13.686 J-2.566 F720.000
G2 X23.581 Y-19.006 Z-6.500 I-11.504 J0.008 F720.000
G1 X1.020 Y-19.015 Z-6.500 F720.000
G2 X-4.980 Y-13.015 Z-6.500 I0.000 J6.000 F720.000
G1 X-4.980 Y-1.015 Z-6.500 F720.000
G2 X1.020 Y4.985 Z-6.500 I6.000 J-0.000 F720.000
G1 X23.245 Y4.985 Z-6.500 F720.000
G2 X31.372 Y1.614 Z-6.500 I-0.009 J-11.505 F720.000
G1 X31.372 Y1.614 Z-7.000 F30.000
G2 X34.522 Y-4.286 Z-7.000 I-8.137 J-8.134 F720.000
G2 X34.745 Y-7.515 Z-7.000 I-13.686 J-2.566 F720.000
G2 X23.581 Y-19.006 Z-7.000 I-11.504 J0.008 F720.000
G1 X1.020 Y-19.015 Z-7.000 F720.000
G2 X-4.980 Y-13.015 Z-7.000 I0.000 J6.000 F720.000
G1 X-4.980 Y-1.015 Z-7.000 F720.000
G2 X1.020 Y4.985 Z-7.000 I6.000 J-0.000 F720.000
G1 X23.245 Y4.985 Z-7.000 F720.000
G2 X31.372 Y1.614 Z-7.000 I-0.009 J-11.505 F720.000
G1 X31.372 Y1.614 Z-7.500 F30.000
G2 X34.522 Y-4.286 Z-7.500 I-8.137 J-8.134 F720.000
G2 X34.745 Y-7.515 Z-7.500 I-13.686 J-2.566 F720.000
G2 X23.581 Y-19.006 Z-7.500 I-11.504 J0.008 F720.000
G1 X1.020 Y-19.015 Z-7.500 F720.000
G2 X-4.980 Y-13.015 Z-7.500 I0.000 J6.000 F720.000
G1 X-4.980 Y-1.015 Z-7.500 F720.000
G2 X1.020 Y4.985 Z-7.500 I6.000 J-0.000 F720.000
G1 X23.245 Y4.985 Z-7.500 F720.000
G2 X31.372 Y1.614 Z-7.500 I-0.009 J-11.505 F720.000
G1 X31.372 Y1.614 Z-8.000 F30.000
G2 X34.522 Y-4.286 Z-8.000 I-8.137 J-8.134 F720.000
G2 X34.745 Y-7.515 Z-8.000 I-13.686 J-2.566 F720.000
G2 X23.581 Y-19.006 Z-8.000 I-11.504 J0.008 F720.000
G1 X1.020 Y-19.015 Z-8.000 F720.000
G2 X-4.980 Y-13.015 Z-8.000 I0.000 J6.000 F720.000
G1 X-4.980 Y-1.015 Z-8.000 F720.000
G2 X1.020 Y4.985 Z-8.000 I6.000 J-0.000 F720.000
G1 X23.245 Y4.985 Z-8.000 F720.000
G2 X31.372 Y1.614 Z-8.000 I-0.009 J-11.505 F720.000
G1 X31.372 Y1.614 Z-8.500 F30.000
G2 X34.522 Y-4.286 Z-8.500 I-8.137 J-8.134 F720.000
G2 X34.745 Y-7.515 Z-8.500 I-13.686 J-2.566 F720.000
G2 X23.581 Y-19.006 Z-8.500 I-11.504 J0.008 F720.000
G1 X1.020 Y-19.015 Z-8.500 F720.000
G2 X-4.980 Y-13.015 Z-8.500 I0.000 J6.000 F720.000
G1 X-4.980 Y-1.015 Z-8.500 F720.000
G2 X1.020 Y4.985 Z-8.500 I6.000 J-0.000 F720.000
G1 X23.245 Y4.985 Z-8.500 F720.000
G2 X31.372 Y1.614 Z-8.500 I-0.009 J-11.505 F720.000
G1 X31.372 Y1.614 Z-9.000 F30.000
G2 X34.522 Y-4.286 Z-9.000 I-8.137 J-8.134 F720.000
G2 X34.745 Y-7.515 Z-9.000 I-13.686 J-2.566 F720.000
G2 X23.581 Y-19.006 Z-9.000 I-11.504 J0.008 F720.000
G1 X1.020 Y-19.015 Z-9.000 F720.000
G2 X-4.980 Y-13.015 Z-9.000 I0.000 J6.000 F720.000
G1 X-4.980 Y-1.015 Z-9.000 F720.000
G2 X1.020 Y4.985 Z-9.000 I6.000 J-0.000 F720.000
G1 X23.245 Y4.985 Z-9.000 F720.000
G2 X31.372 Y1.614 Z-9.000 I-0.009 J-11.505 F720.000
G1 X31.372 Y1.614 Z-9.500 F30.000
G2 X34.522 Y-4.286 Z-9.500 I-8.137 J-8.134 F720.000
G2 X34.745 Y-7.515 Z-9.500 I-13.686 J-2.566 F720.000
G2 X23.581 Y-19.006 Z-9.500 I-11.504 J0.008 F720.000
G1 X1.020 Y-19.015 Z-9.500 F720.000
G2 X-4.980 Y-13.015 Z-9.500 I0.000 J6.000 F720.000
G1 X-4.980 Y-1.015 Z-9.500 F720.000
G2 X1.020 Y4.985 Z-9.500 I6.000 J-0.000 F720.000
G1 X23.245 Y4.985 Z-9.500 F720.000
G2 X31.372 Y1.614 Z-9.500 I-0.009 J-11.505 F720.000
G1 X31.372 Y1.614 Z-10.000 F30.000
G2 X34.522 Y-4.286 Z-10.000 I-8.137 J-8.134 F720.000
G2 X34.745 Y-7.515 Z-10.000 I-13.686 J-2.566 F720.000
G2 X23.581 Y-19.006 Z-10.000 I-11.504 J0.008 F720.000
G1 X1.020 Y-19.015 Z-10.000 F720.000
G2 X-4.980 Y-13.015 Z-10.000 I0.000 J6.000 F720.000
G1 X-4.980 Y-1.015 Z-10.000 F720.000
G2 X1.020 Y4.985 Z-10.000 I6.000 J-0.000 F720.000
G1 X23.245 Y4.985 Z-10.000 F720.000
G2 X31.372 Y1.614 Z-10.000 I-0.009 J-11.505 F720.000
G1 X31.372 Y1.614 Z-10.500 F30.000
G2 X34.522 Y-4.286 Z-10.500 I-8.137 J-8.134 F720.000
G2 X34.745 Y-7.515 Z-10.500 I-13.686 J-2.566 F720.000
G2 X23.581 Y-19.006 Z-10.500 I-11.504 J0.008 F720.000
G1 X1.020 Y-19.015 Z-10.500 F720.000
G2 X-4.980 Y-13.015 Z-10.500 I0.000 J6.000 F720.000
G1 X-4.980 Y-1.015 Z-10.500 F720.000
G2 X1.020 Y4.985 Z-10.500 I6.000 J-0.000 F720.000
G1 X23.245 Y4.985 Z-10.500 F720.000
G2 X31.372 Y1.614 Z-10.500 I-0.009 J-11.505 F720.000
G1 X31.372 Y1.614 Z-11.000 F30.000
G2 X34.522 Y-4.286 Z-11.000 I-8.137 J-8.134 F720.000
G2 X34.745 Y-7.515 Z-11.000 I-13.686 J-2.566 F720.000
G2 X23.581 Y-19.006 Z-11.000 I-11.504 J0.008 F720.000
G1 X1.020 Y-19.015 Z-11.000 F720.000
G2 X-4.980 Y-13.015 Z-11.000 I0.000 J6.000 F720.000
G1 X-4.980 Y-1.015 Z-11.000 F720.000
G2 X1.020 Y4.985 Z-11.000 I6.000 J-0.000 F720.000
G1 X23.245 Y4.985 Z-11.000 F720.000
G2 X31.372 Y1.614 Z-11.000 I-0.009 J-11.505 F720.000
G1 X31.372 Y1.614 Z-11.500 F30.000
G2 X34.522 Y-4.286 Z-11.500 I-8.137 J-8.134 F720.000
G2 X34.745 Y-7.515 Z-11.500 I-13.686 J-2.566 F720.000
G2 X23.581 Y-19.006 Z-11.500 I-11.504 J0.008 F720.000
G1 X1.020 Y-19.015 Z-11.500 F720.000
G2 X-4.980 Y-13.015 Z-11.500 I0.000 J6.000 F720.000
G1 X-4.980 Y-1.015 Z-11.500 F720.000
G2 X1.020 Y4.985 Z-11.500 I6.000 J-0.000 F720.000
G1 X23.245 Y4.985 Z-11.500 F720.000
G2 X31.372 Y1.614 Z-11.500 I-0.009 J-11.505 F720.000
G1 X31.372 Y1.614 Z-12.000 F30.000
G2 X34.522 Y-4.286 Z-12.000 I-8.137 J-8.134 F720.000
G2 X34.745 Y-7.515 Z-12.000 I-13.686 J-2.566 F720.000
G2 X23.581 Y-19.006 Z-12.000 I-11.504 J0.008 F720.000
G1 X1.020 Y-19.015 Z-12.000 F720.000
G2 X-4.980 Y-13.015 Z-12.000 I0.000 J6.000 F720.000
G1 X-4.980 Y-1.015 Z-12.000 F720.000
G2 X1.020 Y4.985 Z-12.000 I6.000 J-0.000 F720.000
G1 X23.245 Y4.985 Z-12.000 F720.000
G2 X31.372 Y1.614 Z-12.000 I-0.009 J-11.505 F720.000
G1 X31.372 Y1.614 Z-12.500 F30.000
G2 X34.522 Y-4.286 Z-12.500 I-8.137 J-8.134 F720.000
G2 X34.745 Y-7.515 Z-12.500 I-13.686 J-2.566 F720.000
G2 X23.581 Y-19.006 Z-12.500 I-11.504 J0.008 F720.000
G1 X1.020 Y-19.015 Z-12.500 F720.000
G2 X-4.980 Y-13.015 Z-12.500 I0.000 J6.000 F720.000
G1 X-4.980 Y-1.015 Z-12.500 F720.000
G2 X1.020 Y4.985 Z-12.500 I6.000 J-0.000 F720.000
G1 X23.245 Y4.985 Z-12.500 F720.000
G2 X31.372 Y1.614 Z-12.500 I-0.009 J-11.505 F720.000
G1 X31.372 Y1.614 Z-13.000 F30.000
G2 X34.522 Y-4.286 Z-13.000 I-8.137 J-8.134 F720.000
G2 X34.745 Y-7.515 Z-13.000 I-13.686 J-2.566 F720.000
G2 X23.581 Y-19.006 Z-13.000 I-11.504 J0.008 F720.000
G1 X1.020 Y-19.015 Z-13.000 F720.000
G2 X-4.980 Y-13.015 Z-13.000 I0.000 J6.000 F720.000
G1 X-4.980 Y-1.015 Z-13.000 F720.000
G2 X1.020 Y4.985 Z-13.000 I6.000 J-0.000 F720.000
G1 X23.245 Y4.985 Z-13.000 F720.000
G2 X31.372 Y1.614 Z-13.000 I-0.009 J-11.505 F720.000
G1 X31.372 Y1.614 Z-13.500 F30.000
G2 X34.522 Y-4.286 Z-13.500 I-8.137 J-8.134 F720.000
G2 X34.745 Y-7.515 Z-13.500 I-13.686 J-2.566 F720.000
G2 X23.581 Y-19.006 Z-13.500 I-11.504 J0.008 F720.000
G1 X1.020 Y-19.015 Z-13.500 F720.000
G2 X-4.980 Y-13.015 Z-13.500 I0.000 J6.000 F720.000
G1 X-4.980 Y-1.015 Z-13.500 F720.000
G2 X1.020 Y4.985 Z-13.500 I6.000 J-0.000 F720.000
G1 X23.245 Y4.985 Z-13.500 F720.000
G2 X31.372 Y1.614 Z-13.500 I-0.009 J-11.505 F720.000
G1 X31.372 Y1.614 Z-13.800 F30.000
G2 X34.522 Y-4.286 Z-13.800 I-8.137 J-8.134 F720.000
G2 X34.745 Y-7.515 Z-13.800 I-13.686 J-2.566 F720.000
G2 X23.581 Y-19.006 Z-13.800 I-11.504 J0.008 F720.000
G1 X1.020 Y-19.015 Z-13.800 F720.000
G2 X-4.980 Y-13.015 Z-13.800 I0.000 J6.000 F720.000
G1 X-4.980 Y-1.015 Z-13.800 F720.000
G2 X1.020 Y4.985 Z-13.800 I6.000 J-0.000 F720.000
G1 X23.245 Y4.985 Z-13.800 F720.000
G2 X31.372 Y1.614 Z-13.800 I-0.009 J-11.505 F720.000
G0 Z5.000
(finish operation: Profile_Edges)
(begin operation: T4: 12mm Endmill)
(machine: not set, mm/min)
(T4: 12mm Endmill)
M6 T4 G43 H4
M3 S3000
(finish operation: T4: 12mm Endmill)
(begin operation: Profile_Edges001)
(machine: not set, mm/min)
(Profile_Edges001)
(Compensated Tool Path. Diameter: 12.0)
G0 Z5.000
G0 X24.444 Y4.485
G0 Z3.000
G1 X24.444 Y4.485 Z-0.500 F30.000
G1 X24.444 Y-14.015 Z-0.500 F720.000
G1 X17.520 Y-14.015 Z-0.500 F720.000
G1 X17.520 Y-2.515 Z-0.500 F720.000
G3 X11.520 Y3.485 Z-0.500 I-6.000 J0.000 F720.000
G1 X0.020 Y3.485 Z-0.500 F720.000
G1 X0.020 Y4.485 Z-0.500 F720.000
G1 X24.444 Y4.485 Z-0.500 F720.000
G1 X24.444 Y4.485 Z-1.000 F30.000
G1 X24.444 Y-14.015 Z-1.000 F720.000
G1 X17.520 Y-14.015 Z-1.000 F720.000
G1 X17.520 Y-2.515 Z-1.000 F720.000
G3 X11.520 Y3.485 Z-1.000 I-6.000 J0.000 F720.000
G1 X0.020 Y3.485 Z-1.000 F720.000
G1 X0.020 Y4.485 Z-1.000 F720.000
G1 X24.444 Y4.485 Z-1.000 F720.000
G1 X24.444 Y4.485 Z-1.500 F30.000
G1 X24.444 Y-14.015 Z-1.500 F720.000
G1 X17.520 Y-14.015 Z-1.500 F720.000
G1 X17.520 Y-2.515 Z-1.500 F720.000
G3 X11.520 Y3.485 Z-1.500 I-6.000 J0.000 F720.000
G1 X0.020 Y3.485 Z-1.500 F720.000
G1 X0.020 Y4.485 Z-1.500 F720.000
G1 X24.444 Y4.485 Z-1.500 F720.000
G1 X24.444 Y4.485 Z-2.000 F30.000
G1 X24.444 Y-14.015 Z-2.000 F720.000
G1 X17.520 Y-14.015 Z-2.000 F720.000
G1 X17.520 Y-2.515 Z-2.000 F720.000
G3 X11.520 Y3.485 Z-2.000 I-6.000 J0.000 F720.000
G1 X0.020 Y3.485 Z-2.000 F720.000
G1 X0.020 Y4.485 Z-2.000 F720.000
G1 X24.444 Y4.485 Z-2.000 F720.000
G1 X24.444 Y4.485 Z-2.500 F30.000
G1 X24.444 Y-14.015 Z-2.500 F720.000
G1 X17.520 Y-14.015 Z-2.500 F720.000
G1 X17.520 Y-2.515 Z-2.500 F720.000
G3 X11.520 Y3.485 Z-2.500 I-6.000 J0.000 F720.000
G1 X0.020 Y3.485 Z-2.500 F720.000
G1 X0.020 Y4.485 Z-2.500 F720.000
G1 X24.444 Y4.485 Z-2.500 F720.000
G1 X24.444 Y4.485 Z-3.000 F30.000
G1 X24.444 Y-14.015 Z-3.000 F720.000
G1 X17.520 Y-14.015 Z-3.000 F720.000
G1 X17.520 Y-2.515 Z-3.000 F720.000
G3 X11.520 Y3.485 Z-3.000 I-6.000 J0.000 F720.000
G1 X0.020 Y3.485 Z-3.000 F720.000
G1 X0.020 Y4.485 Z-3.000 F720.000
G1 X24.444 Y4.485 Z-3.000 F720.000
G1 X24.444 Y4.485 Z-3.500 F30.000
G1 X24.444 Y-14.015 Z-3.500 F720.000
G1 X17.520 Y-14.015 Z-3.500 F720.000
G1 X17.520 Y-2.515 Z-3.500 F720.000
G3 X11.520 Y3.485 Z-3.500 I-6.000 J0.000 F720.000
G1 X0.020 Y3.485 Z-3.500 F720.000
G1 X0.020 Y4.485 Z-3.500 F720.000
G1 X24.444 Y4.485 Z-3.500 F720.000
G1 X24.444 Y4.485 Z-4.000 F30.000
G1 X24.444 Y-14.015 Z-4.000 F720.000
G1 X17.520 Y-14.015 Z-4.000 F720.000
G1 X17.520 Y-2.515 Z-4.000 F720.000
G3 X11.520 Y3.485 Z-4.000 I-6.000 J0.000 F720.000
G1 X0.020 Y3.485 Z-4.000 F720.000
G1 X0.020 Y4.485 Z-4.000 F720.000
G1 X24.444 Y4.485 Z-4.000 F720.000
G1 X24.444 Y4.485 Z-4.500 F30.000
G1 X24.444 Y-14.015 Z-4.500 F720.000
G1 X17.520 Y-14.015 Z-4.500 F720.000
G1 X17.520 Y-2.515 Z-4.500 F720.000
G3 X11.520 Y3.485 Z-4.500 I-6.000 J0.000 F720.000
G1 X0.020 Y3.485 Z-4.500 F720.000
G1 X0.020 Y4.485 Z-4.500 F720.000
G1 X24.444 Y4.485 Z-4.500 F720.000
G1 X24.444 Y4.485 Z-5.000 F30.000
G1 X24.444 Y-14.015 Z-5.000 F720.000
G1 X17.520 Y-14.015 Z-5.000 F720.000
G1 X17.520 Y-2.515 Z-5.000 F720.000
G3 X11.520 Y3.485 Z-5.000 I-6.000 J0.000 F720.000
G1 X0.020 Y3.485 Z-5.000 F720.000
G1 X0.020 Y4.485 Z-5.000 F720.000
G1 X24.444 Y4.485 Z-5.000 F720.000
G1 X24.444 Y4.485 Z-5.500 F30.000
G1 X24.444 Y-14.015 Z-5.500 F720.000
G1 X17.520 Y-14.015 Z-5.500 F720.000
G1 X17.520 Y-2.515 Z-5.500 F720.000
G3 X11.520 Y3.485 Z-5.500 I-6.000 J0.000 F720.000
G1 X0.020 Y3.485 Z-5.500 F720.000
G1 X0.020 Y4.485 Z-5.500 F720.000
G1 X24.444 Y4.485 Z-5.500 F720.000
G1 X24.444 Y4.485 Z-6.000 F30.000
G1 X24.444 Y-14.015 Z-6.000 F720.000
G1 X17.520 Y-14.015 Z-6.000 F720.000
G1 X17.520 Y-2.515 Z-6.000 F720.000
G3 X11.520 Y3.485 Z-6.000 I-6.000 J0.000 F720.000
G1 X0.020 Y3.485 Z-6.000 F720.000
G1 X0.020 Y4.485 Z-6.000 F720.000
G1 X24.444 Y4.485 Z-6.000 F720.000
G1 X24.444 Y4.485 Z-6.500 F30.000
G1 X24.444 Y-14.015 Z-6.500 F720.000
G1 X17.520 Y-14.015 Z-6.500 F720.000
G1 X17.520 Y-2.515 Z-6.500 F720.000
G3 X11.520 Y3.485 Z-6.500 I-6.000 J0.000 F720.000
G1 X0.020 Y3.485 Z-6.500 F720.000
G1 X0.020 Y4.485 Z-6.500 F720.000
G1 X24.444 Y4.485 Z-6.500 F720.000
G1 X24.444 Y4.485 Z-7.000 F30.000
G1 X24.444 Y-14.015 Z-7.000 F720.000
G1 X17.520 Y-14.015 Z-7.000 F720.000
G1 X17.520 Y-2.515 Z-7.000 F720.000
G3 X11.520 Y3.485 Z-7.000 I-6.000 J0.000 F720.000
G1 X0.020 Y3.485 Z-7.000 F720.000
G1 X0.020 Y4.485 Z-7.000 F720.000
G1 X24.444 Y4.485 Z-7.000 F720.000
G1 X24.444 Y4.485 Z-7.500 F30.000
G1 X24.444 Y-14.015 Z-7.500 F720.000
G1 X17.520 Y-14.015 Z-7.500 F720.000
G1 X17.520 Y-2.515 Z-7.500 F720.000
G3 X11.520 Y3.485 Z-7.500 I-6.000 J0.000 F720.000
G1 X0.020 Y3.485 Z-7.500 F720.000
G1 X0.020 Y4.485 Z-7.500 F720.000
G1 X24.444 Y4.485 Z-7.500 F720.000
G1 X24.444 Y4.485 Z-8.000 F30.000
G1 X24.444 Y-14.015 Z-8.000 F720.000
G1 X17.520 Y-14.015 Z-8.000 F720.000
G1 X17.520 Y-2.515 Z-8.000 F720.000
G3 X11.520 Y3.485 Z-8.000 I-6.000 J0.000 F720.000
G1 X0.020 Y3.485 Z-8.000 F720.000
G1 X0.020 Y4.485 Z-8.000 F720.000
G1 X24.444 Y4.485 Z-8.000 F720.000
G1 X24.444 Y4.485 Z-8.500 F30.000
G1 X24.444 Y-14.015 Z-8.500 F720.000
G1 X17.520 Y-14.015 Z-8.500 F720.000
G1 X17.520 Y-2.515 Z-8.500 F720.000
G3 X11.520 Y3.485 Z-8.500 I-6.000 J0.000 F720.000
G1 X0.020 Y3.485 Z-8.500 F720.000
G1 X0.020 Y4.485 Z-8.500 F720.000
G1 X24.444 Y4.485 Z-8.500 F720.000
G1 X24.444 Y4.485 Z-9.000 F30.000
G1 X24.444 Y-14.015 Z-9.000 F720.000
G1 X17.520 Y-14.015 Z-9.000 F720.000
G1 X17.520 Y-2.515 Z-9.000 F720.000
G3 X11.520 Y3.485 Z-9.000 I-6.000 J0.000 F720.000
G1 X0.020 Y3.485 Z-9.000 F720.000
G1 X0.020 Y4.485 Z-9.000 F720.000
G1 X24.444 Y4.485 Z-9.000 F720.000
G0 Z5.000
(finish operation: Profile_Edges001)
(begin operation: T6: 4mm Endmill)
(machine: not set, mm/min)
(T6: 4mm Endmill)
M6 T6 G43 H6
M3 S3000
(finish operation: T6: 4mm Endmill)
(begin operation: Profile_Edges002)
(machine: not set, mm/min)
(Profile_Edges002)
(Compensated Tool Path. Diameter: 4.0)
G0 Z5.000
G0 X7.203 Y-6.327
G0 Z3.000
G1 X7.203 Y-6.327 Z-0.200 F12.000
G2 X7.445 Y-6.723 Z-0.200 I-0.703 J-0.703 F180.000
G2 X5.555 Y-7.337 Z-0.200 I-0.945 J-0.307 F180.000
G2 X7.203 Y-6.327 Z-0.200 I0.945 J0.307 F180.000
G1 X7.203 Y-6.327 Z-0.400 F12.000
G2 X7.445 Y-6.723 Z-0.400 I-0.703 J-0.703 F180.000
G2 X5.555 Y-7.337 Z-0.400 I-0.945 J-0.307 F180.000
G2 X7.203 Y-6.327 Z-0.400 I0.945 J0.307 F180.000
G1 X7.203 Y-6.327 Z-0.600 F12.000
G2 X7.445 Y-6.723 Z-0.600 I-0.703 J-0.703 F180.000
G2 X5.555 Y-7.337 Z-0.600 I-0.945 J-0.307 F180.000
G2 X7.203 Y-6.327 Z-0.600 I0.945 J0.307 F180.000
G1 X7.203 Y-6.327 Z-0.800 F12.000
G2 X7.445 Y-6.723 Z-0.800 I-0.703 J-0.703 F180.000
G2 X5.555 Y-7.337 Z-0.800 I-0.945 J-0.307 F180.000
G2 X7.203 Y-6.327 Z-0.800 I0.945 J0.307 F180.000
G1 X7.203 Y-6.327 Z-1.000 F12.000
G2 X7.445 Y-6.723 Z-1.000 I-0.703 J-0.703 F180.000
G2 X5.555 Y-7.337 Z-1.000 I-0.945 J-0.307 F180.000
G2 X7.203 Y-6.327 Z-1.000 I0.945 J0.307 F180.000
G1 X7.203 Y-6.327 Z-1.200 F12.000
G2 X7.445 Y-6.723 Z-1.200 I-0.703 J-0.703 F180.000
G2 X5.555 Y-7.337 Z-1.200 I-0.945 J-0.307 F180.000
G2 X7.203 Y-6.327 Z-1.200 I0.945 J0.307 F180.000
G1 X7.203 Y-6.327 Z-1.400 F12.000
G2 X7.445 Y-6.723 Z-1.400 I-0.703 J-0.703 F180.000
G2 X5.555 Y-7.337 Z-1.400 I-0.945 J-0.307 F180.000
G2 X7.203 Y-6.327 Z-1.400 I0.945 J0.307 F180.000
G1 X7.203 Y-6.327 Z-1.600 F12.000
G2 X7.445 Y-6.723 Z-1.600 I-0.703 J-0.703 F180.000
G2 X5.555 Y-7.337 Z-1.600 I-0.945 J-0.307 F180.000
G2 X7.203 Y-6.327 Z-1.600 I0.945 J0.307 F180.000
G1 X7.203 Y-6.327 Z-1.800 F12.000
G2 X7.445 Y-6.723 Z-1.800 I-0.703 J-0.703 F180.000
G2 X5.555 Y-7.337 Z-1.800 I-0.945 J-0.307 F180.000
G2 X7.203 Y-6.327 Z-1.800 I0.945 J0.307 F180.000
G1 X7.203 Y-6.327 Z-2.000 F12.000
G2 X7.445 Y-6.723 Z-2.000 I-0.703 J-0.703 F180.000
G2 X5.555 Y-7.337 Z-2.000 I-0.945 J-0.307 F180.000
G2 X7.203 Y-6.327 Z-2.000 I0.945 J0.307 F180.000
G1 X7.203 Y-6.327 Z-2.200 F12.000
G2 X7.445 Y-6.723 Z-2.200 I-0.703 J-0.703 F180.000
G2 X5.555 Y-7.337 Z-2.200 I-0.945 J-0.307 F180.000
G2 X7.203 Y-6.327 Z-2.200 I0.945 J0.307 F180.000
G1 X7.203 Y-6.327 Z-2.400 F12.000
G2 X7.445 Y-6.723 Z-2.400 I-0.703 J-0.703 F180.000
G2 X5.555 Y-7.337 Z-2.400 I-0.945 J-0.307 F180.000
G2 X7.203 Y-6.327 Z-2.400 I0.945 J0.307 F180.000
G1 X7.203 Y-6.327 Z-2.600 F12.000
G2 X7.445 Y-6.723 Z-2.600 I-0.703 J-0.703 F180.000
G2 X5.555 Y-7.337 Z-2.600 I-0.945 J-0.307 F180.000
G2 X7.203 Y-6.327 Z-2.600 I0.945 J0.307 F180.000
G1 X7.203 Y-6.327 Z-2.800 F12.000
G2 X7.445 Y-6.723 Z-2.800 I-0.703 J-0.703 F180.000
G2 X5.555 Y-7.337 Z-2.800 I-0.945 J-0.307 F180.000
G2 X7.203 Y-6.327 Z-2.800 I0.945 J0.307 F180.000
G1 X7.203 Y-6.327 Z-3.000 F12.000
G2 X7.445 Y-6.723 Z-3.000 I-0.703 J-0.703 F180.000
G2 X5.555 Y-7.337 Z-3.000 I-0.945 J-0.307 F180.000
G2 X7.203 Y-6.327 Z-3.000 I0.945 J0.307 F180.000
G1 X7.203 Y-6.327 Z-3.200 F12.000
G2 X7.445 Y-6.723 Z-3.200 I-0.703 J-0.703 F180.000
G2 X5.555 Y-7.337 Z-3.200 I-0.945 J-0.307 F180.000
G2 X7.203 Y-6.327 Z-3.200 I0.945 J0.307 F180.000
G1 X7.203 Y-6.327 Z-3.400 F12.000
G2 X7.445 Y-6.723 Z-3.400 I-0.703 J-0.703 F180.000
G2 X5.555 Y-7.337 Z-3.400 I-0.945 J-0.307 F180.000
G2 X7.203 Y-6.327 Z-3.400 I0.945 J0.307 F180.000
G1 X7.203 Y-6.327 Z-3.600 F12.000
G2 X7.445 Y-6.723 Z-3.600 I-0.703 J-0.703 F180.000
G2 X5.555 Y-7.337 Z-3.600 I-0.945 J-0.307 F180.000
G2 X7.203 Y-6.327 Z-3.600 I0.945 J0.307 F180.000
G1 X7.203 Y-6.327 Z-3.800 F12.000
G2 X7.445 Y-6.723 Z-3.800 I-0.703 J-0.703 F180.000
G2 X5.555 Y-7.337 Z-3.800 I-0.945 J-0.307 F180.000
G2 X7.203 Y-6.327 Z-3.800 I0.945 J0.307 F180.000
G1 X7.203 Y-6.327 Z-4.000 F12.000
G2 X7.445 Y-6.723 Z-4.000 I-0.703 J-0.703 F180.000
G2 X5.555 Y-7.337 Z-4.000 I-0.945 J-0.307 F180.000
G2 X7.203 Y-6.327 Z-4.000 I0.945 J0.307 F180.000
G1 X7.203 Y-6.327 Z-4.200 F12.000
G2 X7.445 Y-6.723 Z-4.200 I-0.703 J-0.703 F180.000
G2 X5.555 Y-7.337 Z-4.200 I-0.945 J-0.307 F180.000
G2 X7.203 Y-6.327 Z-4.200 I0.945 J0.307 F180.000
G1 X7.203 Y-6.327 Z-4.400 F12.000
G2 X7.445 Y-6.723 Z-4.400 I-0.703 J-0.703 F180.000
G2 X5.555 Y-7.337 Z-4.400 I-0.945 J-0.307 F180.000
G2 X7.203 Y-6.327 Z-4.400 I0.945 J0.307 F180.000
G1 X7.203 Y-6.327 Z-4.600 F12.000
G2 X7.445 Y-6.723 Z-4.600 I-0.703 J-0.703 F180.000
G2 X5.555 Y-7.337 Z-4.600 I-0.945 J-0.307 F180.000
G2 X7.203 Y-6.327 Z-4.600 I0.945 J0.307 F180.000
G1 X7.203 Y-6.327 Z-4.800 F12.000
G2 X7.445 Y-6.723 Z-4.800 I-0.703 J-0.703 F180.000
G2 X5.555 Y-7.337 Z-4.800 I-0.945 J-0.307 F180.000
G2 X7.203 Y-6.327 Z-4.800 I0.945 J0.307 F180.000
G1 X7.203 Y-6.327 Z-5.000 F12.000
G2 X7.445 Y-6.723 Z-5.000 I-0.703 J-0.703 F180.000
G2 X5.555 Y-7.337 Z-5.000 I-0.945 J-0.307 F180.000
G2 X7.203 Y-6.327 Z-5.000 I0.945 J0.307 F180.000
G0 Z5.000
(finish operation: Profile_Edges002)
(begin operation: T6: 4mm Endmill)
(machine: not set, mm/min)
(T6: 4mm Endmill)
M6 T6 G43 H6
M3 S3000
(finish operation: T6: 4mm Endmill)
(begin operation: Profile_Edges003)
(machine: not set, mm/min)
(Profile_Edges003)
(Compensated Tool Path. Diameter: 4.0)
G0 Z5.000
G0 X21.801 Y-6.330
G1 X21.801 Y-6.330 Z-9.200 F12.000
G2 X21.347 Y-7.989 Z-9.200 I-0.700 J-0.700 F180.000
G2 X20.141 Y-7.276 Z-9.200 I-0.246 J0.959 F180.000
G2 X20.854 Y-6.071 Z-9.200 I0.959 J0.246 F180.000
G2 X21.801 Y-6.330 Z-9.200 I0.246 J-0.959 F180.000
G1 X21.801 Y-6.330 Z-9.400 F12.000
G2 X21.347 Y-7.989 Z-9.400 I-0.700 J-0.700 F180.000
G2 X20.141 Y-7.276 Z-9.400 I-0.246 J0.959 F180.000
G2 X20.854 Y-6.071 Z-9.400 I0.959 J0.246 F180.000
G2 X21.801 Y-6.330 Z-9.400 I0.246 J-0.959 F180.000
G1 X21.801 Y-6.330 Z-9.600 F12.000
G2 X21.347 Y-7.989 Z-9.600 I-0.700 J-0.700 F180.000
G2 X20.141 Y-7.276 Z-9.600 I-0.246 J0.959 F180.000
G2 X20.854 Y-6.071 Z-9.600 I0.959 J0.246 F180.000
G2 X21.801 Y-6.330 Z-9.600 I0.246 J-0.959 F180.000
G1 X21.801 Y-6.330 Z-9.800 F12.000
G2 X21.347 Y-7.989 Z-9.800 I-0.700 J-0.700 F180.000
G2 X20.141 Y-7.276 Z-9.800 I-0.246 J0.959 F180.000
G2 X20.854 Y-6.071 Z-9.800 I0.959 J0.246 F180.000
G2 X21.801 Y-6.330 Z-9.800 I0.246 J-0.959 F180.000
G1 X21.801 Y-6.330 Z-10.000 F12.000
G2 X21.347 Y-7.989 Z-10.000 I-0.700 J-0.700 F180.000
G2 X20.141 Y-7.276 Z-10.000 I-0.246 J0.959 F180.000
G2 X20.854 Y-6.071 Z-10.000 I0.959 J0.246 F180.000
G2 X21.801 Y-6.330 Z-10.000 I0.246 J-0.959 F180.000
G1 X21.801 Y-6.330 Z-10.200 F12.000
G2 X21.347 Y-7.989 Z-10.200 I-0.700 J-0.700 F180.000
G2 X20.141 Y-7.276 Z-10.200 I-0.246 J0.959 F180.000
G2 X20.854 Y-6.071 Z-10.200 I0.959 J0.246 F180.000
G2 X21.801 Y-6.330 Z-10.200 I0.246 J-0.959 F180.000
G1 X21.801 Y-6.330 Z-10.400 F12.000
G2 X21.347 Y-7.989 Z-10.400 I-0.700 J-0.700 F180.000
G2 X20.141 Y-7.276 Z-10.400 I-0.246 J0.959 F180.000
G2 X20.854 Y-6.071 Z-10.400 I0.959 J0.246 F180.000
G2 X21.801 Y-6.330 Z-10.400 I0.246 J-0.959 F180.000
G1 X21.801 Y-6.330 Z-10.600 F12.000
G2 X21.347 Y-7.989 Z-10.600 I-0.700 J-0.700 F180.000
G2 X20.141 Y-7.276 Z-10.600 I-0.246 J0.959 F180.000
G2 X20.854 Y-6.071 Z-10.600 I0.959 J0.246 F180.000
G2 X21.801 Y-6.330 Z-10.600 I0.246 J-0.959 F180.000
G1 X21.801 Y-6.330 Z-10.800 F12.000
G2 X21.347 Y-7.989 Z-10.800 I-0.700 J-0.700 F180.000
G2 X20.141 Y-7.276 Z-10.800 I-0.246 J0.959 F180.000
G2 X20.854 Y-6.071 Z-10.800 I0.959 J0.246 F180.000
G2 X21.801 Y-6.330 Z-10.800 I0.246 J-0.959 F180.000
G1 X21.801 Y-6.330 Z-11.000 F12.000
G2 X21.347 Y-7.989 Z-11.000 I-0.700 J-0.700 F180.000
G2 X20.141 Y-7.276 Z-11.000 I-0.246 J0.959 F180.000
G2 X20.854 Y-6.071 Z-11.000 I0.959 J0.246 F180.000
G2 X21.801 Y-6.330 Z-11.000 I0.246 J-0.959 F180.000
G1 X21.801 Y-6.330 Z-11.200 F12.000
G2 X21.347 Y-7.989 Z-11.200 I-0.700 J-0.700 F180.000
G2 X20.141 Y-7.276 Z-11.200 I-0.246 J0.959 F180.000
G2 X20.854 Y-6.071 Z-11.200 I0.959 J0.246 F180.000
G2 X21.801 Y-6.330 Z-11.200 I0.246 J-0.959 F180.000
G1 X21.801 Y-6.330 Z-11.400 F12.000
G2 X21.347 Y-7.989 Z-11.400 I-0.700 J-0.700 F180.000
G2 X20.141 Y-7.276 Z-11.400 I-0.246 J0.959 F180.000
G2 X20.854 Y-6.071 Z-11.400 I0.959 J0.246 F180.000
G2 X21.801 Y-6.330 Z-11.400 I0.246 J-0.959 F180.000
G1 X21.801 Y-6.330 Z-11.600 F12.000
G2 X21.347 Y-7.989 Z-11.600 I-0.700 J-0.700 F180.000
G2 X20.141 Y-7.276 Z-11.600 I-0.246 J0.959 F180.000
G2 X20.854 Y-6.071 Z-11.600 I0.959 J0.246 F180.000
G2 X21.801 Y-6.330 Z-11.600 I0.246 J-0.959 F180.000
G1 X21.801 Y-6.330 Z-11.800 F12.000
G2 X21.347 Y-7.989 Z-11.800 I-0.700 J-0.700 F180.000
G2 X20.141 Y-7.276 Z-11.800 I-0.246 J0.959 F180.000
G2 X20.854 Y-6.071 Z-11.800 I0.959 J0.246 F180.000
G2 X21.801 Y-6.330 Z-11.800 I0.246 J-0.959 F180.000
G1 X21.801 Y-6.330 Z-12.000 F12.000
G2 X21.347 Y-7.989 Z-12.000 I-0.700 J-0.700 F180.000
G2 X20.141 Y-7.276 Z-12.000 I-0.246 J0.959 F180.000
G2 X20.854 Y-6.071 Z-12.000 I0.959 J0.246 F180.000
G2 X21.801 Y-6.330 Z-12.000 I0.246 J-0.959 F180.000
G1 X21.801 Y-6.330 Z-12.200 F12.000
G2 X21.347 Y-7.989 Z-12.200 I-0.700 J-0.700 F180.000
G2 X20.141 Y-7.276 Z-12.200 I-0.246 J0.959 F180.000
G2 X20.854 Y-6.071 Z-12.200 I0.959 J0.246 F180.000
G2 X21.801 Y-6.330 Z-12.200 I0.246 J-0.959 F180.000
G1 X21.801 Y-6.330 Z-12.400 F12.000
G2 X21.347 Y-7.989 Z-12.400 I-0.700 J-0.700 F180.000
G2 X20.141 Y-7.276 Z-12.400 I-0.246 J0.959 F180.000
G2 X20.854 Y-6.071 Z-12.400 I0.959 J0.246 F180.000
G2 X21.801 Y-6.330 Z-12.400 I0.246 J-0.959 F180.000
G1 X21.801 Y-6.330 Z-12.450 F12.000
G2 X21.347 Y-7.989 Z-12.450 I-0.700 J-0.700 F180.000
G2 X20.141 Y-7.276 Z-12.450 I-0.246 J0.959 F180.000
G2 X20.854 Y-6.071 Z-12.450 I0.959 J0.246 F180.000
G2 X21.801 Y-6.330 Z-12.450 I0.246 J-0.959 F180.000
G0 Z5.000
(finish operation: Profile_Edges003)
(begin operation: T6: 4mm Endmill)
(machine: not set, mm/min)
(T6: 4mm Endmill)
M6 T6 G43 H6
M3 S3000
(finish operation: T6: 4mm Endmill)
(begin operation: Profile_Edges004)
(machine: not set, mm/min)
(Profile_Edges004)
(Compensated Tool Path. Diameter: 4.0)
G0 Z5.000
G0 X23.218 Y-4.913
G1 X23.218 Y-4.913 Z-9.200 F12.000
G2 X21.845 Y-9.930 Z-9.200 I-2.117 J-2.117 F180.000
G2 X20.356 Y-4.130 Z-9.200 I-0.745 J2.900 F180.000
G2 X23.218 Y-4.913 Z-9.200 I0.745 J-2.900 F180.000
G1 X23.218 Y-4.913 Z-9.400 F12.000
G2 X21.845 Y-9.930 Z-9.400 I-2.117 J-2.117 F180.000
G2 X20.356 Y-4.130 Z-9.400 I-0.745 J2.900 F180.000
G2 X23.218 Y-4.913 Z-9.400 I0.745 J-2.900 F180.000
G1 X23.218 Y-4.913 Z-9.600 F12.000
G2 X21.845 Y-9.930 Z-9.600 I-2.117 J-2.117 F180.000
G2 X20.356 Y-4.130 Z-9.600 I-0.745 J2.900 F180.000
G2 X23.218 Y-4.913 Z-9.600 I0.745 J-2.900 F180.000
G1 X23.218 Y-4.913 Z-9.800 F12.000
G2 X21.845 Y-9.930 Z-9.800 I-2.117 J-2.117 F180.000
G2 X20.356 Y-4.130 Z-9.800 I-0.745 J2.900 F180.000
G2 X23.218 Y-4.913 Z-9.800 I0.745 J-2.900 F180.000
G1 X23.218 Y-4.913 Z-10.000 F12.000
G2 X21.845 Y-9.930 Z-10.000 I-2.117 J-2.117 F180.000
G2 X20.356 Y-4.130 Z-10.000 I-0.745 J2.900 F180.000
G2 X23.218 Y-4.913 Z-10.000 I0.745 J-2.900 F180.000
G1 X23.218 Y-4.913 Z-10.200 F12.000
G2 X21.845 Y-9.930 Z-10.200 I-2.117 J-2.117 F180.000
G2 X20.356 Y-4.130 Z-10.200 I-0.745 J2.900 F180.000
G2 X23.218 Y-4.913 Z-10.200 I0.745 J-2.900 F180.000
G1 X23.218 Y-4.913 Z-10.400 F12.000
G2 X21.845 Y-9.930 Z-10.400 I-2.117 J-2.117 F180.000
G2 X20.356 Y-4.130 Z-10.400 I-0.745 J2.900 F180.000
G2 X23.218 Y-4.913 Z-10.400 I0.745 J-2.900 F180.000
G1 X23.218 Y-4.913 Z-10.600 F12.000
G2 X21.845 Y-9.930 Z-10.600 I-2.117 J-2.117 F180.000
G2 X20.356 Y-4.130 Z-10.600 I-0.745 J2.900 F180.000
G2 X23.218 Y-4.913 Z-10.600 I0.745 J-2.900 F180.000
G1 X23.218 Y-4.913 Z-10.800 F12.000
G2 X21.845 Y-9.930 Z-10.800 I-2.117 J-2.117 F180.000
G2 X20.356 Y-4.130 Z-10.800 I-0.745 J2.900 F180.000
G2 X23.218 Y-4.913 Z-10.800 I0.745 J-2.900 F180.000
G1 X23.218 Y-4.913 Z-11.000 F12.000
G2 X21.845 Y-9.930 Z-11.000 I-2.117 J-2.117 F180.000
G2 X20.356 Y-4.130 Z-11.000 I-0.745 J2.900 F180.000
G2 X23.218 Y-4.913 Z-11.000 I0.745 J-2.900 F180.000
G1 X23.218 Y-4.913 Z-11.200 F12.000
G2 X21.845 Y-9.930 Z-11.200 I-2.117 J-2.117 F180.000
G2 X20.356 Y-4.130 Z-11.200 I-0.745 J2.900 F180.000
G2 X23.218 Y-4.913 Z-11.200 I0.745 J-2.900 F180.000
G1 X23.218 Y-4.913 Z-11.400 F12.000
G2 X21.845 Y-9.930 Z-11.400 I-2.117 J-2.117 F180.000
G2 X20.356 Y-4.130 Z-11.400 I-0.745 J2.900 F180.000
G2 X23.218 Y-4.913 Z-11.400 I0.745 J-2.900 F180.000
G1 X23.218 Y-4.913 Z-11.600 F12.000
G2 X21.845 Y-9.930 Z-11.600 I-2.117 J-2.117 F180.000
G2 X20.356 Y-4.130 Z-11.600 I-0.745 J2.900 F180.000
G2 X23.218 Y-4.913 Z-11.600 I0.745 J-2.900 F180.000
G1 X23.218 Y-4.913 Z-11.800 F12.000
G2 X21.845 Y-9.930 Z-11.800 I-2.117 J-2.117 F180.000
G2 X20.356 Y-4.130 Z-11.800 I-0.745 J2.900 F180.000
G2 X23.218 Y-4.913 Z-11.800 I0.745 J-2.900 F180.000
G1 X23.218 Y-4.913 Z-12.000 F12.000
G2 X21.845 Y-9.930 Z-12.000 I-2.117 J-2.117 F180.000
G2 X20.356 Y-4.130 Z-12.000 I-0.745 J2.900 F180.000
G2 X23.218 Y-4.913 Z-12.000 I0.745 J-2.900 F180.000
G1 X23.218 Y-4.913 Z-12.200 F12.000
G2 X21.845 Y-9.930 Z-12.200 I-2.117 J-2.117 F180.000
G2 X20.356 Y-4.130 Z-12.200 I-0.745 J2.900 F180.000
G2 X23.218 Y-4.913 Z-12.200 I0.745 J-2.900 F180.000
G1 X23.218 Y-4.913 Z-12.400 F12.000
G2 X21.845 Y-9.930 Z-12.400 I-2.117 J-2.117 F180.000
G2 X20.356 Y-4.130 Z-12.400 I-0.745 J2.900 F180.000
G2 X23.218 Y-4.913 Z-12.400 I0.745 J-2.900 F180.000
G1 X23.218 Y-4.913 Z-12.450 F12.000
G2 X21.845 Y-9.930 Z-12.450 I-2.117 J-2.117 F180.000
G2 X20.356 Y-4.130 Z-12.450 I-0.745 J2.900 F180.000
G2 X23.218 Y-4.913 Z-12.450 I0.745 J-2.900 F180.000
G0 Z5.000
(finish operation: Profile_Edges004)
(begin postamble)
M05
G17 G54 G90 G80 G40
M2
