(Exported by FreeCAD)
(Post Processor: linuxcnc_post)
(Output Time:2019-04-25 13:06:29.415374)
(begin preamble)
G17 G54 G40 G49 G80 G90
G21
M8
(begin operation: T4: 12mm Endmill)
(machine: not set, mm/min)
(T4: 12mm Endmill)
M6 T4 G43 H4
M3 S3000
(finish operation: T4: 12mm Endmill)
(begin operation: Profile_Edges)
(machine: not set, mm/min)
(Profile_Edges)
(Compensated Tool Path. Diameter: 12.0)
G0 Z5.000
G0 X31.347 Y1.644
G0 Z3.000
G1 X31.347 Y1.644 Z-0.500 F30.000
G2 X34.497 Y-4.256 Z-0.500 I-8.137 J-8.134 F720.000
G2 X34.720 Y-7.485 Z-0.500 I-13.686 J-2.566 F720.000
G2 X23.556 Y-18.976 Z-0.500 I-11.504 J0.008 F720.000
G1 X0.995 Y-18.985 Z-0.500 F720.000
G2 X-5.005 Y-12.985 Z-0.500 I0.000 J6.000 F720.000
G1 X-5.005 Y-0.985 Z-0.500 F720.000
G2 X0.995 Y5.015 Z-0.500 I6.000 J-0.000 F720.000
G1 X23.220 Y5.015 Z-0.500 F720.000
G2 X31.347 Y1.644 Z-0.500 I-0.009 J-11.505 F720.000
G1 X31.347 Y1.644 Z-1.000 F30.000
G2 X34.497 Y-4.256 Z-1.000 I-8.137 J-8.134 F720.000
G2 X34.720 Y-7.485 Z-1.000 I-13.686 J-2.566 F720.000
G2 X23.556 Y-18.976 Z-1.000 I-11.504 J0.008 F720.000
G1 X0.995 Y-18.985 Z-1.000 F720.000
G2 X-5.005 Y-12.985 Z-1.000 I0.000 J6.000 F720.000
G1 X-5.005 Y-0.985 Z-1.000 F720.000
G2 X0.995 Y5.015 Z-1.000 I6.000 J-0.000 F720.000
G1 X23.220 Y5.015 Z-1.000 F720.000
G2 X31.347 Y1.644 Z-1.000 I-0.009 J-11.505 F720.000
G1 X31.347 Y1.644 Z-1.500 F30.000
G2 X34.497 Y-4.256 Z-1.500 I-8.137 J-8.134 F720.000
G2 X34.720 Y-7.485 Z-1.500 I-13.686 J-2.566 F720.000
G2 X23.556 Y-18.976 Z-1.500 I-11.504 J0.008 F720.000
G1 X0.995 Y-18.985 Z-1.500 F720.000
G2 X-5.005 Y-12.985 Z-1.500 I0.000 J6.000 F720.000
G1 X-5.005 Y-0.985 Z-1.500 F720.000
G2 X0.995 Y5.015 Z-1.500 I6.000 J-0.000 F720.000
G1 X23.220 Y5.015 Z-1.500 F720.000
G2 X31.347 Y1.644 Z-1.500 I-0.009 J-11.505 F720.000
G1 X31.347 Y1.644 Z-2.000 F30.000
G2 X34.497 Y-4.256 Z-2.000 I-8.137 J-8.134 F720.000
G2 X34.720 Y-7.485 Z-2.000 I-13.686 J-2.566 F720.000
G2 X23.556 Y-18.976 Z-2.000 I-11.504 J0.008 F720.000
G1 X0.995 Y-18.985 Z-2.000 F720.000
G2 X-5.005 Y-12.985 Z-2.000 I0.000 J6.000 F720.000
G1 X-5.005 Y-0.985 Z-2.000 F720.000
G2 X0.995 Y5.015 Z-2.000 I6.000 J-0.000 F720.000
G1 X23.220 Y5.015 Z-2.000 F720.000
G2 X31.347 Y1.644 Z-2.000 I-0.009 J-11.505 F720.000
G1 X31.347 Y1.644 Z-2.500 F30.000
G2 X34.497 Y-4.256 Z-2.500 I-8.137 J-8.134 F720.000
G2 X34.720 Y-7.485 Z-2.500 I-13.686 J-2.566 F720.000
G2 X23.556 Y-18.976 Z-2.500 I-11.504 J0.008 F720.000
G1 X0.995 Y-18.985 Z-2.500 F720.000
G2 X-5.005 Y-12.985 Z-2.500 I0.000 J6.000 F720.000
G1 X-5.005 Y-0.985 Z-2.500 F720.000
G2 X0.995 Y5.015 Z-2.500 I6.000 J-0.000 F720.000
G1 X23.220 Y5.015 Z-2.500 F720.000
G2 X31.347 Y1.644 Z-2.500 I-0.009 J-11.505 F720.000
G1 X31.347 Y1.644 Z-3.000 F30.000
G2 X34.497 Y-4.256 Z-3.000 I-8.137 J-8.134 F720.000
G2 X34.720 Y-7.485 Z-3.000 I-13.686 J-2.566 F720.000
G2 X23.556 Y-18.976 Z-3.000 I-11.504 J0.008 F720.000
G1 X0.995 Y-18.985 Z-3.000 F720.000
G2 X-5.005 Y-12.985 Z-3.000 I0.000 J6.000 F720.000
G1 X-5.005 Y-0.985 Z-3.000 F720.000
G2 X0.995 Y5.015 Z-3.000 I6.000 J-0.000 F720.000
G1 X23.220 Y5.015 Z-3.000 F720.000
G2 X31.347 Y1.644 Z-3.000 I-0.009 J-11.505 F720.000
G1 X31.347 Y1.644 Z-3.500 F30.000
G2 X34.497 Y-4.256 Z-3.500 I-8.137 J-8.134 F720.000
G2 X34.720 Y-7.485 Z-3.500 I-13.686 J-2.566 F720.000
G2 X23.556 Y-18.976 Z-3.500 I-11.504 J0.008 F720.000
G1 X0.995 Y-18.985 Z-3.500 F720.000
G2 X-5.005 Y-12.985 Z-3.500 I0.000 J6.000 F720.000
G1 X-5.005 Y-0.985 Z-3.500 F720.000
G2 X0.995 Y5.015 Z-3.500 I6.000 J-0.000 F720.000
G1 X23.220 Y5.015 Z-3.500 F720.000
G2 X31.347 Y1.644 Z-3.500 I-0.009 J-11.505 F720.000
G1 X31.347 Y1.644 Z-4.000 F30.000
G2 X34.497 Y-4.256 Z-4.000 I-8.137 J-8.134 F720.000
G2 X34.720 Y-7.485 Z-4.000 I-13.686 J-2.566 F720.000
G2 X23.556 Y-18.976 Z-4.000 I-11.504 J0.008 F720.000
G1 X0.995 Y-18.985 Z-4.000 F720.000
G2 X-5.005 Y-12.985 Z-4.000 I0.000 J6.000 F720.000
G1 X-5.005 Y-0.985 Z-4.000 F720.000
G2 X0.995 Y5.015 Z-4.000 I6.000 J-0.000 F720.000
G1 X23.220 Y5.015 Z-4.000 F720.000
G2 X31.347 Y1.644 Z-4.000 I-0.009 J-11.505 F720.000
G1 X31.347 Y1.644 Z-4.500 F30.000
G2 X34.497 Y-4.256 Z-4.500 I-8.137 J-8.134 F720.000
G2 X34.720 Y-7.485 Z-4.500 I-13.686 J-2.566 F720.000
G2 X23.556 Y-18.976 Z-4.500 I-11.504 J0.008 F720.000
G1 X0.995 Y-18.985 Z-4.500 F720.000
G2 X-5.005 Y-12.985 Z-4.500 I0.000 J6.000 F720.000
G1 X-5.005 Y-0.985 Z-4.500 F720.000
G2 X0.995 Y5.015 Z-4.500 I6.000 J-0.000 F720.000
G1 X23.220 Y5.015 Z-4.500 F720.000
G2 X31.347 Y1.644 Z-4.500 I-0.009 J-11.505 F720.000
G1 X31.347 Y1.644 Z-5.000 F30.000
G2 X34.497 Y-4.256 Z-5.000 I-8.137 J-8.134 F720.000
G2 X34.720 Y-7.485 Z-5.000 I-13.686 J-2.566 F720.000
G2 X23.556 Y-18.976 Z-5.000 I-11.504 J0.008 F720.000
G1 X0.995 Y-18.985 Z-5.000 F720.000
G2 X-5.005 Y-12.985 Z-5.000 I0.000 J6.000 F720.000
G1 X-5.005 Y-0.985 Z-5.000 F720.000
G2 X0.995 Y5.015 Z-5.000 I6.000 J-0.000 F720.000
G1 X23.220 Y5.015 Z-5.000 F720.000
G2 X31.347 Y1.644 Z-5.000 I-0.009 J-11.505 F720.000
G1 X31.347 Y1.644 Z-5.500 F30.000
G2 X34.497 Y-4.256 Z-5.500 I-8.137 J-8.134 F720.000
G2 X34.720 Y-7.485 Z-5.500 I-13.686 J-2.566 F720.000
G2 X23.556 Y-18.976 Z-5.500 I-11.504 J0.008 F720.000
G1 X0.995 Y-18.985 Z-5.500 F720.000
G2 X-5.005 Y-12.985 Z-5.500 I0.000 J6.000 F720.000
G1 X-5.005 Y-0.985 Z-5.500 F720.000
G2 X0.995 Y5.015 Z-5.500 I6.000 J-0.000 F720.000
G1 X23.220 Y5.015 Z-5.500 F720.000
G2 X31.347 Y1.644 Z-5.500 I-0.009 J-11.505 F720.000
G1 X31.347 Y1.644 Z-6.000 F30.000
G2 X34.497 Y-4.256 Z-6.000 I-8.137 J-8.134 F720.000
G2 X34.720 Y-7.485 Z-6.000 I-13.686 J-2.566 F720.000
G2 X23.556 Y-18.976 Z-6.000 I-11.504 J0.008 F720.000
G1 X0.995 Y-18.985 Z-6.000 F720.000
G2 X-5.005 Y-12.985 Z-6.000 I0.000 J6.000 F720.000
G1 X-5.005 Y-0.985 Z-6.000 F720.000
G2 X0.995 Y5.015 Z-6.000 I6.000 J-0.000 F720.000
G1 X23.220 Y5.015 Z-6.000 F720.000
G2 X31.347 Y1.644 Z-6.000 I-0.009 J-11.505 F720.000
G1 X31.347 Y1.644 Z-6.500 F30.000
G2 X34.497 Y-4.256 Z-6.500 I-8.137 J-8.134 F720.000
G2 X34.720 Y-7.485 Z-6.500 I-13.686 J-2.566 F720.000
G2 X23.556 Y-18.976 Z-6.500 I-11.504 J0.008 F720.000
G1 X0.995 Y-18.985 Z-6.500 F720.000
G2 X-5.005 Y-12.985 Z-6.500 I0.000 J6.000 F720.000
G1 X-5.005 Y-0.985 Z-6.500 F720.000
G2 X0.995 Y5.015 Z-6.500 I6.000 J-0.000 F720.000
G1 X23.220 Y5.015 Z-6.500 F720.000
G2 X31.347 Y1.644 Z-6.500 I-0.009 J-11.505 F720.000
G1 X31.347 Y1.644 Z-7.000 F30.000
G2 X34.497 Y-4.256 Z-7.000 I-8.137 J-8.134 F720.000
G2 X34.720 Y-7.485 Z-7.000 I-13.686 J-2.566 F720.000
G2 X23.556 Y-18.976 Z-7.000 I-11.504 J0.008 F720.000
G1 X0.995 Y-18.985 Z-7.000 F720.000
G2 X-5.005 Y-12.985 Z-7.000 I0.000 J6.000 F720.000
G1 X-5.005 Y-0.985 Z-7.000 F720.000
G2 X0.995 Y5.015 Z-7.000 I6.000 J-0.000 F720.000
G1 X23.220 Y5.015 Z-7.000 F720.000
G2 X31.347 Y1.644 Z-7.000 I-0.009 J-11.505 F720.000
G1 X31.347 Y1.644 Z-7.500 F30.000
G2 X34.497 Y-4.256 Z-7.500 I-8.137 J-8.134 F720.000
G2 X34.720 Y-7.485 Z-7.500 I-13.686 J-2.566 F720.000
G2 X23.556 Y-18.976 Z-7.500 I-11.504 J0.008 F720.000
G1 X0.995 Y-18.985 Z-7.500 F720.000
G2 X-5.005 Y-12.985 Z-7.500 I0.000 J6.000 F720.000
G1 X-5.005 Y-0.985 Z-7.500 F720.000
G2 X0.995 Y5.015 Z-7.500 I6.000 J-0.000 F720.000
G1 X23.220 Y5.015 Z-7.500 F720.000
G2 X31.347 Y1.644 Z-7.500 I-0.009 J-11.505 F720.000
G1 X31.347 Y1.644 Z-8.000 F30.000
G2 X34.497 Y-4.256 Z-8.000 I-8.137 J-8.134 F720.000
G2 X34.720 Y-7.485 Z-8.000 I-13.686 J-2.566 F720.000
G2 X23.556 Y-18.976 Z-8.000 I-11.504 J0.008 F720.000
G1 X0.995 Y-18.985 Z-8.000 F720.000
G2 X-5.005 Y-12.985 Z-8.000 I0.000 J6.000 F720.000
G1 X-5.005 Y-0.985 Z-8.000 F720.000
G2 X0.995 Y5.015 Z-8.000 I6.000 J-0.000 F720.000
G1 X23.220 Y5.015 Z-8.000 F720.000
G2 X31.347 Y1.644 Z-8.000 I-0.009 J-11.505 F720.000
G1 X31.347 Y1.644 Z-8.500 F30.000
G2 X34.497 Y-4.256 Z-8.500 I-8.137 J-8.134 F720.000
G2 X34.720 Y-7.485 Z-8.500 I-13.686 J-2.566 F720.000
G2 X23.556 Y-18.976 Z-8.500 I-11.504 J0.008 F720.000
G1 X0.995 Y-18.985 Z-8.500 F720.000
G2 X-5.005 Y-12.985 Z-8.500 I0.000 J6.000 F720.000
G1 X-5.005 Y-0.985 Z-8.500 F720.000
G2 X0.995 Y5.015 Z-8.500 I6.000 J-0.000 F720.000
G1 X23.220 Y5.015 Z-8.500 F720.000
G2 X31.347 Y1.644 Z-8.500 I-0.009 J-11.505 F720.000
G1 X31.347 Y1.644 Z-9.000 F30.000
G2 X34.497 Y-4.256 Z-9.000 I-8.137 J-8.134 F720.000
G2 X34.720 Y-7.485 Z-9.000 I-13.686 J-2.566 F720.000
G2 X23.556 Y-18.976 Z-9.000 I-11.504 J0.008 F720.000
G1 X0.995 Y-18.985 Z-9.000 F720.000
G2 X-5.005 Y-12.985 Z-9.000 I0.000 J6.000 F720.000
G1 X-5.005 Y-0.985 Z-9.000 F720.000
G2 X0.995 Y5.015 Z-9.000 I6.000 J-0.000 F720.000
G1 X23.220 Y5.015 Z-9.000 F720.000
G2 X31.347 Y1.644 Z-9.000 I-0.009 J-11.505 F720.000
G1 X31.347 Y1.644 Z-9.500 F30.000
G2 X34.497 Y-4.256 Z-9.500 I-8.137 J-8.134 F720.000
G2 X34.720 Y-7.485 Z-9.500 I-13.686 J-2.566 F720.000
G2 X23.556 Y-18.976 Z-9.500 I-11.504 J0.008 F720.000
G1 X0.995 Y-18.985 Z-9.500 F720.000
G2 X-5.005 Y-12.985 Z-9.500 I0.000 J6.000 F720.000
G1 X-5.005 Y-0.985 Z-9.500 F720.000
G2 X0.995 Y5.015 Z-9.500 I6.000 J-0.000 F720.000
G1 X23.220 Y5.015 Z-9.500 F720.000
G2 X31.347 Y1.644 Z-9.500 I-0.009 J-11.505 F720.000
G1 X31.347 Y1.644 Z-10.000 F30.000
G2 X34.497 Y-4.256 Z-10.000 I-8.137 J-8.134 F720.000
G2 X34.720 Y-7.485 Z-10.000 I-13.686 J-2.566 F720.000
G2 X23.556 Y-18.976 Z-10.000 I-11.504 J0.008 F720.000
G1 X0.995 Y-18.985 Z-10.000 F720.000
G2 X-5.005 Y-12.985 Z-10.000 I0.000 J6.000 F720.000
G1 X-5.005 Y-0.985 Z-10.000 F720.000
G2 X0.995 Y5.015 Z-10.000 I6.000 J-0.000 F720.000
G1 X23.220 Y5.015 Z-10.000 F720.000
G2 X31.347 Y1.644 Z-10.000 I-0.009 J-11.505 F720.000
G1 X31.347 Y1.644 Z-10.500 F30.000
G2 X34.497 Y-4.256 Z-10.500 I-8.137 J-8.134 F720.000
G2 X34.720 Y-7.485 Z-10.500 I-13.686 J-2.566 F720.000
G2 X23.556 Y-18.976 Z-10.500 I-11.504 J0.008 F720.000
G1 X0.995 Y-18.985 Z-10.500 F720.000
G2 X-5.005 Y-12.985 Z-10.500 I0.000 J6.000 F720.000
G1 X-5.005 Y-0.985 Z-10.500 F720.000
G2 X0.995 Y5.015 Z-10.500 I6.000 J-0.000 F720.000
G1 X23.220 Y5.015 Z-10.500 F720.000
G2 X31.347 Y1.644 Z-10.500 I-0.009 J-11.505 F720.000
G1 X31.347 Y1.644 Z-11.000 F30.000
G2 X34.497 Y-4.256 Z-11.000 I-8.137 J-8.134 F720.000
G2 X34.720 Y-7.485 Z-11.000 I-13.686 J-2.566 F720.000
G2 X23.556 Y-18.976 Z-11.000 I-11.504 J0.008 F720.000
G1 X0.995 Y-18.985 Z-11.000 F720.000
G2 X-5.005 Y-12.985 Z-11.000 I0.000 J6.000 F720.000
G1 X-5.005 Y-0.985 Z-11.000 F720.000
G2 X0.995 Y5.015 Z-11.000 I6.000 J-0.000 F720.000
G1 X23.220 Y5.015 Z-11.000 F720.000
G2 X31.347 Y1.644 Z-11.000 I-0.009 J-11.505 F720.000
G1 X31.347 Y1.644 Z-11.500 F30.000
G2 X34.497 Y-4.256 Z-11.500 I-8.137 J-8.134 F720.000
G2 X34.720 Y-7.485 Z-11.500 I-13.686 J-2.566 F720.000
G2 X23.556 Y-18.976 Z-11.500 I-11.504 J0.008 F720.000
G1 X0.995 Y-18.985 Z-11.500 F720.000
G2 X-5.005 Y-12.985 Z-11.500 I0.000 J6.000 F720.000
G1 X-5.005 Y-0.985 Z-11.500 F720.000
G2 X0.995 Y5.015 Z-11.500 I6.000 J-0.000 F720.000
G1 X23.220 Y5.015 Z-11.500 F720.000
G2 X31.347 Y1.644 Z-11.500 I-0.009 J-11.505 F720.000
G1 X31.347 Y1.644 Z-12.000 F30.000
G2 X34.497 Y-4.256 Z-12.000 I-8.137 J-8.134 F720.000
G2 X34.720 Y-7.485 Z-12.000 I-13.686 J-2.566 F720.000
G2 X23.556 Y-18.976 Z-12.000 I-11.504 J0.008 F720.000
G1 X0.995 Y-18.985 Z-12.000 F720.000
G2 X-5.005 Y-12.985 Z-12.000 I0.000 J6.000 F720.000
G1 X-5.005 Y-0.985 Z-12.000 F720.000
G2 X0.995 Y5.015 Z-12.000 I6.000 J-0.000 F720.000
G1 X23.220 Y5.015 Z-12.000 F720.000
G2 X31.347 Y1.644 Z-12.000 I-0.009 J-11.505 F720.000
G1 X31.347 Y1.644 Z-12.500 F30.000
G2 X34.497 Y-4.256 Z-12.500 I-8.137 J-8.134 F720.000
G2 X34.720 Y-7.485 Z-12.500 I-13.686 J-2.566 F720.000
G2 X23.556 Y-18.976 Z-12.500 I-11.504 J0.008 F720.000
G1 X0.995 Y-18.985 Z-12.500 F720.000
G2 X-5.005 Y-12.985 Z-12.500 I0.000 J6.000 F720.000
G1 X-5.005 Y-0.985 Z-12.500 F720.000
G2 X0.995 Y5.015 Z-12.500 I6.000 J-0.000 F720.000
G1 X23.220 Y5.015 Z-12.500 F720.000
G2 X31.347 Y1.644 Z-12.500 I-0.009 J-11.505 F720.000
G1 X31.347 Y1.644 Z-13.000 F30.000
G2 X34.497 Y-4.256 Z-13.000 I-8.137 J-8.134 F720.000
G2 X34.720 Y-7.485 Z-13.000 I-13.686 J-2.566 F720.000
G2 X23.556 Y-18.976 Z-13.000 I-11.504 J0.008 F720.000
G1 X0.995 Y-18.985 Z-13.000 F720.000
G2 X-5.005 Y-12.985 Z-13.000 I0.000 J6.000 F720.000
G1 X-5.005 Y-0.985 Z-13.000 F720.000
G2 X0.995 Y5.015 Z-13.000 I6.000 J-0.000 F720.000
G1 X23.220 Y5.015 Z-13.000 F720.000
G2 X31.347 Y1.644 Z-13.000 I-0.009 J-11.505 F720.000
G1 X31.347 Y1.644 Z-13.500 F30.000
G2 X34.497 Y-4.256 Z-13.500 I-8.137 J-8.134 F720.000
G2 X34.720 Y-7.485 Z-13.500 I-13.686 J-2.566 F720.000
G2 X23.556 Y-18.976 Z-13.500 I-11.504 J0.008 F720.000
G1 X0.995 Y-18.985 Z-13.500 F720.000
G2 X-5.005 Y-12.985 Z-13.500 I0.000 J6.000 F720.000
G1 X-5.005 Y-0.985 Z-13.500 F720.000
G2 X0.995 Y5.015 Z-13.500 I6.000 J-0.000 F720.000
G1 X23.220 Y5.015 Z-13.500 F720.000
G2 X31.347 Y1.644 Z-13.500 I-0.009 J-11.505 F720.000
G1 X31.347 Y1.644 Z-14.000 F30.000
G2 X34.497 Y-4.256 Z-14.000 I-8.137 J-8.134 F720.000
G2 X34.720 Y-7.485 Z-14.000 I-13.686 J-2.566 F720.000
G2 X23.556 Y-18.976 Z-14.000 I-11.504 J0.008 F720.000
G1 X0.995 Y-18.985 Z-14.000 F720.000
G2 X-5.005 Y-12.985 Z-14.000 I0.000 J6.000 F720.000
G1 X-5.005 Y-0.985 Z-14.000 F720.000
G2 X0.995 Y5.015 Z-14.000 I6.000 J-0.000 F720.000
G1 X23.220 Y5.015 Z-14.000 F720.000
G2 X31.347 Y1.644 Z-14.000 I-0.009 J-11.505 F720.000
G1 X31.347 Y1.644 Z-14.200 F30.000
G2 X34.497 Y-4.256 Z-14.200 I-8.137 J-8.134 F720.000
G2 X34.720 Y-7.485 Z-14.200 I-13.686 J-2.566 F720.000
G2 X23.556 Y-18.976 Z-14.200 I-11.504 J0.008 F720.000
G1 X0.995 Y-18.985 Z-14.200 F720.000
G2 X-5.005 Y-12.985 Z-14.200 I0.000 J6.000 F720.000
G1 X-5.005 Y-0.985 Z-14.200 F720.000
G2 X0.995 Y5.015 Z-14.200 I6.000 J-0.000 F720.000
G1 X23.220 Y5.015 Z-14.200 F720.000
G2 X31.347 Y1.644 Z-14.200 I-0.009 J-11.505 F720.000
G0 Z5.000
(finish operation: Profile_Edges)
(begin operation: T4: 12mm Endmill)
(machine: not set, mm/min)
(T4: 12mm Endmill)
M6 T4 G43 H4
M3 S3000
(finish operation: T4: 12mm Endmill)
(begin operation: Profile_Edges001)
(machine: not set, mm/min)
(Profile_Edges001)
(Compensated Tool Path. Diameter: 12.0)
G0 Z5.000
G0 X23.824 Y4.515
G0 Z3.000
G1 X23.824 Y4.515 Z-0.500 F30.000
G1 X23.824 Y-13.985 Z-0.500 F720.000
G1 X17.495 Y-13.985 Z-0.500 F720.000
G1 X17.495 Y-2.485 Z-0.500 F720.000
G3 X11.495 Y3.515 Z-0.500 I-6.000 J-0.000 F720.000
G1 X-0.005 Y3.515 Z-0.500 F720.000
G1 X-0.005 Y4.515 Z-0.500 F720.000
G1 X23.824 Y4.515 Z-0.500 F720.000
G1 X23.824 Y4.515 Z-1.000 F30.000
G1 X23.824 Y-13.985 Z-1.000 F720.000
G1 X17.495 Y-13.985 Z-1.000 F720.000
G1 X17.495 Y-2.485 Z-1.000 F720.000
G3 X11.495 Y3.515 Z-1.000 I-6.000 J-0.000 F720.000
G1 X-0.005 Y3.515 Z-1.000 F720.000
G1 X-0.005 Y4.515 Z-1.000 F720.000
G1 X23.824 Y4.515 Z-1.000 F720.000
G1 X23.824 Y4.515 Z-1.500 F30.000
G1 X23.824 Y-13.985 Z-1.500 F720.000
G1 X17.495 Y-13.985 Z-1.500 F720.000
G1 X17.495 Y-2.485 Z-1.500 F720.000
G3 X11.495 Y3.515 Z-1.500 I-6.000 J-0.000 F720.000
G1 X-0.005 Y3.515 Z-1.500 F720.000
G1 X-0.005 Y4.515 Z-1.500 F720.000
G1 X23.824 Y4.515 Z-1.500 F720.000
G1 X23.824 Y4.515 Z-2.000 F30.000
G1 X23.824 Y-13.985 Z-2.000 F720.000
G1 X17.495 Y-13.985 Z-2.000 F720.000
G1 X17.495 Y-2.485 Z-2.000 F720.000
G3 X11.495 Y3.515 Z-2.000 I-6.000 J-0.000 F720.000
G1 X-0.005 Y3.515 Z-2.000 F720.000
G1 X-0.005 Y4.515 Z-2.000 F720.000
G1 X23.824 Y4.515 Z-2.000 F720.000
G1 X23.824 Y4.515 Z-2.500 F30.000
G1 X23.824 Y-13.985 Z-2.500 F720.000
G1 X17.495 Y-13.985 Z-2.500 F720.000
G1 X17.495 Y-2.485 Z-2.500 F720.000
G3 X11.495 Y3.515 Z-2.500 I-6.000 J-0.000 F720.000
G1 X-0.005 Y3.515 Z-2.500 F720.000
G1 X-0.005 Y4.515 Z-2.500 F720.000
G1 X23.824 Y4.515 Z-2.500 F720.000
G1 X23.824 Y4.515 Z-3.000 F30.000
G1 X23.824 Y-13.985 Z-3.000 F720.000
G1 X17.495 Y-13.985 Z-3.000 F720.000
G1 X17.495 Y-2.485 Z-3.000 F720.000
G3 X11.495 Y3.515 Z-3.000 I-6.000 J-0.000 F720.000
G1 X-0.005 Y3.515 Z-3.000 F720.000
G1 X-0.005 Y4.515 Z-3.000 F720.000
G1 X23.824 Y4.515 Z-3.000 F720.000
G1 X23.824 Y4.515 Z-3.500 F30.000
G1 X23.824 Y-13.985 Z-3.500 F720.000
G1 X17.495 Y-13.985 Z-3.500 F720.000
G1 X17.495 Y-2.485 Z-3.500 F720.000
G3 X11.495 Y3.515 Z-3.500 I-6.000 J-0.000 F720.000
G1 X-0.005 Y3.515 Z-3.500 F720.000
G1 X-0.005 Y4.515 Z-3.500 F720.000
G1 X23.824 Y4.515 Z-3.500 F720.000
G1 X23.824 Y4.515 Z-4.000 F30.000
G1 X23.824 Y-13.985 Z-4.000 F720.000
G1 X17.495 Y-13.985 Z-4.000 F720.000
G1 X17.495 Y-2.485 Z-4.000 F720.000
G3 X11.495 Y3.515 Z-4.000 I-6.000 J-0.000 F720.000
G1 X-0.005 Y3.515 Z-4.000 F720.000
G1 X-0.005 Y4.515 Z-4.000 F720.000
G1 X23.824 Y4.515 Z-4.000 F720.000
G1 X23.824 Y4.515 Z-4.500 F30.000
G1 X23.824 Y-13.985 Z-4.500 F720.000
G1 X17.495 Y-13.985 Z-4.500 F720.000
G1 X17.495 Y-2.485 Z-4.500 F720.000
G3 X11.495 Y3.515 Z-4.500 I-6.000 J-0.000 F720.000
G1 X-0.005 Y3.515 Z-4.500 F720.000
G1 X-0.005 Y4.515 Z-4.500 F720.000
G1 X23.824 Y4.515 Z-4.500 F720.000
G1 X23.824 Y4.515 Z-5.000 F30.000
G1 X23.824 Y-13.985 Z-5.000 F720.000
G1 X17.495 Y-13.985 Z-5.000 F720.000
G1 X17.495 Y-2.485 Z-5.000 F720.000
G3 X11.495 Y3.515 Z-5.000 I-6.000 J-0.000 F720.000
G1 X-0.005 Y3.515 Z-5.000 F720.000
G1 X-0.005 Y4.515 Z-5.000 F720.000
G1 X23.824 Y4.515 Z-5.000 F720.000
G1 X23.824 Y4.515 Z-5.500 F30.000
G1 X23.824 Y-13.985 Z-5.500 F720.000
G1 X17.495 Y-13.985 Z-5.500 F720.000
G1 X17.495 Y-2.485 Z-5.500 F720.000
G3 X11.495 Y3.515 Z-5.500 I-6.000 J-0.000 F720.000
G1 X-0.005 Y3.515 Z-5.500 F720.000
G1 X-0.005 Y4.515 Z-5.500 F720.000
G1 X23.824 Y4.515 Z-5.500 F720.000
G1 X23.824 Y4.515 Z-6.000 F30.000
G1 X23.824 Y-13.985 Z-6.000 F720.000
G1 X17.495 Y-13.985 Z-6.000 F720.000
G1 X17.495 Y-2.485 Z-6.000 F720.000
G3 X11.495 Y3.515 Z-6.000 I-6.000 J-0.000 F720.000
G1 X-0.005 Y3.515 Z-6.000 F720.000
G1 X-0.005 Y4.515 Z-6.000 F720.000
G1 X23.824 Y4.515 Z-6.000 F720.000
G1 X23.824 Y4.515 Z-6.500 F30.000
G1 X23.824 Y-13.985 Z-6.500 F720.000
G1 X17.495 Y-13.985 Z-6.500 F720.000
G1 X17.495 Y-2.485 Z-6.500 F720.000
G3 X11.495 Y3.515 Z-6.500 I-6.000 J-0.000 F720.000
G1 X-0.005 Y3.515 Z-6.500 F720.000
G1 X-0.005 Y4.515 Z-6.500 F720.000
G1 X23.824 Y4.515 Z-6.500 F720.000
G1 X23.824 Y4.515 Z-7.000 F30.000
G1 X23.824 Y-13.985 Z-7.000 F720.000
G1 X17.495 Y-13.985 Z-7.000 F720.000
G1 X17.495 Y-2.485 Z-7.000 F720.000
G3 X11.495 Y3.515 Z-7.000 I-6.000 J-0.000 F720.000
G1 X-0.005 Y3.515 Z-7.000 F720.000
G1 X-0.005 Y4.515 Z-7.000 F720.000
G1 X23.824 Y4.515 Z-7.000 F720.000
G1 X23.824 Y4.515 Z-7.500 F30.000
G1 X23.824 Y-13.985 Z-7.500 F720.000
G1 X17.495 Y-13.985 Z-7.500 F720.000
G1 X17.495 Y-2.485 Z-7.500 F720.000
G3 X11.495 Y3.515 Z-7.500 I-6.000 J-0.000 F720.000
G1 X-0.005 Y3.515 Z-7.500 F720.000
G1 X-0.005 Y4.515 Z-7.500 F720.000
G1 X23.824 Y4.515 Z-7.500 F720.000
G1 X23.824 Y4.515 Z-8.000 F30.000
G1 X23.824 Y-13.985 Z-8.000 F720.000
G1 X17.495 Y-13.985 Z-8.000 F720.000
G1 X17.495 Y-2.485 Z-8.000 F720.000
G3 X11.495 Y3.515 Z-8.000 I-6.000 J-0.000 F720.000
G1 X-0.005 Y3.515 Z-8.000 F720.000
G1 X-0.005 Y4.515 Z-8.000 F720.000
G1 X23.824 Y4.515 Z-8.000 F720.000
G1 X23.824 Y4.515 Z-8.500 F30.000
G1 X23.824 Y-13.985 Z-8.500 F720.000
G1 X17.495 Y-13.985 Z-8.500 F720.000
G1 X17.495 Y-2.485 Z-8.500 F720.000
G3 X11.495 Y3.515 Z-8.500 I-6.000 J-0.000 F720.000
G1 X-0.005 Y3.515 Z-8.500 F720.000
G1 X-0.005 Y4.515 Z-8.500 F720.000
G1 X23.824 Y4.515 Z-8.500 F720.000
G1 X23.824 Y4.515 Z-9.000 F30.000
G1 X23.824 Y-13.985 Z-9.000 F720.000
G1 X17.495 Y-13.985 Z-9.000 F720.000
G1 X17.495 Y-2.485 Z-9.000 F720.000
G3 X11.495 Y3.515 Z-9.000 I-6.000 J-0.000 F720.000
G1 X-0.005 Y3.515 Z-9.000 F720.000
G1 X-0.005 Y4.515 Z-9.000 F720.000
G1 X23.824 Y4.515 Z-9.000 F720.000
G1 X23.824 Y4.515 Z-9.000 F30.000
G1 X23.824 Y-13.985 Z-9.000 F720.000
G1 X17.495 Y-13.985 Z-9.000 F720.000
G1 X17.495 Y-2.485 Z-9.000 F720.000
G3 X11.495 Y3.515 Z-9.000 I-6.000 J-0.000 F720.000
G1 X-0.005 Y3.515 Z-9.000 F720.000
G1 X-0.005 Y4.515 Z-9.000 F720.000
G1 X23.824 Y4.515 Z-9.000 F720.000
G0 Z5.000
(finish operation: Profile_Edges001)
(begin operation: T6: 4mm Endmill)
(machine: not set, mm/min)
(T6: 4mm Endmill)
M6 T6 G43 H6
M3 S3000
(finish operation: T6: 4mm Endmill)
(begin operation: Profile_Edges002)
(machine: not set, mm/min)
(Profile_Edges002)
(Compensated Tool Path. Diameter: 4.0)
G0 Z5.000
G0 X7.177 Y-6.299
G0 Z3.000
G1 X7.177 Y-6.299 Z-0.200 F12.000
G2 X7.468 Y-7.049 Z-0.200 I-0.705 J-0.705 F180.000
G2 X6.420 Y-7.992 Z-0.200 I-0.995 J0.052 F180.000
G2 X5.478 Y-6.942 Z-0.200 I0.053 J0.995 F180.000
G2 X7.177 Y-6.299 Z-0.200 I0.995 J-0.061 F180.000
G1 X7.177 Y-6.299 Z-0.400 F12.000
G2 X7.468 Y-7.049 Z-0.400 I-0.705 J-0.705 F180.000
G2 X6.420 Y-7.992 Z-0.400 I-0.995 J0.052 F180.000
G2 X5.478 Y-6.942 Z-0.400 I0.053 J0.995 F180.000
G2 X7.177 Y-6.299 Z-0.400 I0.995 J-0.061 F180.000
G1 X7.177 Y-6.299 Z-0.600 F12.000
G2 X7.468 Y-7.049 Z-0.600 I-0.705 J-0.705 F180.000
G2 X6.420 Y-7.992 Z-0.600 I-0.995 J0.052 F180.000
G2 X5.478 Y-6.942 Z-0.600 I0.053 J0.995 F180.000
G2 X7.177 Y-6.299 Z-0.600 I0.995 J-0.061 F180.000
G1 X7.177 Y-6.299 Z-0.800 F12.000
G2 X7.468 Y-7.049 Z-0.800 I-0.705 J-0.705 F180.000
G2 X6.420 Y-7.992 Z-0.800 I-0.995 J0.052 F180.000
G2 X5.478 Y-6.942 Z-0.800 I0.053 J0.995 F180.000
G2 X7.177 Y-6.299 Z-0.800 I0.995 J-0.061 F180.000
G1 X7.177 Y-6.299 Z-1.000 F12.000
G2 X7.468 Y-7.049 Z-1.000 I-0.705 J-0.705 F180.000
G2 X6.420 Y-7.992 Z-1.000 I-0.995 J0.052 F180.000
G2 X5.478 Y-6.942 Z-1.000 I0.053 J0.995 F180.000
G2 X7.177 Y-6.299 Z-1.000 I0.995 J-0.061 F180.000
G1 X7.177 Y-6.299 Z-1.200 F12.000
G2 X7.468 Y-7.049 Z-1.200 I-0.705 J-0.705 F180.000
G2 X6.420 Y-7.992 Z-1.200 I-0.995 J0.052 F180.000
G2 X5.478 Y-6.942 Z-1.200 I0.053 J0.995 F180.000
G2 X7.177 Y-6.299 Z-1.200 I0.995 J-0.061 F180.000
G1 X7.177 Y-6.299 Z-1.400 F12.000
G2 X7.468 Y-7.049 Z-1.400 I-0.705 J-0.705 F180.000
G2 X6.420 Y-7.992 Z-1.400 I-0.995 J0.052 F180.000
G2 X5.478 Y-6.942 Z-1.400 I0.053 J0.995 F180.000
G2 X7.177 Y-6.299 Z-1.400 I0.995 J-0.061 F180.000
G1 X7.177 Y-6.299 Z-1.600 F12.000
G2 X7.468 Y-7.049 Z-1.600 I-0.705 J-0.705 F180.000
G2 X6.420 Y-7.992 Z-1.600 I-0.995 J0.052 F180.000
G2 X5.478 Y-6.942 Z-1.600 I0.053 J0.995 F180.000
G2 X7.177 Y-6.299 Z-1.600 I0.995 J-0.061 F180.000
G1 X7.177 Y-6.299 Z-1.800 F12.000
G2 X7.468 Y-7.049 Z-1.800 I-0.705 J-0.705 F180.000
G2 X6.420 Y-7.992 Z-1.800 I-0.995 J0.052 F180.000
G2 X5.478 Y-6.942 Z-1.800 I0.053 J0.995 F180.000
G2 X7.177 Y-6.299 Z-1.800 I0.995 J-0.061 F180.000
G1 X7.177 Y-6.299 Z-2.000 F12.000
G2 X7.468 Y-7.049 Z-2.000 I-0.705 J-0.705 F180.000
G2 X6.420 Y-7.992 Z-2.000 I-0.995 J0.052 F180.000
G2 X5.478 Y-6.942 Z-2.000 I0.053 J0.995 F180.000
G2 X7.177 Y-6.299 Z-2.000 I0.995 J-0.061 F180.000
G1 X7.177 Y-6.299 Z-2.200 F12.000
G2 X7.468 Y-7.049 Z-2.200 I-0.705 J-0.705 F180.000
G2 X6.420 Y-7.992 Z-2.200 I-0.995 J0.052 F180.000
G2 X5.478 Y-6.942 Z-2.200 I0.053 J0.995 F180.000
G2 X7.177 Y-6.299 Z-2.200 I0.995 J-0.061 F180.000
G1 X7.177 Y-6.299 Z-2.400 F12.000
G2 X7.468 Y-7.049 Z-2.400 I-0.705 J-0.705 F180.000
G2 X6.420 Y-7.992 Z-2.400 I-0.995 J0.052 F180.000
G2 X5.478 Y-6.942 Z-2.400 I0.053 J0.995 F180.000
G2 X7.177 Y-6.299 Z-2.400 I0.995 J-0.061 F180.000
G1 X7.177 Y-6.299 Z-2.600 F12.000
G2 X7.468 Y-7.049 Z-2.600 I-0.705 J-0.705 F180.000
G2 X6.420 Y-7.992 Z-2.600 I-0.995 J0.052 F180.000
G2 X5.478 Y-6.942 Z-2.600 I0.053 J0.995 F180.000
G2 X7.177 Y-6.299 Z-2.600 I0.995 J-0.061 F180.000
G1 X7.177 Y-6.299 Z-2.800 F12.000
G2 X7.468 Y-7.049 Z-2.800 I-0.705 J-0.705 F180.000
G2 X6.420 Y-7.992 Z-2.800 I-0.995 J0.052 F180.000
G2 X5.478 Y-6.942 Z-2.800 I0.053 J0.995 F180.000
G2 X7.177 Y-6.299 Z-2.800 I0.995 J-0.061 F180.000
G1 X7.177 Y-6.299 Z-3.000 F12.000
G2 X7.468 Y-7.049 Z-3.000 I-0.705 J-0.705 F180.000
G2 X6.420 Y-7.992 Z-3.000 I-0.995 J0.052 F180.000
G2 X5.478 Y-6.942 Z-3.000 I0.053 J0.995 F180.000
G2 X7.177 Y-6.299 Z-3.000 I0.995 J-0.061 F180.000
G1 X7.177 Y-6.299 Z-3.200 F12.000
G2 X7.468 Y-7.049 Z-3.200 I-0.705 J-0.705 F180.000
G2 X6.420 Y-7.992 Z-3.200 I-0.995 J0.052 F180.000
G2 X5.478 Y-6.942 Z-3.200 I0.053 J0.995 F180.000
G2 X7.177 Y-6.299 Z-3.200 I0.995 J-0.061 F180.000
G1 X7.177 Y-6.299 Z-3.400 F12.000
G2 X7.468 Y-7.049 Z-3.400 I-0.705 J-0.705 F180.000
G2 X6.420 Y-7.992 Z-3.400 I-0.995 J0.052 F180.000
G2 X5.478 Y-6.942 Z-3.400 I0.053 J0.995 F180.000
G2 X7.177 Y-6.299 Z-3.400 I0.995 J-0.061 F180.000
G1 X7.177 Y-6.299 Z-3.600 F12.000
G2 X7.468 Y-7.049 Z-3.600 I-0.705 J-0.705 F180.000
G2 X6.420 Y-7.992 Z-3.600 I-0.995 J0.052 F180.000
G2 X5.478 Y-6.942 Z-3.600 I0.053 J0.995 F180.000
G2 X7.177 Y-6.299 Z-3.600 I0.995 J-0.061 F180.000
G1 X7.177 Y-6.299 Z-3.800 F12.000
G2 X7.468 Y-7.049 Z-3.800 I-0.705 J-0.705 F180.000
G2 X6.420 Y-7.992 Z-3.800 I-0.995 J0.052 F180.000
G2 X5.478 Y-6.942 Z-3.800 I0.053 J0.995 F180.000
G2 X7.177 Y-6.299 Z-3.800 I0.995 J-0.061 F180.000
G1 X7.177 Y-6.299 Z-4.000 F12.000
G2 X7.468 Y-7.049 Z-4.000 I-0.705 J-0.705 F180.000
G2 X6.420 Y-7.992 Z-4.000 I-0.995 J0.052 F180.000
G2 X5.478 Y-6.942 Z-4.000 I0.053 J0.995 F180.000
G2 X7.177 Y-6.299 Z-4.000 I0.995 J-0.061 F180.000
G1 X7.177 Y-6.299 Z-4.200 F12.000
G2 X7.468 Y-7.049 Z-4.200 I-0.705 J-0.705 F180.000
G2 X6.420 Y-7.992 Z-4.200 I-0.995 J0.052 F180.000
G2 X5.478 Y-6.942 Z-4.200 I0.053 J0.995 F180.000
G2 X7.177 Y-6.299 Z-4.200 I0.995 J-0.061 F180.000
G1 X7.177 Y-6.299 Z-4.400 F12.000
G2 X7.468 Y-7.049 Z-4.400 I-0.705 J-0.705 F180.000
G2 X6.420 Y-7.992 Z-4.400 I-0.995 J0.052 F180.000
G2 X5.478 Y-6.942 Z-4.400 I0.053 J0.995 F180.000
G2 X7.177 Y-6.299 Z-4.400 I0.995 J-0.061 F180.000
G1 X7.177 Y-6.299 Z-4.600 F12.000
G2 X7.468 Y-7.049 Z-4.600 I-0.705 J-0.705 F180.000
G2 X6.420 Y-7.992 Z-4.600 I-0.995 J0.052 F180.000
G2 X5.478 Y-6.942 Z-4.600 I0.053 J0.995 F180.000
G2 X7.177 Y-6.299 Z-4.600 I0.995 J-0.061 F180.000
G1 X7.177 Y-6.299 Z-4.800 F12.000
G2 X7.468 Y-7.049 Z-4.800 I-0.705 J-0.705 F180.000
G2 X6.420 Y-7.992 Z-4.800 I-0.995 J0.052 F180.000
G2 X5.478 Y-6.942 Z-4.800 I0.053 J0.995 F180.000
G2 X7.177 Y-6.299 Z-4.800 I0.995 J-0.061 F180.000
G1 X7.177 Y-6.299 Z-5.000 F12.000
G2 X7.468 Y-7.049 Z-5.000 I-0.705 J-0.705 F180.000
G2 X6.420 Y-7.992 Z-5.000 I-0.995 J0.052 F180.000
G2 X5.478 Y-6.942 Z-5.000 I0.053 J0.995 F180.000
G2 X7.177 Y-6.299 Z-5.000 I0.995 J-0.061 F180.000
G0 Z5.000
(finish operation: Profile_Edges002)
(begin operation: T5: 6mm Endmill)
(machine: not set, mm/min)
(T5: 6mm Endmill)
M6 T5 G43 H5
M3 S3000
(finish operation: T5: 6mm Endmill)
(begin operation: Profile_Edges003)
(machine: not set, mm/min)
(Profile_Edges003)
(Compensated Tool Path. Diameter: 6.0)
G0 Z5.000
G0 X22.484 Y-5.591
G1 X22.484 Y-5.591 Z-9.250 F15.000
G2 X21.571 Y-8.930 Z-9.250 I-1.409 J-1.409 F180.000
G2 X20.580 Y-5.070 Z-9.250 I-0.496 J1.930 F180.000
G2 X22.484 Y-5.591 Z-9.250 I0.496 J-1.930 F180.000
G1 X22.484 Y-5.591 Z-9.500 F15.000
G2 X21.571 Y-8.930 Z-9.500 I-1.409 J-1.409 F180.000
G2 X20.580 Y-5.070 Z-9.500 I-0.496 J1.930 F180.000
G2 X22.484 Y-5.591 Z-9.500 I0.496 J-1.930 F180.000
G1 X22.484 Y-5.591 Z-9.750 F15.000
G2 X21.571 Y-8.930 Z-9.750 I-1.409 J-1.409 F180.000
G2 X20.580 Y-5.070 Z-9.750 I-0.496 J1.930 F180.000
G2 X22.484 Y-5.591 Z-9.750 I0.496 J-1.930 F180.000
G1 X22.484 Y-5.591 Z-10.000 F15.000
G2 X21.571 Y-8.930 Z-10.000 I-1.409 J-1.409 F180.000
G2 X20.580 Y-5.070 Z-10.000 I-0.496 J1.930 F180.000
G2 X22.484 Y-5.591 Z-10.000 I0.496 J-1.930 F180.000
G1 X22.484 Y-5.591 Z-10.250 F15.000
G2 X21.571 Y-8.930 Z-10.250 I-1.409 J-1.409 F180.000
G2 X20.580 Y-5.070 Z-10.250 I-0.496 J1.930 F180.000
G2 X22.484 Y-5.591 Z-10.250 I0.496 J-1.930 F180.000
G1 X22.484 Y-5.591 Z-10.500 F15.000
G2 X21.571 Y-8.930 Z-10.500 I-1.409 J-1.409 F180.000
G2 X20.580 Y-5.070 Z-10.500 I-0.496 J1.930 F180.000
G2 X22.484 Y-5.591 Z-10.500 I0.496 J-1.930 F180.000
G1 X22.484 Y-5.591 Z-10.750 F15.000
G2 X21.571 Y-8.930 Z-10.750 I-1.409 J-1.409 F180.000
G2 X20.580 Y-5.070 Z-10.750 I-0.496 J1.930 F180.000
G2 X22.484 Y-5.591 Z-10.750 I0.496 J-1.930 F180.000
G1 X22.484 Y-5.591 Z-11.000 F15.000
G2 X21.571 Y-8.930 Z-11.000 I-1.409 J-1.409 F180.000
G2 X20.580 Y-5.070 Z-11.000 I-0.496 J1.930 F180.000
G2 X22.484 Y-5.591 Z-11.000 I0.496 J-1.930 F180.000
G1 X22.484 Y-5.591 Z-11.250 F15.000
G2 X21.571 Y-8.930 Z-11.250 I-1.409 J-1.409 F180.000
G2 X20.580 Y-5.070 Z-11.250 I-0.496 J1.930 F180.000
G2 X22.484 Y-5.591 Z-11.250 I0.496 J-1.930 F180.000
G1 X22.484 Y-5.591 Z-11.500 F15.000
G2 X21.571 Y-8.930 Z-11.500 I-1.409 J-1.409 F180.000
G2 X20.580 Y-5.070 Z-11.500 I-0.496 J1.930 F180.000
G2 X22.484 Y-5.591 Z-11.500 I0.496 J-1.930 F180.000
G1 X22.484 Y-5.591 Z-11.750 F15.000
G2 X21.571 Y-8.930 Z-11.750 I-1.409 J-1.409 F180.000
G2 X20.580 Y-5.070 Z-11.750 I-0.496 J1.930 F180.000
G2 X22.484 Y-5.591 Z-11.750 I0.496 J-1.930 F180.000
G1 X22.484 Y-5.591 Z-12.000 F15.000
G2 X21.571 Y-8.930 Z-12.000 I-1.409 J-1.409 F180.000
G2 X20.580 Y-5.070 Z-12.000 I-0.496 J1.930 F180.000
G2 X22.484 Y-5.591 Z-12.000 I0.496 J-1.930 F180.000
G1 X22.484 Y-5.591 Z-12.250 F15.000
G2 X21.571 Y-8.930 Z-12.250 I-1.409 J-1.409 F180.000
G2 X20.580 Y-5.070 Z-12.250 I-0.496 J1.930 F180.000
G2 X22.484 Y-5.591 Z-12.250 I0.496 J-1.930 F180.000
G1 X22.484 Y-5.591 Z-12.500 F15.000
G2 X21.571 Y-8.930 Z-12.500 I-1.409 J-1.409 F180.000
G2 X20.580 Y-5.070 Z-12.500 I-0.496 J1.930 F180.000
G2 X22.484 Y-5.591 Z-12.500 I0.496 J-1.930 F180.000
G1 X22.484 Y-5.591 Z-12.750 F15.000
G2 X21.571 Y-8.930 Z-12.750 I-1.409 J-1.409 F180.000
G2 X20.580 Y-5.070 Z-12.750 I-0.496 J1.930 F180.000
G2 X22.484 Y-5.591 Z-12.750 I0.496 J-1.930 F180.000
G1 X22.484 Y-5.591 Z-13.000 F15.000
G2 X21.571 Y-8.930 Z-13.000 I-1.409 J-1.409 F180.000
G2 X20.580 Y-5.070 Z-13.000 I-0.496 J1.930 F180.000
G2 X22.484 Y-5.591 Z-13.000 I0.496 J-1.930 F180.000
G1 X22.484 Y-5.591 Z-13.250 F15.000
G2 X21.571 Y-8.930 Z-13.250 I-1.409 J-1.409 F180.000
G2 X20.580 Y-5.070 Z-13.250 I-0.496 J1.930 F180.000
G2 X22.484 Y-5.591 Z-13.250 I0.496 J-1.930 F180.000
G1 X22.484 Y-5.591 Z-13.500 F15.000
G2 X21.571 Y-8.930 Z-13.500 I-1.409 J-1.409 F180.000
G2 X20.580 Y-5.070 Z-13.500 I-0.496 J1.930 F180.000
G2 X22.484 Y-5.591 Z-13.500 I0.496 J-1.930 F180.000
G1 X22.484 Y-5.591 Z-13.750 F15.000
G2 X21.571 Y-8.930 Z-13.750 I-1.409 J-1.409 F180.000
G2 X20.580 Y-5.070 Z-13.750 I-0.496 J1.930 F180.000
G2 X22.484 Y-5.591 Z-13.750 I0.496 J-1.930 F180.000
G1 X22.484 Y-5.591 Z-13.800 F15.000
G2 X21.571 Y-8.930 Z-13.800 I-1.409 J-1.409 F180.000
G2 X20.580 Y-5.070 Z-13.800 I-0.496 J1.930 F180.000
G2 X22.484 Y-5.591 Z-13.800 I0.496 J-1.930 F180.000
G0 Z5.000
(finish operation: Profile_Edges003)
(begin postamble)
M05
G17 G54 G90 G80 G40
M2
