(Exported by FreeCAD)
(Post Processor: linuxcnc_post)
(Output Time:2019-04-26 08:24:13.313634)
(begin preamble)
G17 G54 G40 G49 G80 G90
G21
M8
(begin operation: T4: 12mm Endmill)
(machine: not set, mm/min)
(T4: 12mm Endmill)
M6 T4 G43 H4
M3 S3000
(finish operation: T4: 12mm Endmill)
(begin operation: Profile_Edges)
(machine: not set, mm/min)
(Profile_Edges)
(Compensated Tool Path. Diameter: 12.0)
G0 Z5.000
G0 X31.272 Y1.244
G0 Z3.000
G1 X31.272 Y1.244 Z-0.500 F30.000
G2 X34.422 Y-4.656 Z-0.500 I-8.137 J-8.134 F720.000
G2 X34.645 Y-7.885 Z-0.500 I-13.686 J-2.566 F720.000
G2 X23.481 Y-19.376 Z-0.500 I-11.504 J0.008 F720.000
G1 X0.920 Y-19.385 Z-0.500 F720.000
G2 X-5.080 Y-13.385 Z-0.500 I0.000 J6.000 F720.000
G1 X-5.080 Y-1.385 Z-0.500 F720.000
G2 X0.920 Y4.615 Z-0.500 I6.000 J-0.000 F720.000
G1 X23.145 Y4.615 Z-0.500 F720.000
G2 X31.272 Y1.244 Z-0.500 I-0.009 J-11.505 F720.000
G1 X31.272 Y1.244 Z-1.000 F30.000
G2 X34.422 Y-4.656 Z-1.000 I-8.137 J-8.134 F720.000
G2 X34.645 Y-7.885 Z-1.000 I-13.686 J-2.566 F720.000
G2 X23.481 Y-19.376 Z-1.000 I-11.504 J0.008 F720.000
G1 X0.920 Y-19.385 Z-1.000 F720.000
G2 X-5.080 Y-13.385 Z-1.000 I0.000 J6.000 F720.000
G1 X-5.080 Y-1.385 Z-1.000 F720.000
G2 X0.920 Y4.615 Z-1.000 I6.000 J-0.000 F720.000
G1 X23.145 Y4.615 Z-1.000 F720.000
G2 X31.272 Y1.244 Z-1.000 I-0.009 J-11.505 F720.000
G1 X31.272 Y1.244 Z-1.500 F30.000
G2 X34.422 Y-4.656 Z-1.500 I-8.137 J-8.134 F720.000
G2 X34.645 Y-7.885 Z-1.500 I-13.686 J-2.566 F720.000
G2 X23.481 Y-19.376 Z-1.500 I-11.504 J0.008 F720.000
G1 X0.920 Y-19.385 Z-1.500 F720.000
G2 X-5.080 Y-13.385 Z-1.500 I0.000 J6.000 F720.000
G1 X-5.080 Y-1.385 Z-1.500 F720.000
G2 X0.920 Y4.615 Z-1.500 I6.000 J-0.000 F720.000
G1 X23.145 Y4.615 Z-1.500 F720.000
G2 X31.272 Y1.244 Z-1.500 I-0.009 J-11.505 F720.000
G1 X31.272 Y1.244 Z-2.000 F30.000
G2 X34.422 Y-4.656 Z-2.000 I-8.137 J-8.134 F720.000
G2 X34.645 Y-7.885 Z-2.000 I-13.686 J-2.566 F720.000
G2 X23.481 Y-19.376 Z-2.000 I-11.504 J0.008 F720.000
G1 X0.920 Y-19.385 Z-2.000 F720.000
G2 X-5.080 Y-13.385 Z-2.000 I0.000 J6.000 F720.000
G1 X-5.080 Y-1.385 Z-2.000 F720.000
G2 X0.920 Y4.615 Z-2.000 I6.000 J-0.000 F720.000
G1 X23.145 Y4.615 Z-2.000 F720.000
G2 X31.272 Y1.244 Z-2.000 I-0.009 J-11.505 F720.000
G1 X31.272 Y1.244 Z-2.500 F30.000
G2 X34.422 Y-4.656 Z-2.500 I-8.137 J-8.134 F720.000
G2 X34.645 Y-7.885 Z-2.500 I-13.686 J-2.566 F720.000
G2 X23.481 Y-19.376 Z-2.500 I-11.504 J0.008 F720.000
G1 X0.920 Y-19.385 Z-2.500 F720.000
G2 X-5.080 Y-13.385 Z-2.500 I0.000 J6.000 F720.000
G1 X-5.080 Y-1.385 Z-2.500 F720.000
G2 X0.920 Y4.615 Z-2.500 I6.000 J-0.000 F720.000
G1 X23.145 Y4.615 Z-2.500 F720.000
G2 X31.272 Y1.244 Z-2.500 I-0.009 J-11.505 F720.000
G1 X31.272 Y1.244 Z-3.000 F30.000
G2 X34.422 Y-4.656 Z-3.000 I-8.137 J-8.134 F720.000
G2 X34.645 Y-7.885 Z-3.000 I-13.686 J-2.566 F720.000
G2 X23.481 Y-19.376 Z-3.000 I-11.504 J0.008 F720.000
G1 X0.920 Y-19.385 Z-3.000 F720.000
G2 X-5.080 Y-13.385 Z-3.000 I0.000 J6.000 F720.000
G1 X-5.080 Y-1.385 Z-3.000 F720.000
G2 X0.920 Y4.615 Z-3.000 I6.000 J-0.000 F720.000
G1 X23.145 Y4.615 Z-3.000 F720.000
G2 X31.272 Y1.244 Z-3.000 I-0.009 J-11.505 F720.000
G1 X31.272 Y1.244 Z-3.500 F30.000
G2 X34.422 Y-4.656 Z-3.500 I-8.137 J-8.134 F720.000
G2 X34.645 Y-7.885 Z-3.500 I-13.686 J-2.566 F720.000
G2 X23.481 Y-19.376 Z-3.500 I-11.504 J0.008 F720.000
G1 X0.920 Y-19.385 Z-3.500 F720.000
G2 X-5.080 Y-13.385 Z-3.500 I0.000 J6.000 F720.000
G1 X-5.080 Y-1.385 Z-3.500 F720.000
G2 X0.920 Y4.615 Z-3.500 I6.000 J-0.000 F720.000
G1 X23.145 Y4.615 Z-3.500 F720.000
G2 X31.272 Y1.244 Z-3.500 I-0.009 J-11.505 F720.000
G1 X31.272 Y1.244 Z-4.000 F30.000
G2 X34.422 Y-4.656 Z-4.000 I-8.137 J-8.134 F720.000
G2 X34.645 Y-7.885 Z-4.000 I-13.686 J-2.566 F720.000
G2 X23.481 Y-19.376 Z-4.000 I-11.504 J0.008 F720.000
G1 X0.920 Y-19.385 Z-4.000 F720.000
G2 X-5.080 Y-13.385 Z-4.000 I0.000 J6.000 F720.000
G1 X-5.080 Y-1.385 Z-4.000 F720.000
G2 X0.920 Y4.615 Z-4.000 I6.000 J-0.000 F720.000
G1 X23.145 Y4.615 Z-4.000 F720.000
G2 X31.272 Y1.244 Z-4.000 I-0.009 J-11.505 F720.000
G1 X31.272 Y1.244 Z-4.500 F30.000
G2 X34.422 Y-4.656 Z-4.500 I-8.137 J-8.134 F720.000
G2 X34.645 Y-7.885 Z-4.500 I-13.686 J-2.566 F720.000
G2 X23.481 Y-19.376 Z-4.500 I-11.504 J0.008 F720.000
G1 X0.920 Y-19.385 Z-4.500 F720.000
G2 X-5.080 Y-13.385 Z-4.500 I0.000 J6.000 F720.000
G1 X-5.080 Y-1.385 Z-4.500 F720.000
G2 X0.920 Y4.615 Z-4.500 I6.000 J-0.000 F720.000
G1 X23.145 Y4.615 Z-4.500 F720.000
G2 X31.272 Y1.244 Z-4.500 I-0.009 J-11.505 F720.000
G1 X31.272 Y1.244 Z-5.000 F30.000
G2 X34.422 Y-4.656 Z-5.000 I-8.137 J-8.134 F720.000
G2 X34.645 Y-7.885 Z-5.000 I-13.686 J-2.566 F720.000
G2 X23.481 Y-19.376 Z-5.000 I-11.504 J0.008 F720.000
G1 X0.920 Y-19.385 Z-5.000 F720.000
G2 X-5.080 Y-13.385 Z-5.000 I0.000 J6.000 F720.000
G1 X-5.080 Y-1.385 Z-5.000 F720.000
G2 X0.920 Y4.615 Z-5.000 I6.000 J-0.000 F720.000
G1 X23.145 Y4.615 Z-5.000 F720.000
G2 X31.272 Y1.244 Z-5.000 I-0.009 J-11.505 F720.000
G1 X31.272 Y1.244 Z-5.500 F30.000
G2 X34.422 Y-4.656 Z-5.500 I-8.137 J-8.134 F720.000
G2 X34.645 Y-7.885 Z-5.500 I-13.686 J-2.566 F720.000
G2 X23.481 Y-19.376 Z-5.500 I-11.504 J0.008 F720.000
G1 X0.920 Y-19.385 Z-5.500 F720.000
G2 X-5.080 Y-13.385 Z-5.500 I0.000 J6.000 F720.000
G1 X-5.080 Y-1.385 Z-5.500 F720.000
G2 X0.920 Y4.615 Z-5.500 I6.000 J-0.000 F720.000
G1 X23.145 Y4.615 Z-5.500 F720.000
G2 X31.272 Y1.244 Z-5.500 I-0.009 J-11.505 F720.000
G1 X31.272 Y1.244 Z-6.000 F30.000
G2 X34.422 Y-4.656 Z-6.000 I-8.137 J-8.134 F720.000
G2 X34.645 Y-7.885 Z-6.000 I-13.686 J-2.566 F720.000
G2 X23.481 Y-19.376 Z-6.000 I-11.504 J0.008 F720.000
G1 X0.920 Y-19.385 Z-6.000 F720.000
G2 X-5.080 Y-13.385 Z-6.000 I0.000 J6.000 F720.000
G1 X-5.080 Y-1.385 Z-6.000 F720.000
G2 X0.920 Y4.615 Z-6.000 I6.000 J-0.000 F720.000
G1 X23.145 Y4.615 Z-6.000 F720.000
G2 X31.272 Y1.244 Z-6.000 I-0.009 J-11.505 F720.000
G1 X31.272 Y1.244 Z-6.500 F30.000
G2 X34.422 Y-4.656 Z-6.500 I-8.137 J-8.134 F720.000
G2 X34.645 Y-7.885 Z-6.500 I-13.686 J-2.566 F720.000
G2 X23.481 Y-19.376 Z-6.500 I-11.504 J0.008 F720.000
G1 X0.920 Y-19.385 Z-6.500 F720.000
G2 X-5.080 Y-13.385 Z-6.500 I0.000 J6.000 F720.000
G1 X-5.080 Y-1.385 Z-6.500 F720.000
G2 X0.920 Y4.615 Z-6.500 I6.000 J-0.000 F720.000
G1 X23.145 Y4.615 Z-6.500 F720.000
G2 X31.272 Y1.244 Z-6.500 I-0.009 J-11.505 F720.000
G1 X31.272 Y1.244 Z-7.000 F30.000
G2 X34.422 Y-4.656 Z-7.000 I-8.137 J-8.134 F720.000
G2 X34.645 Y-7.885 Z-7.000 I-13.686 J-2.566 F720.000
G2 X23.481 Y-19.376 Z-7.000 I-11.504 J0.008 F720.000
G1 X0.920 Y-19.385 Z-7.000 F720.000
G2 X-5.080 Y-13.385 Z-7.000 I0.000 J6.000 F720.000
G1 X-5.080 Y-1.385 Z-7.000 F720.000
G2 X0.920 Y4.615 Z-7.000 I6.000 J-0.000 F720.000
G1 X23.145 Y4.615 Z-7.000 F720.000
G2 X31.272 Y1.244 Z-7.000 I-0.009 J-11.505 F720.000
G1 X31.272 Y1.244 Z-7.500 F30.000
G2 X34.422 Y-4.656 Z-7.500 I-8.137 J-8.134 F720.000
G2 X34.645 Y-7.885 Z-7.500 I-13.686 J-2.566 F720.000
G2 X23.481 Y-19.376 Z-7.500 I-11.504 J0.008 F720.000
G1 X0.920 Y-19.385 Z-7.500 F720.000
G2 X-5.080 Y-13.385 Z-7.500 I0.000 J6.000 F720.000
G1 X-5.080 Y-1.385 Z-7.500 F720.000
G2 X0.920 Y4.615 Z-7.500 I6.000 J-0.000 F720.000
G1 X23.145 Y4.615 Z-7.500 F720.000
G2 X31.272 Y1.244 Z-7.500 I-0.009 J-11.505 F720.000
G1 X31.272 Y1.244 Z-8.000 F30.000
G2 X34.422 Y-4.656 Z-8.000 I-8.137 J-8.134 F720.000
G2 X34.645 Y-7.885 Z-8.000 I-13.686 J-2.566 F720.000
G2 X23.481 Y-19.376 Z-8.000 I-11.504 J0.008 F720.000
G1 X0.920 Y-19.385 Z-8.000 F720.000
G2 X-5.080 Y-13.385 Z-8.000 I0.000 J6.000 F720.000
G1 X-5.080 Y-1.385 Z-8.000 F720.000
G2 X0.920 Y4.615 Z-8.000 I6.000 J-0.000 F720.000
G1 X23.145 Y4.615 Z-8.000 F720.000
G2 X31.272 Y1.244 Z-8.000 I-0.009 J-11.505 F720.000
G1 X31.272 Y1.244 Z-8.500 F30.000
G2 X34.422 Y-4.656 Z-8.500 I-8.137 J-8.134 F720.000
G2 X34.645 Y-7.885 Z-8.500 I-13.686 J-2.566 F720.000
G2 X23.481 Y-19.376 Z-8.500 I-11.504 J0.008 F720.000
G1 X0.920 Y-19.385 Z-8.500 F720.000
G2 X-5.080 Y-13.385 Z-8.500 I0.000 J6.000 F720.000
G1 X-5.080 Y-1.385 Z-8.500 F720.000
G2 X0.920 Y4.615 Z-8.500 I6.000 J-0.000 F720.000
G1 X23.145 Y4.615 Z-8.500 F720.000
G2 X31.272 Y1.244 Z-8.500 I-0.009 J-11.505 F720.000
G1 X31.272 Y1.244 Z-9.000 F30.000
G2 X34.422 Y-4.656 Z-9.000 I-8.137 J-8.134 F720.000
G2 X34.645 Y-7.885 Z-9.000 I-13.686 J-2.566 F720.000
G2 X23.481 Y-19.376 Z-9.000 I-11.504 J0.008 F720.000
G1 X0.920 Y-19.385 Z-9.000 F720.000
G2 X-5.080 Y-13.385 Z-9.000 I0.000 J6.000 F720.000
G1 X-5.080 Y-1.385 Z-9.000 F720.000
G2 X0.920 Y4.615 Z-9.000 I6.000 J-0.000 F720.000
G1 X23.145 Y4.615 Z-9.000 F720.000
G2 X31.272 Y1.244 Z-9.000 I-0.009 J-11.505 F720.000
G1 X31.272 Y1.244 Z-9.500 F30.000
G2 X34.422 Y-4.656 Z-9.500 I-8.137 J-8.134 F720.000
G2 X34.645 Y-7.885 Z-9.500 I-13.686 J-2.566 F720.000
G2 X23.481 Y-19.376 Z-9.500 I-11.504 J0.008 F720.000
G1 X0.920 Y-19.385 Z-9.500 F720.000
G2 X-5.080 Y-13.385 Z-9.500 I0.000 J6.000 F720.000
G1 X-5.080 Y-1.385 Z-9.500 F720.000
G2 X0.920 Y4.615 Z-9.500 I6.000 J-0.000 F720.000
G1 X23.145 Y4.615 Z-9.500 F720.000
G2 X31.272 Y1.244 Z-9.500 I-0.009 J-11.505 F720.000
G1 X31.272 Y1.244 Z-10.000 F30.000
G2 X34.422 Y-4.656 Z-10.000 I-8.137 J-8.134 F720.000
G2 X34.645 Y-7.885 Z-10.000 I-13.686 J-2.566 F720.000
G2 X23.481 Y-19.376 Z-10.000 I-11.504 J0.008 F720.000
G1 X0.920 Y-19.385 Z-10.000 F720.000
G2 X-5.080 Y-13.385 Z-10.000 I0.000 J6.000 F720.000
G1 X-5.080 Y-1.385 Z-10.000 F720.000
G2 X0.920 Y4.615 Z-10.000 I6.000 J-0.000 F720.000
G1 X23.145 Y4.615 Z-10.000 F720.000
G2 X31.272 Y1.244 Z-10.000 I-0.009 J-11.505 F720.000
G1 X31.272 Y1.244 Z-10.500 F30.000
G2 X34.422 Y-4.656 Z-10.500 I-8.137 J-8.134 F720.000
G2 X34.645 Y-7.885 Z-10.500 I-13.686 J-2.566 F720.000
G2 X23.481 Y-19.376 Z-10.500 I-11.504 J0.008 F720.000
G1 X0.920 Y-19.385 Z-10.500 F720.000
G2 X-5.080 Y-13.385 Z-10.500 I0.000 J6.000 F720.000
G1 X-5.080 Y-1.385 Z-10.500 F720.000
G2 X0.920 Y4.615 Z-10.500 I6.000 J-0.000 F720.000
G1 X23.145 Y4.615 Z-10.500 F720.000
G2 X31.272 Y1.244 Z-10.500 I-0.009 J-11.505 F720.000
G1 X31.272 Y1.244 Z-11.000 F30.000
G2 X34.422 Y-4.656 Z-11.000 I-8.137 J-8.134 F720.000
G2 X34.645 Y-7.885 Z-11.000 I-13.686 J-2.566 F720.000
G2 X23.481 Y-19.376 Z-11.000 I-11.504 J0.008 F720.000
G1 X0.920 Y-19.385 Z-11.000 F720.000
G2 X-5.080 Y-13.385 Z-11.000 I0.000 J6.000 F720.000
G1 X-5.080 Y-1.385 Z-11.000 F720.000
G2 X0.920 Y4.615 Z-11.000 I6.000 J-0.000 F720.000
G1 X23.145 Y4.615 Z-11.000 F720.000
G2 X31.272 Y1.244 Z-11.000 I-0.009 J-11.505 F720.000
G1 X31.272 Y1.244 Z-11.500 F30.000
G2 X34.422 Y-4.656 Z-11.500 I-8.137 J-8.134 F720.000
G2 X34.645 Y-7.885 Z-11.500 I-13.686 J-2.566 F720.000
G2 X23.481 Y-19.376 Z-11.500 I-11.504 J0.008 F720.000
G1 X0.920 Y-19.385 Z-11.500 F720.000
G2 X-5.080 Y-13.385 Z-11.500 I0.000 J6.000 F720.000
G1 X-5.080 Y-1.385 Z-11.500 F720.000
G2 X0.920 Y4.615 Z-11.500 I6.000 J-0.000 F720.000
G1 X23.145 Y4.615 Z-11.500 F720.000
G2 X31.272 Y1.244 Z-11.500 I-0.009 J-11.505 F720.000
G1 X31.272 Y1.244 Z-12.000 F30.000
G2 X34.422 Y-4.656 Z-12.000 I-8.137 J-8.134 F720.000
G2 X34.645 Y-7.885 Z-12.000 I-13.686 J-2.566 F720.000
G2 X23.481 Y-19.376 Z-12.000 I-11.504 J0.008 F720.000
G1 X0.920 Y-19.385 Z-12.000 F720.000
G2 X-5.080 Y-13.385 Z-12.000 I0.000 J6.000 F720.000
G1 X-5.080 Y-1.385 Z-12.000 F720.000
G2 X0.920 Y4.615 Z-12.000 I6.000 J-0.000 F720.000
G1 X23.145 Y4.615 Z-12.000 F720.000
G2 X31.272 Y1.244 Z-12.000 I-0.009 J-11.505 F720.000
G1 X31.272 Y1.244 Z-12.500 F30.000
G2 X34.422 Y-4.656 Z-12.500 I-8.137 J-8.134 F720.000
G2 X34.645 Y-7.885 Z-12.500 I-13.686 J-2.566 F720.000
G2 X23.481 Y-19.376 Z-12.500 I-11.504 J0.008 F720.000
G1 X0.920 Y-19.385 Z-12.500 F720.000
G2 X-5.080 Y-13.385 Z-12.500 I0.000 J6.000 F720.000
G1 X-5.080 Y-1.385 Z-12.500 F720.000
G2 X0.920 Y4.615 Z-12.500 I6.000 J-0.000 F720.000
G1 X23.145 Y4.615 Z-12.500 F720.000
G2 X31.272 Y1.244 Z-12.500 I-0.009 J-11.505 F720.000
G1 X31.272 Y1.244 Z-13.000 F30.000
G2 X34.422 Y-4.656 Z-13.000 I-8.137 J-8.134 F720.000
G2 X34.645 Y-7.885 Z-13.000 I-13.686 J-2.566 F720.000
G2 X23.481 Y-19.376 Z-13.000 I-11.504 J0.008 F720.000
G1 X0.920 Y-19.385 Z-13.000 F720.000
G2 X-5.080 Y-13.385 Z-13.000 I0.000 J6.000 F720.000
G1 X-5.080 Y-1.385 Z-13.000 F720.000
G2 X0.920 Y4.615 Z-13.000 I6.000 J-0.000 F720.000
G1 X23.145 Y4.615 Z-13.000 F720.000
G2 X31.272 Y1.244 Z-13.000 I-0.009 J-11.505 F720.000
G1 X31.272 Y1.244 Z-13.500 F30.000
G2 X34.422 Y-4.656 Z-13.500 I-8.137 J-8.134 F720.000
G2 X34.645 Y-7.885 Z-13.500 I-13.686 J-2.566 F720.000
G2 X23.481 Y-19.376 Z-13.500 I-11.504 J0.008 F720.000
G1 X0.920 Y-19.385 Z-13.500 F720.000
G2 X-5.080 Y-13.385 Z-13.500 I0.000 J6.000 F720.000
G1 X-5.080 Y-1.385 Z-13.500 F720.000
G2 X0.920 Y4.615 Z-13.500 I6.000 J-0.000 F720.000
G1 X23.145 Y4.615 Z-13.500 F720.000
G2 X31.272 Y1.244 Z-13.500 I-0.009 J-11.505 F720.000
G1 X31.272 Y1.244 Z-13.800 F30.000
G2 X34.422 Y-4.656 Z-13.800 I-8.137 J-8.134 F720.000
G2 X34.645 Y-7.885 Z-13.800 I-13.686 J-2.566 F720.000
G2 X23.481 Y-19.376 Z-13.800 I-11.504 J0.008 F720.000
G1 X0.920 Y-19.385 Z-13.800 F720.000
G2 X-5.080 Y-13.385 Z-13.800 I0.000 J6.000 F720.000
G1 X-5.080 Y-1.385 Z-13.800 F720.000
G2 X0.920 Y4.615 Z-13.800 I6.000 J-0.000 F720.000
G1 X23.145 Y4.615 Z-13.800 F720.000
G2 X31.272 Y1.244 Z-13.800 I-0.009 J-11.505 F720.000
G0 Z5.000
(finish operation: Profile_Edges)
(begin operation: T4: 12mm Endmill)
(machine: not set, mm/min)
(T4: 12mm Endmill)
M6 T4 G43 H4
M3 S3000
(finish operation: T4: 12mm Endmill)
(begin operation: Profile_Edges001)
(machine: not set, mm/min)
(Profile_Edges001)
(Compensated Tool Path. Diameter: 12.0)
G0 Z5.000
G0 X23.852 Y4.115
G0 Z3.000
G1 X23.852 Y4.115 Z-0.500 F30.000
G1 X23.852 Y-15.385 Z-0.500 F720.000
G1 X17.420 Y-15.385 Z-0.500 F720.000
G1 X17.420 Y-2.885 Z-0.500 F720.000
G3 X11.420 Y3.115 Z-0.500 I-6.000 J-0.000 F720.000
G1 X-1.080 Y3.115 Z-0.500 F720.000
G1 X-1.080 Y4.115 Z-0.500 F720.000
G1 X23.852 Y4.115 Z-0.500 F720.000
G1 X23.852 Y4.115 Z-1.000 F30.000
G1 X23.852 Y-15.385 Z-1.000 F720.000
G1 X17.420 Y-15.385 Z-1.000 F720.000
G1 X17.420 Y-2.885 Z-1.000 F720.000
G3 X11.420 Y3.115 Z-1.000 I-6.000 J-0.000 F720.000
G1 X-1.080 Y3.115 Z-1.000 F720.000
G1 X-1.080 Y4.115 Z-1.000 F720.000
G1 X23.852 Y4.115 Z-1.000 F720.000
G1 X23.852 Y4.115 Z-1.500 F30.000
G1 X23.852 Y-15.385 Z-1.500 F720.000
G1 X17.420 Y-15.385 Z-1.500 F720.000
G1 X17.420 Y-2.885 Z-1.500 F720.000
G3 X11.420 Y3.115 Z-1.500 I-6.000 J-0.000 F720.000
G1 X-1.080 Y3.115 Z-1.500 F720.000
G1 X-1.080 Y4.115 Z-1.500 F720.000
G1 X23.852 Y4.115 Z-1.500 F720.000
G1 X23.852 Y4.115 Z-2.000 F30.000
G1 X23.852 Y-15.385 Z-2.000 F720.000
G1 X17.420 Y-15.385 Z-2.000 F720.000
G1 X17.420 Y-2.885 Z-2.000 F720.000
G3 X11.420 Y3.115 Z-2.000 I-6.000 J-0.000 F720.000
G1 X-1.080 Y3.115 Z-2.000 F720.000
G1 X-1.080 Y4.115 Z-2.000 F720.000
G1 X23.852 Y4.115 Z-2.000 F720.000
G1 X23.852 Y4.115 Z-2.500 F30.000
G1 X23.852 Y-15.385 Z-2.500 F720.000
G1 X17.420 Y-15.385 Z-2.500 F720.000
G1 X17.420 Y-2.885 Z-2.500 F720.000
G3 X11.420 Y3.115 Z-2.500 I-6.000 J-0.000 F720.000
G1 X-1.080 Y3.115 Z-2.500 F720.000
G1 X-1.080 Y4.115 Z-2.500 F720.000
G1 X23.852 Y4.115 Z-2.500 F720.000
G1 X23.852 Y4.115 Z-3.000 F30.000
G1 X23.852 Y-15.385 Z-3.000 F720.000
G1 X17.420 Y-15.385 Z-3.000 F720.000
G1 X17.420 Y-2.885 Z-3.000 F720.000
G3 X11.420 Y3.115 Z-3.000 I-6.000 J-0.000 F720.000
G1 X-1.080 Y3.115 Z-3.000 F720.000
G1 X-1.080 Y4.115 Z-3.000 F720.000
G1 X23.852 Y4.115 Z-3.000 F720.000
G1 X23.852 Y4.115 Z-3.500 F30.000
G1 X23.852 Y-15.385 Z-3.500 F720.000
G1 X17.420 Y-15.385 Z-3.500 F720.000
G1 X17.420 Y-2.885 Z-3.500 F720.000
G3 X11.420 Y3.115 Z-3.500 I-6.000 J-0.000 F720.000
G1 X-1.080 Y3.115 Z-3.500 F720.000
G1 X-1.080 Y4.115 Z-3.500 F720.000
G1 X23.852 Y4.115 Z-3.500 F720.000
G1 X23.852 Y4.115 Z-4.000 F30.000
G1 X23.852 Y-15.385 Z-4.000 F720.000
G1 X17.420 Y-15.385 Z-4.000 F720.000
G1 X17.420 Y-2.885 Z-4.000 F720.000
G3 X11.420 Y3.115 Z-4.000 I-6.000 J-0.000 F720.000
G1 X-1.080 Y3.115 Z-4.000 F720.000
G1 X-1.080 Y4.115 Z-4.000 F720.000
G1 X23.852 Y4.115 Z-4.000 F720.000
G1 X23.852 Y4.115 Z-4.500 F30.000
G1 X23.852 Y-15.385 Z-4.500 F720.000
G1 X17.420 Y-15.385 Z-4.500 F720.000
G1 X17.420 Y-2.885 Z-4.500 F720.000
G3 X11.420 Y3.115 Z-4.500 I-6.000 J-0.000 F720.000
G1 X-1.080 Y3.115 Z-4.500 F720.000
G1 X-1.080 Y4.115 Z-4.500 F720.000
G1 X23.852 Y4.115 Z-4.500 F720.000
G1 X23.852 Y4.115 Z-5.000 F30.000
G1 X23.852 Y-15.385 Z-5.000 F720.000
G1 X17.420 Y-15.385 Z-5.000 F720.000
G1 X17.420 Y-2.885 Z-5.000 F720.000
G3 X11.420 Y3.115 Z-5.000 I-6.000 J-0.000 F720.000
G1 X-1.080 Y3.115 Z-5.000 F720.000
G1 X-1.080 Y4.115 Z-5.000 F720.000
G1 X23.852 Y4.115 Z-5.000 F720.000
G1 X23.852 Y4.115 Z-5.500 F30.000
G1 X23.852 Y-15.385 Z-5.500 F720.000
G1 X17.420 Y-15.385 Z-5.500 F720.000
G1 X17.420 Y-2.885 Z-5.500 F720.000
G3 X11.420 Y3.115 Z-5.500 I-6.000 J-0.000 F720.000
G1 X-1.080 Y3.115 Z-5.500 F720.000
G1 X-1.080 Y4.115 Z-5.500 F720.000
G1 X23.852 Y4.115 Z-5.500 F720.000
G1 X23.852 Y4.115 Z-6.000 F30.000
G1 X23.852 Y-15.385 Z-6.000 F720.000
G1 X17.420 Y-15.385 Z-6.000 F720.000
G1 X17.420 Y-2.885 Z-6.000 F720.000
G3 X11.420 Y3.115 Z-6.000 I-6.000 J-0.000 F720.000
G1 X-1.080 Y3.115 Z-6.000 F720.000
G1 X-1.080 Y4.115 Z-6.000 F720.000
G1 X23.852 Y4.115 Z-6.000 F720.000
G1 X23.852 Y4.115 Z-6.500 F30.000
G1 X23.852 Y-15.385 Z-6.500 F720.000
G1 X17.420 Y-15.385 Z-6.500 F720.000
G1 X17.420 Y-2.885 Z-6.500 F720.000
G3 X11.420 Y3.115 Z-6.500 I-6.000 J-0.000 F720.000
G1 X-1.080 Y3.115 Z-6.500 F720.000
G1 X-1.080 Y4.115 Z-6.500 F720.000
G1 X23.852 Y4.115 Z-6.500 F720.000
G1 X23.852 Y4.115 Z-7.000 F30.000
G1 X23.852 Y-15.385 Z-7.000 F720.000
G1 X17.420 Y-15.385 Z-7.000 F720.000
G1 X17.420 Y-2.885 Z-7.000 F720.000
G3 X11.420 Y3.115 Z-7.000 I-6.000 J-0.000 F720.000
G1 X-1.080 Y3.115 Z-7.000 F720.000
G1 X-1.080 Y4.115 Z-7.000 F720.000
G1 X23.852 Y4.115 Z-7.000 F720.000
G1 X23.852 Y4.115 Z-7.500 F30.000
G1 X23.852 Y-15.385 Z-7.500 F720.000
G1 X17.420 Y-15.385 Z-7.500 F720.000
G1 X17.420 Y-2.885 Z-7.500 F720.000
G3 X11.420 Y3.115 Z-7.500 I-6.000 J-0.000 F720.000
G1 X-1.080 Y3.115 Z-7.500 F720.000
G1 X-1.080 Y4.115 Z-7.500 F720.000
G1 X23.852 Y4.115 Z-7.500 F720.000
G1 X23.852 Y4.115 Z-8.000 F30.000
G1 X23.852 Y-15.385 Z-8.000 F720.000
G1 X17.420 Y-15.385 Z-8.000 F720.000
G1 X17.420 Y-2.885 Z-8.000 F720.000
G3 X11.420 Y3.115 Z-8.000 I-6.000 J-0.000 F720.000
G1 X-1.080 Y3.115 Z-8.000 F720.000
G1 X-1.080 Y4.115 Z-8.000 F720.000
G1 X23.852 Y4.115 Z-8.000 F720.000
G1 X23.852 Y4.115 Z-8.500 F30.000
G1 X23.852 Y-15.385 Z-8.500 F720.000
G1 X17.420 Y-15.385 Z-8.500 F720.000
G1 X17.420 Y-2.885 Z-8.500 F720.000
G3 X11.420 Y3.115 Z-8.500 I-6.000 J-0.000 F720.000
G1 X-1.080 Y3.115 Z-8.500 F720.000
G1 X-1.080 Y4.115 Z-8.500 F720.000
G1 X23.852 Y4.115 Z-8.500 F720.000
G1 X23.852 Y4.115 Z-9.000 F30.000
G1 X23.852 Y-15.385 Z-9.000 F720.000
G1 X17.420 Y-15.385 Z-9.000 F720.000
G1 X17.420 Y-2.885 Z-9.000 F720.000
G3 X11.420 Y3.115 Z-9.000 I-6.000 J-0.000 F720.000
G1 X-1.080 Y3.115 Z-9.000 F720.000
G1 X-1.080 Y4.115 Z-9.000 F720.000
G1 X23.852 Y4.115 Z-9.000 F720.000
G0 Z5.000
(finish operation: Profile_Edges001)
(begin operation: T6: 4mm Endmill)
(machine: not set, mm/min)
(T6: 4mm Endmill)
M6 T6 G43 H6
M3 S3000
(finish operation: T6: 4mm Endmill)
(begin operation: Profile_Edges002)
(machine: not set, mm/min)
(Profile_Edges002)
(Compensated Tool Path. Diameter: 4.0)
G0 Z5.000
G0 X7.103 Y-6.697
G0 Z3.000
G1 X7.103 Y-6.697 Z-0.200 F12.000
G2 X6.405 Y-8.394 Z-0.200 I-0.703 J-0.703 F120.000
G1 X6.240 Y-8.380 Z-0.200 F120.000
G2 X6.478 Y-6.409 Z-0.200 I0.155 J0.981 F120.000
G2 X7.103 Y-6.697 Z-0.200 I-0.078 J-0.991 F120.000
G1 X7.103 Y-6.697 Z-0.400 F12.000
G2 X6.405 Y-8.394 Z-0.400 I-0.703 J-0.703 F120.000
G1 X6.240 Y-8.380 Z-0.400 F120.000
G2 X6.478 Y-6.409 Z-0.400 I0.155 J0.981 F120.000
G2 X7.103 Y-6.697 Z-0.400 I-0.078 J-0.991 F120.000
G1 X7.103 Y-6.697 Z-0.600 F12.000
G2 X6.405 Y-8.394 Z-0.600 I-0.703 J-0.703 F120.000
G1 X6.240 Y-8.380 Z-0.600 F120.000
G2 X6.478 Y-6.409 Z-0.600 I0.155 J0.981 F120.000
G2 X7.103 Y-6.697 Z-0.600 I-0.078 J-0.991 F120.000
G1 X7.103 Y-6.697 Z-0.800 F12.000
G2 X6.405 Y-8.394 Z-0.800 I-0.703 J-0.703 F120.000
G1 X6.240 Y-8.380 Z-0.800 F120.000
G2 X6.478 Y-6.409 Z-0.800 I0.155 J0.981 F120.000
G2 X7.103 Y-6.697 Z-0.800 I-0.078 J-0.991 F120.000
G1 X7.103 Y-6.697 Z-1.000 F12.000
G2 X6.405 Y-8.394 Z-1.000 I-0.703 J-0.703 F120.000
G1 X6.240 Y-8.380 Z-1.000 F120.000
G2 X6.478 Y-6.409 Z-1.000 I0.155 J0.981 F120.000
G2 X7.103 Y-6.697 Z-1.000 I-0.078 J-0.991 F120.000
G1 X7.103 Y-6.697 Z-1.200 F12.000
G2 X6.405 Y-8.394 Z-1.200 I-0.703 J-0.703 F120.000
G1 X6.240 Y-8.380 Z-1.200 F120.000
G2 X6.478 Y-6.409 Z-1.200 I0.155 J0.981 F120.000
G2 X7.103 Y-6.697 Z-1.200 I-0.078 J-0.991 F120.000
G1 X7.103 Y-6.697 Z-1.400 F12.000
G2 X6.405 Y-8.394 Z-1.400 I-0.703 J-0.703 F120.000
G1 X6.240 Y-8.380 Z-1.400 F120.000
G2 X6.478 Y-6.409 Z-1.400 I0.155 J0.981 F120.000
G2 X7.103 Y-6.697 Z-1.400 I-0.078 J-0.991 F120.000
G1 X7.103 Y-6.697 Z-1.600 F12.000
G2 X6.405 Y-8.394 Z-1.600 I-0.703 J-0.703 F120.000
G1 X6.240 Y-8.380 Z-1.600 F120.000
G2 X6.478 Y-6.409 Z-1.600 I0.155 J0.981 F120.000
G2 X7.103 Y-6.697 Z-1.600 I-0.078 J-0.991 F120.000
G1 X7.103 Y-6.697 Z-1.800 F12.000
G2 X6.405 Y-8.394 Z-1.800 I-0.703 J-0.703 F120.000
G1 X6.240 Y-8.380 Z-1.800 F120.000
G2 X6.478 Y-6.409 Z-1.800 I0.155 J0.981 F120.000
G2 X7.103 Y-6.697 Z-1.800 I-0.078 J-0.991 F120.000
G1 X7.103 Y-6.697 Z-2.000 F12.000
G2 X6.405 Y-8.394 Z-2.000 I-0.703 J-0.703 F120.000
G1 X6.240 Y-8.380 Z-2.000 F120.000
G2 X6.478 Y-6.409 Z-2.000 I0.155 J0.981 F120.000
G2 X7.103 Y-6.697 Z-2.000 I-0.078 J-0.991 F120.000
G1 X7.103 Y-6.697 Z-2.200 F12.000
G2 X6.405 Y-8.394 Z-2.200 I-0.703 J-0.703 F120.000
G1 X6.240 Y-8.380 Z-2.200 F120.000
G2 X6.478 Y-6.409 Z-2.200 I0.155 J0.981 F120.000
G2 X7.103 Y-6.697 Z-2.200 I-0.078 J-0.991 F120.000
G1 X7.103 Y-6.697 Z-2.400 F12.000
G2 X6.405 Y-8.394 Z-2.400 I-0.703 J-0.703 F120.000
G1 X6.240 Y-8.380 Z-2.400 F120.000
G2 X6.478 Y-6.409 Z-2.400 I0.155 J0.981 F120.000
G2 X7.103 Y-6.697 Z-2.400 I-0.078 J-0.991 F120.000
G1 X7.103 Y-6.697 Z-2.600 F12.000
G2 X6.405 Y-8.394 Z-2.600 I-0.703 J-0.703 F120.000
G1 X6.240 Y-8.380 Z-2.600 F120.000
G2 X6.478 Y-6.409 Z-2.600 I0.155 J0.981 F120.000
G2 X7.103 Y-6.697 Z-2.600 I-0.078 J-0.991 F120.000
G1 X7.103 Y-6.697 Z-2.800 F12.000
G2 X6.405 Y-8.394 Z-2.800 I-0.703 J-0.703 F120.000
G1 X6.240 Y-8.380 Z-2.800 F120.000
G2 X6.478 Y-6.409 Z-2.800 I0.155 J0.981 F120.000
G2 X7.103 Y-6.697 Z-2.800 I-0.078 J-0.991 F120.000
G1 X7.103 Y-6.697 Z-3.000 F12.000
G2 X6.405 Y-8.394 Z-3.000 I-0.703 J-0.703 F120.000
G1 X6.240 Y-8.380 Z-3.000 F120.000
G2 X6.478 Y-6.409 Z-3.000 I0.155 J0.981 F120.000
G2 X7.103 Y-6.697 Z-3.000 I-0.078 J-0.991 F120.000
G1 X7.103 Y-6.697 Z-3.200 F12.000
G2 X6.405 Y-8.394 Z-3.200 I-0.703 J-0.703 F120.000
G1 X6.240 Y-8.380 Z-3.200 F120.000
G2 X6.478 Y-6.409 Z-3.200 I0.155 J0.981 F120.000
G2 X7.103 Y-6.697 Z-3.200 I-0.078 J-0.991 F120.000
G1 X7.103 Y-6.697 Z-3.400 F12.000
G2 X6.405 Y-8.394 Z-3.400 I-0.703 J-0.703 F120.000
G1 X6.240 Y-8.380 Z-3.400 F120.000
G2 X6.478 Y-6.409 Z-3.400 I0.155 J0.981 F120.000
G2 X7.103 Y-6.697 Z-3.400 I-0.078 J-0.991 F120.000
G1 X7.103 Y-6.697 Z-3.600 F12.000
G2 X6.405 Y-8.394 Z-3.600 I-0.703 J-0.703 F120.000
G1 X6.240 Y-8.380 Z-3.600 F120.000
G2 X6.478 Y-6.409 Z-3.600 I0.155 J0.981 F120.000
G2 X7.103 Y-6.697 Z-3.600 I-0.078 J-0.991 F120.000
G1 X7.103 Y-6.697 Z-3.800 F12.000
G2 X6.405 Y-8.394 Z-3.800 I-0.703 J-0.703 F120.000
G1 X6.240 Y-8.380 Z-3.800 F120.000
G2 X6.478 Y-6.409 Z-3.800 I0.155 J0.981 F120.000
G2 X7.103 Y-6.697 Z-3.800 I-0.078 J-0.991 F120.000
G1 X7.103 Y-6.697 Z-4.000 F12.000
G2 X6.405 Y-8.394 Z-4.000 I-0.703 J-0.703 F120.000
G1 X6.240 Y-8.380 Z-4.000 F120.000
G2 X6.478 Y-6.409 Z-4.000 I0.155 J0.981 F120.000
G2 X7.103 Y-6.697 Z-4.000 I-0.078 J-0.991 F120.000
G1 X7.103 Y-6.697 Z-4.200 F12.000
G2 X6.405 Y-8.394 Z-4.200 I-0.703 J-0.703 F120.000
G1 X6.240 Y-8.380 Z-4.200 F120.000
G2 X6.478 Y-6.409 Z-4.200 I0.155 J0.981 F120.000
G2 X7.103 Y-6.697 Z-4.200 I-0.078 J-0.991 F120.000
G1 X7.103 Y-6.697 Z-4.400 F12.000
G2 X6.405 Y-8.394 Z-4.400 I-0.703 J-0.703 F120.000
G1 X6.240 Y-8.380 Z-4.400 F120.000
G2 X6.478 Y-6.409 Z-4.400 I0.155 J0.981 F120.000
G2 X7.103 Y-6.697 Z-4.400 I-0.078 J-0.991 F120.000
G1 X7.103 Y-6.697 Z-4.600 F12.000
G2 X6.405 Y-8.394 Z-4.600 I-0.703 J-0.703 F120.000
G1 X6.240 Y-8.380 Z-4.600 F120.000
G2 X6.478 Y-6.409 Z-4.600 I0.155 J0.981 F120.000
G2 X7.103 Y-6.697 Z-4.600 I-0.078 J-0.991 F120.000
G1 X7.103 Y-6.697 Z-4.800 F12.000
G2 X6.405 Y-8.394 Z-4.800 I-0.703 J-0.703 F120.000
G1 X6.240 Y-8.380 Z-4.800 F120.000
G2 X6.478 Y-6.409 Z-4.800 I0.155 J0.981 F120.000
G2 X7.103 Y-6.697 Z-4.800 I-0.078 J-0.991 F120.000
G1 X7.103 Y-6.697 Z-5.000 F12.000
G2 X6.405 Y-8.394 Z-5.000 I-0.703 J-0.703 F120.000
G1 X6.240 Y-8.380 Z-5.000 F120.000
G2 X6.478 Y-6.409 Z-5.000 I0.155 J0.981 F120.000
G2 X7.103 Y-6.697 Z-5.000 I-0.078 J-0.991 F120.000
G0 Z5.000
(finish operation: Profile_Edges002)
(begin operation: T5: 6mm Endmill)
(machine: not set, mm/min)
(T5: 6mm Endmill)
M6 T5 G43 H5
M3 S3000
(finish operation: T5: 6mm Endmill)
(begin operation: Profile_Edges003)
(machine: not set, mm/min)
(Profile_Edges003)
(Compensated Tool Path. Diameter: 6.0)
G0 Z5.000
G0 X22.409 Y-5.991
G1 X22.409 Y-5.991 Z-9.250 F18.000
G2 X21.496 Y-9.330 Z-9.250 I-1.409 J-1.409 F240.000
G2 X20.505 Y-5.470 Z-9.250 I-0.496 J1.930 F240.000
G2 X22.409 Y-5.991 Z-9.250 I0.496 J-1.930 F240.000
G1 X22.409 Y-5.991 Z-9.500 F18.000
G2 X21.496 Y-9.330 Z-9.500 I-1.409 J-1.409 F240.000
G2 X20.505 Y-5.470 Z-9.500 I-0.496 J1.930 F240.000
G2 X22.409 Y-5.991 Z-9.500 I0.496 J-1.930 F240.000
G1 X22.409 Y-5.991 Z-9.750 F18.000
G2 X21.496 Y-9.330 Z-9.750 I-1.409 J-1.409 F240.000
G2 X20.505 Y-5.470 Z-9.750 I-0.496 J1.930 F240.000
G2 X22.409 Y-5.991 Z-9.750 I0.496 J-1.930 F240.000
G1 X22.409 Y-5.991 Z-10.000 F18.000
G2 X21.496 Y-9.330 Z-10.000 I-1.409 J-1.409 F240.000
G2 X20.505 Y-5.470 Z-10.000 I-0.496 J1.930 F240.000
G2 X22.409 Y-5.991 Z-10.000 I0.496 J-1.930 F240.000
G1 X22.409 Y-5.991 Z-10.250 F18.000
G2 X21.496 Y-9.330 Z-10.250 I-1.409 J-1.409 F240.000
G2 X20.505 Y-5.470 Z-10.250 I-0.496 J1.930 F240.000
G2 X22.409 Y-5.991 Z-10.250 I0.496 J-1.930 F240.000
G1 X22.409 Y-5.991 Z-10.500 F18.000
G2 X21.496 Y-9.330 Z-10.500 I-1.409 J-1.409 F240.000
G2 X20.505 Y-5.470 Z-10.500 I-0.496 J1.930 F240.000
G2 X22.409 Y-5.991 Z-10.500 I0.496 J-1.930 F240.000
G1 X22.409 Y-5.991 Z-10.750 F18.000
G2 X21.496 Y-9.330 Z-10.750 I-1.409 J-1.409 F240.000
G2 X20.505 Y-5.470 Z-10.750 I-0.496 J1.930 F240.000
G2 X22.409 Y-5.991 Z-10.750 I0.496 J-1.930 F240.000
G1 X22.409 Y-5.991 Z-11.000 F18.000
G2 X21.496 Y-9.330 Z-11.000 I-1.409 J-1.409 F240.000
G2 X20.505 Y-5.470 Z-11.000 I-0.496 J1.930 F240.000
G2 X22.409 Y-5.991 Z-11.000 I0.496 J-1.930 F240.000
G1 X22.409 Y-5.991 Z-11.250 F18.000
G2 X21.496 Y-9.330 Z-11.250 I-1.409 J-1.409 F240.000
G2 X20.505 Y-5.470 Z-11.250 I-0.496 J1.930 F240.000
G2 X22.409 Y-5.991 Z-11.250 I0.496 J-1.930 F240.000
G1 X22.409 Y-5.991 Z-11.500 F18.000
G2 X21.496 Y-9.330 Z-11.500 I-1.409 J-1.409 F240.000
G2 X20.505 Y-5.470 Z-11.500 I-0.496 J1.930 F240.000
G2 X22.409 Y-5.991 Z-11.500 I0.496 J-1.930 F240.000
G1 X22.409 Y-5.991 Z-11.750 F18.000
G2 X21.496 Y-9.330 Z-11.750 I-1.409 J-1.409 F240.000
G2 X20.505 Y-5.470 Z-11.750 I-0.496 J1.930 F240.000
G2 X22.409 Y-5.991 Z-11.750 I0.496 J-1.930 F240.000
G1 X22.409 Y-5.991 Z-12.000 F18.000
G2 X21.496 Y-9.330 Z-12.000 I-1.409 J-1.409 F240.000
G2 X20.505 Y-5.470 Z-12.000 I-0.496 J1.930 F240.000
G2 X22.409 Y-5.991 Z-12.000 I0.496 J-1.930 F240.000
G1 X22.409 Y-5.991 Z-12.250 F18.000
G2 X21.496 Y-9.330 Z-12.250 I-1.409 J-1.409 F240.000
G2 X20.505 Y-5.470 Z-12.250 I-0.496 J1.930 F240.000
G2 X22.409 Y-5.991 Z-12.250 I0.496 J-1.930 F240.000
G1 X22.409 Y-5.991 Z-12.500 F18.000
G2 X21.496 Y-9.330 Z-12.500 I-1.409 J-1.409 F240.000
G2 X20.505 Y-5.470 Z-12.500 I-0.496 J1.930 F240.000
G2 X22.409 Y-5.991 Z-12.500 I0.496 J-1.930 F240.000
G1 X22.409 Y-5.991 Z-12.750 F18.000
G2 X21.496 Y-9.330 Z-12.750 I-1.409 J-1.409 F240.000
G2 X20.505 Y-5.470 Z-12.750 I-0.496 J1.930 F240.000
G2 X22.409 Y-5.991 Z-12.750 I0.496 J-1.930 F240.000
G1 X22.409 Y-5.991 Z-13.000 F18.000
G2 X21.496 Y-9.330 Z-13.000 I-1.409 J-1.409 F240.000
G2 X20.505 Y-5.470 Z-13.000 I-0.496 J1.930 F240.000
G2 X22.409 Y-5.991 Z-13.000 I0.496 J-1.930 F240.000
G1 X22.409 Y-5.991 Z-13.250 F18.000
G2 X21.496 Y-9.330 Z-13.250 I-1.409 J-1.409 F240.000
G2 X20.505 Y-5.470 Z-13.250 I-0.496 J1.930 F240.000
G2 X22.409 Y-5.991 Z-13.250 I0.496 J-1.930 F240.000
G1 X22.409 Y-5.991 Z-13.300 F18.000
G2 X21.496 Y-9.330 Z-13.300 I-1.409 J-1.409 F240.000
G2 X20.505 Y-5.470 Z-13.300 I-0.496 J1.930 F240.000
G2 X22.409 Y-5.991 Z-13.300 I0.496 J-1.930 F240.000
G0 Z5.000
(finish operation: Profile_Edges003)
(begin postamble)
M05
G17 G54 G90 G80 G40
M2
