(Exported by FreeCAD)
(Post Processor: linuxcnc_post)
(Output Time:2019-04-19 10:12:15.652813)
(begin preamble)
G17 G54 G40 G49 G80 G90
G21
M8
(begin operation: T4: 12mm Endmill)
(machine: not set, mm/min)
(T4: 12mm Endmill)
M6 T4 G43 H4
M3 S3000
(finish operation: T4: 12mm Endmill)
(begin operation: Profile_Edges)
(machine: not set, mm/min)
(Profile_Edges)
(Compensated Tool Path. Diameter: 12.0)
G0 Z5.000
G0 X113.206 Y3.670
G0 Z3.000
G1 X113.206 Y3.670 Z-0.500 F30.000
G2 X114.963 Y-0.573 Z-0.500 I-4.243 J-4.243 F720.000
G1 X114.963 Y-14.427 Z-0.500 F720.000
G2 X108.963 Y-20.427 Z-0.500 I-6.000 J0.000 F720.000
G1 X52.643 Y-20.427 Z-0.500 F720.000
G1 X33.551 Y-37.709 Z-0.500 F720.000
G2 X29.525 Y-39.261 Z-0.500 I-4.027 J4.448 F720.000
G1 X1.267 Y-39.261 Z-0.500 F720.000
G2 X-4.733 Y-33.261 Z-0.500 I0.000 J6.000 F720.000
G1 X-4.733 Y-1.337 Z-0.500 F720.000
G2 X1.267 Y4.663 Z-0.500 I6.000 J-0.000 F720.000
G1 X28.858 Y4.663 Z-0.500 F720.000
G1 X29.960 Y5.065 Z-0.500 F720.000
G2 X32.013 Y5.427 Z-0.500 I2.053 J-5.638 F720.000
G1 X108.963 Y5.427 Z-0.500 F720.000
G2 X113.206 Y3.670 Z-0.500 I0.000 J-6.000 F720.000
G1 X113.206 Y3.670 Z-1.000 F30.000
G2 X114.963 Y-0.573 Z-1.000 I-4.243 J-4.243 F720.000
G1 X114.963 Y-14.427 Z-1.000 F720.000
G2 X108.963 Y-20.427 Z-1.000 I-6.000 J0.000 F720.000
G1 X52.643 Y-20.427 Z-1.000 F720.000
G1 X33.551 Y-37.709 Z-1.000 F720.000
G2 X29.525 Y-39.261 Z-1.000 I-4.027 J4.448 F720.000
G1 X1.267 Y-39.261 Z-1.000 F720.000
G2 X-4.733 Y-33.261 Z-1.000 I0.000 J6.000 F720.000
G1 X-4.733 Y-1.337 Z-1.000 F720.000
G2 X1.267 Y4.663 Z-1.000 I6.000 J-0.000 F720.000
G1 X28.858 Y4.663 Z-1.000 F720.000
G1 X29.960 Y5.065 Z-1.000 F720.000
G2 X32.013 Y5.427 Z-1.000 I2.053 J-5.638 F720.000
G1 X108.963 Y5.427 Z-1.000 F720.000
G2 X113.206 Y3.670 Z-1.000 I0.000 J-6.000 F720.000
G1 X113.206 Y3.670 Z-1.500 F30.000
G2 X114.963 Y-0.573 Z-1.500 I-4.243 J-4.243 F720.000
G1 X114.963 Y-14.427 Z-1.500 F720.000
G2 X108.963 Y-20.427 Z-1.500 I-6.000 J0.000 F720.000
G1 X52.643 Y-20.427 Z-1.500 F720.000
G1 X33.551 Y-37.709 Z-1.500 F720.000
G2 X29.525 Y-39.261 Z-1.500 I-4.027 J4.448 F720.000
G1 X1.267 Y-39.261 Z-1.500 F720.000
G2 X-4.733 Y-33.261 Z-1.500 I0.000 J6.000 F720.000
G1 X-4.733 Y-1.337 Z-1.500 F720.000
G2 X1.267 Y4.663 Z-1.500 I6.000 J-0.000 F720.000
G1 X28.858 Y4.663 Z-1.500 F720.000
G1 X29.960 Y5.065 Z-1.500 F720.000
G2 X32.013 Y5.427 Z-1.500 I2.053 J-5.638 F720.000
G1 X108.963 Y5.427 Z-1.500 F720.000
G2 X113.206 Y3.670 Z-1.500 I0.000 J-6.000 F720.000
G1 X113.206 Y3.670 Z-2.000 F30.000
G2 X114.963 Y-0.573 Z-2.000 I-4.243 J-4.243 F720.000
G1 X114.963 Y-14.427 Z-2.000 F720.000
G2 X108.963 Y-20.427 Z-2.000 I-6.000 J0.000 F720.000
G1 X52.643 Y-20.427 Z-2.000 F720.000
G1 X33.551 Y-37.709 Z-2.000 F720.000
G2 X29.525 Y-39.261 Z-2.000 I-4.027 J4.448 F720.000
G1 X1.267 Y-39.261 Z-2.000 F720.000
G2 X-4.733 Y-33.261 Z-2.000 I0.000 J6.000 F720.000
G1 X-4.733 Y-1.337 Z-2.000 F720.000
G2 X1.267 Y4.663 Z-2.000 I6.000 J-0.000 F720.000
G1 X28.858 Y4.663 Z-2.000 F720.000
G1 X29.960 Y5.065 Z-2.000 F720.000
G2 X32.013 Y5.427 Z-2.000 I2.053 J-5.638 F720.000
G1 X108.963 Y5.427 Z-2.000 F720.000
G2 X113.206 Y3.670 Z-2.000 I0.000 J-6.000 F720.000
G1 X113.206 Y3.670 Z-2.500 F30.000
G2 X114.963 Y-0.573 Z-2.500 I-4.243 J-4.243 F720.000
G1 X114.963 Y-14.427 Z-2.500 F720.000
G2 X108.963 Y-20.427 Z-2.500 I-6.000 J0.000 F720.000
G1 X52.643 Y-20.427 Z-2.500 F720.000
G1 X33.551 Y-37.709 Z-2.500 F720.000
G2 X29.525 Y-39.261 Z-2.500 I-4.027 J4.448 F720.000
G1 X1.267 Y-39.261 Z-2.500 F720.000
G2 X-4.733 Y-33.261 Z-2.500 I0.000 J6.000 F720.000
G1 X-4.733 Y-1.337 Z-2.500 F720.000
G2 X1.267 Y4.663 Z-2.500 I6.000 J-0.000 F720.000
G1 X28.858 Y4.663 Z-2.500 F720.000
G1 X29.960 Y5.065 Z-2.500 F720.000
G2 X32.013 Y5.427 Z-2.500 I2.053 J-5.638 F720.000
G1 X108.963 Y5.427 Z-2.500 F720.000
G2 X113.206 Y3.670 Z-2.500 I0.000 J-6.000 F720.000
G1 X113.206 Y3.670 Z-3.000 F30.000
G2 X114.963 Y-0.573 Z-3.000 I-4.243 J-4.243 F720.000
G1 X114.963 Y-14.427 Z-3.000 F720.000
G2 X108.963 Y-20.427 Z-3.000 I-6.000 J0.000 F720.000
G1 X52.643 Y-20.427 Z-3.000 F720.000
G1 X33.551 Y-37.709 Z-3.000 F720.000
G2 X29.525 Y-39.261 Z-3.000 I-4.027 J4.448 F720.000
G1 X1.267 Y-39.261 Z-3.000 F720.000
G2 X-4.733 Y-33.261 Z-3.000 I0.000 J6.000 F720.000
G1 X-4.733 Y-1.337 Z-3.000 F720.000
G2 X1.267 Y4.663 Z-3.000 I6.000 J-0.000 F720.000
G1 X28.858 Y4.663 Z-3.000 F720.000
G1 X29.960 Y5.065 Z-3.000 F720.000
G2 X32.013 Y5.427 Z-3.000 I2.053 J-5.638 F720.000
G1 X108.963 Y5.427 Z-3.000 F720.000
G2 X113.206 Y3.670 Z-3.000 I0.000 J-6.000 F720.000
G0 Z5.000
(finish operation: Profile_Edges)
(begin operation: T4: 12mm Endmill)
(machine: not set, mm/min)
(T4: 12mm Endmill)
M6 T4 G43 H4
M3 S3000
(finish operation: T4: 12mm Endmill)
(begin operation: Profile_Edges001)
(machine: not set, mm/min)
(Profile_Edges001)
(Compensated Tool Path. Diameter: 12.0)
G0 Z5.000
G0 X19.260 Y-15.225
G0 Z3.000
G1 X19.260 Y-15.225 Z-0.500 F30.000
G2 X16.279 Y-24.531 Z-0.500 I-3.885 J-3.885 F720.000
G2 X14.470 Y-13.691 Z-0.500 I-0.904 J5.420 F720.000
G2 X19.260 Y-15.225 Z-0.500 I0.904 J-5.420 F720.000
G1 X19.260 Y-15.225 Z-1.000 F30.000
G2 X16.279 Y-24.531 Z-1.000 I-3.885 J-3.885 F720.000
G2 X14.470 Y-13.691 Z-1.000 I-0.904 J5.420 F720.000
G2 X19.260 Y-15.225 Z-1.000 I0.904 J-5.420 F720.000
G1 X19.260 Y-15.225 Z-1.500 F30.000
G2 X16.279 Y-24.531 Z-1.500 I-3.885 J-3.885 F720.000
G2 X14.470 Y-13.691 Z-1.500 I-0.904 J5.420 F720.000
G2 X19.260 Y-15.225 Z-1.500 I0.904 J-5.420 F720.000
G1 X19.260 Y-15.225 Z-2.000 F30.000
G2 X16.279 Y-24.531 Z-2.000 I-3.885 J-3.885 F720.000
G2 X14.470 Y-13.691 Z-2.000 I-0.904 J5.420 F720.000
G2 X19.260 Y-15.225 Z-2.000 I0.904 J-5.420 F720.000
G1 X19.260 Y-15.225 Z-2.500 F30.000
G2 X16.279 Y-24.531 Z-2.500 I-3.885 J-3.885 F720.000
G2 X14.470 Y-13.691 Z-2.500 I-0.904 J5.420 F720.000
G2 X19.260 Y-15.225 Z-2.500 I0.904 J-5.420 F720.000
G1 X19.260 Y-15.225 Z-3.000 F30.000
G2 X16.279 Y-24.531 Z-3.000 I-3.885 J-3.885 F720.000
G2 X14.470 Y-13.691 Z-3.000 I-0.904 J5.420 F720.000
G2 X19.260 Y-15.225 Z-3.000 I0.904 J-5.420 F720.000
G0 Z5.000
(finish operation: Profile_Edges001)
(begin operation: T9: 2.5mm Drill (M3 tap))
(machine: not set, mm/min)
(T9: 2.5mm Drill M3 tap)
M6 T9 G43 H9
M3 S800
(finish operation: T9: 2.5mm Drill (M3 tap))
(begin operation: Drilling)
(machine: not set, mm/min)
(Drilling)
(Begin Drilling)
G0 Z5.000
G90
G98
G83 X3.875 Y-7.611 Z-4.500 F60.000 Q0.100 R3.000
G83 X3.875 Y-30.611 Z-4.500 F60.000 Q0.100 R3.000
G83 X26.875 Y-30.611 Z-4.500 F60.000 Q0.100 R3.000
G83 X34.963 Y-20.073 Z-4.500 F60.000 Q0.100 R3.000
G83 X34.963 Y-8.073 Z-4.500 F60.000 Q0.100 R3.000
G83 X69.963 Y-8.073 Z-4.500 F60.000 Q0.100 R3.000
G83 X100.963 Y-8.073 Z-4.500 F60.000 Q0.100 R3.000
G80
G0 Z5.000
(finish operation: Drilling)
(begin operation: T19: 2mm drill)
(machine: not set, mm/min)
(T19: 2mm drill)
M6 T19 G43 H19
M3 S800
(finish operation: T19: 2mm drill)
(begin operation: Drilling001)
(machine: not set, mm/min)
(Drilling001)
(Begin Drilling)
G0 Z5.000
G90
G98
G83 X8.987 Y-3.187 Z-4.500 F60.000 Q0.100 R3.000
G83 X8.987 Y-7.187 Z-4.500 F60.000 Q0.100 R3.000
G83 X106.963 Y-4.573 Z-4.500 F60.000 Q0.100 R3.000
G83 X106.963 Y-11.573 Z-4.500 F60.000 Q0.100 R3.000
G80
G0 Z5.000
(finish operation: Drilling001)
(begin postamble)
M05
G17 G54 G90 G80 G40
M2
