(Exported by FreeCAD)
(Post Processor: linuxcnc_post)
(Output Time:2019-06-05 10:52:03.260137)
(begin preamble)
G17 G54 G40 G49 G80 G90
G21
M8
(begin operation: T4: 12mm Endmill)
(machine: not set, mm/min)
(T4: 12mm Endmill)
M6 T4 G43 H4
M3 S3000
(finish operation: T4: 12mm Endmill)
(begin operation: Profile_Edges)
(machine: not set, mm/min)
(Profile_Edges)
(Compensated Tool Path. Diameter: 12.0)
G0 Z5.000
G0 X113.122 Y2.938
G0 Z3.000
G1 X113.122 Y2.938 Z-0.500 F30.000
G2 X115.167 Y-1.573 Z-0.500 I-3.956 J-4.511 F720.000
G1 X115.167 Y-15.427 Z-0.500 F720.000
G2 X109.167 Y-21.427 Z-0.500 I-6.000 J0.000 F720.000
G1 X52.346 Y-21.427 Z-0.500 F720.000
G1 X33.255 Y-38.709 Z-0.500 F720.000
G2 X29.228 Y-40.261 Z-0.500 I-4.027 J4.448 F720.000
G1 X0.971 Y-40.261 Z-0.500 F720.000
G2 X-5.029 Y-34.261 Z-0.500 I0.000 J6.000 F720.000
G1 X-5.029 Y-0.661 Z-0.500 F720.000
G2 X0.971 Y5.339 Z-0.500 I6.000 J0.000 F720.000
G1 X91.965 Y5.339 Z-0.500 F720.000
G1 X92.830 Y5.276 Z-0.500 F720.000
G1 X98.653 Y4.427 Z-0.500 F720.000
G1 X109.167 Y4.427 Z-0.500 F720.000
G2 X113.122 Y2.938 Z-0.500 I0.000 J-6.000 F720.000
G1 X113.122 Y2.938 Z-1.000 F30.000
G2 X115.167 Y-1.573 Z-1.000 I-3.956 J-4.511 F720.000
G1 X115.167 Y-15.427 Z-1.000 F720.000
G2 X109.167 Y-21.427 Z-1.000 I-6.000 J0.000 F720.000
G1 X52.346 Y-21.427 Z-1.000 F720.000
G1 X33.255 Y-38.709 Z-1.000 F720.000
G2 X29.228 Y-40.261 Z-1.000 I-4.027 J4.448 F720.000
G1 X0.971 Y-40.261 Z-1.000 F720.000
G2 X-5.029 Y-34.261 Z-1.000 I0.000 J6.000 F720.000
G1 X-5.029 Y-0.661 Z-1.000 F720.000
G2 X0.971 Y5.339 Z-1.000 I6.000 J0.000 F720.000
G1 X91.965 Y5.339 Z-1.000 F720.000
G1 X92.830 Y5.276 Z-1.000 F720.000
G1 X98.653 Y4.427 Z-1.000 F720.000
G1 X109.167 Y4.427 Z-1.000 F720.000
G2 X113.122 Y2.938 Z-1.000 I0.000 J-6.000 F720.000
G1 X113.122 Y2.938 Z-1.500 F30.000
G2 X115.167 Y-1.573 Z-1.500 I-3.956 J-4.511 F720.000
G1 X115.167 Y-15.427 Z-1.500 F720.000
G2 X109.167 Y-21.427 Z-1.500 I-6.000 J0.000 F720.000
G1 X52.346 Y-21.427 Z-1.500 F720.000
G1 X33.255 Y-38.709 Z-1.500 F720.000
G2 X29.228 Y-40.261 Z-1.500 I-4.027 J4.448 F720.000
G1 X0.971 Y-40.261 Z-1.500 F720.000
G2 X-5.029 Y-34.261 Z-1.500 I0.000 J6.000 F720.000
G1 X-5.029 Y-0.661 Z-1.500 F720.000
G2 X0.971 Y5.339 Z-1.500 I6.000 J0.000 F720.000
G1 X91.965 Y5.339 Z-1.500 F720.000
G1 X92.830 Y5.276 Z-1.500 F720.000
G1 X98.653 Y4.427 Z-1.500 F720.000
G1 X109.167 Y4.427 Z-1.500 F720.000
G2 X113.122 Y2.938 Z-1.500 I0.000 J-6.000 F720.000
G1 X113.122 Y2.938 Z-2.000 F30.000
G2 X115.167 Y-1.573 Z-2.000 I-3.956 J-4.511 F720.000
G1 X115.167 Y-15.427 Z-2.000 F720.000
G2 X109.167 Y-21.427 Z-2.000 I-6.000 J0.000 F720.000
G1 X52.346 Y-21.427 Z-2.000 F720.000
G1 X33.255 Y-38.709 Z-2.000 F720.000
G2 X29.228 Y-40.261 Z-2.000 I-4.027 J4.448 F720.000
G1 X0.971 Y-40.261 Z-2.000 F720.000
G2 X-5.029 Y-34.261 Z-2.000 I0.000 J6.000 F720.000
G1 X-5.029 Y-0.661 Z-2.000 F720.000
G2 X0.971 Y5.339 Z-2.000 I6.000 J0.000 F720.000
G1 X91.965 Y5.339 Z-2.000 F720.000
G1 X92.830 Y5.276 Z-2.000 F720.000
G1 X98.653 Y4.427 Z-2.000 F720.000
G1 X109.167 Y4.427 Z-2.000 F720.000
G2 X113.122 Y2.938 Z-2.000 I0.000 J-6.000 F720.000
G1 X113.122 Y2.938 Z-2.500 F30.000
G2 X115.167 Y-1.573 Z-2.500 I-3.956 J-4.511 F720.000
G1 X115.167 Y-15.427 Z-2.500 F720.000
G2 X109.167 Y-21.427 Z-2.500 I-6.000 J0.000 F720.000
G1 X52.346 Y-21.427 Z-2.500 F720.000
G1 X33.255 Y-38.709 Z-2.500 F720.000
G2 X29.228 Y-40.261 Z-2.500 I-4.027 J4.448 F720.000
G1 X0.971 Y-40.261 Z-2.500 F720.000
G2 X-5.029 Y-34.261 Z-2.500 I0.000 J6.000 F720.000
G1 X-5.029 Y-0.661 Z-2.500 F720.000
G2 X0.971 Y5.339 Z-2.500 I6.000 J0.000 F720.000
G1 X91.965 Y5.339 Z-2.500 F720.000
G1 X92.830 Y5.276 Z-2.500 F720.000
G1 X98.653 Y4.427 Z-2.500 F720.000
G1 X109.167 Y4.427 Z-2.500 F720.000
G2 X113.122 Y2.938 Z-2.500 I0.000 J-6.000 F720.000
G1 X113.122 Y2.938 Z-3.000 F30.000
G2 X115.167 Y-1.573 Z-3.000 I-3.956 J-4.511 F720.000
G1 X115.167 Y-15.427 Z-3.000 F720.000
G2 X109.167 Y-21.427 Z-3.000 I-6.000 J0.000 F720.000
G1 X52.346 Y-21.427 Z-3.000 F720.000
G1 X33.255 Y-38.709 Z-3.000 F720.000
G2 X29.228 Y-40.261 Z-3.000 I-4.027 J4.448 F720.000
G1 X0.971 Y-40.261 Z-3.000 F720.000
G2 X-5.029 Y-34.261 Z-3.000 I0.000 J6.000 F720.000
G1 X-5.029 Y-0.661 Z-3.000 F720.000
G2 X0.971 Y5.339 Z-3.000 I6.000 J0.000 F720.000
G1 X91.965 Y5.339 Z-3.000 F720.000
G1 X92.830 Y5.276 Z-3.000 F720.000
G1 X98.653 Y4.427 Z-3.000 F720.000
G1 X109.167 Y4.427 Z-3.000 F720.000
G2 X113.122 Y2.938 Z-3.000 I0.000 J-6.000 F720.000
G1 X113.122 Y2.938 Z-3.500 F30.000
G2 X115.167 Y-1.573 Z-3.500 I-3.956 J-4.511 F720.000
G1 X115.167 Y-15.427 Z-3.500 F720.000
G2 X109.167 Y-21.427 Z-3.500 I-6.000 J0.000 F720.000
G1 X52.346 Y-21.427 Z-3.500 F720.000
G1 X33.255 Y-38.709 Z-3.500 F720.000
G2 X29.228 Y-40.261 Z-3.500 I-4.027 J4.448 F720.000
G1 X0.971 Y-40.261 Z-3.500 F720.000
G2 X-5.029 Y-34.261 Z-3.500 I0.000 J6.000 F720.000
G1 X-5.029 Y-0.661 Z-3.500 F720.000
G2 X0.971 Y5.339 Z-3.500 I6.000 J0.000 F720.000
G1 X91.965 Y5.339 Z-3.500 F720.000
G1 X92.830 Y5.276 Z-3.500 F720.000
G1 X98.653 Y4.427 Z-3.500 F720.000
G1 X109.167 Y4.427 Z-3.500 F720.000
G2 X113.122 Y2.938 Z-3.500 I0.000 J-6.000 F720.000
G1 X113.122 Y2.938 Z-4.000 F30.000
G2 X115.167 Y-1.573 Z-4.000 I-3.956 J-4.511 F720.000
G1 X115.167 Y-15.427 Z-4.000 F720.000
G2 X109.167 Y-21.427 Z-4.000 I-6.000 J0.000 F720.000
G1 X52.346 Y-21.427 Z-4.000 F720.000
G1 X33.255 Y-38.709 Z-4.000 F720.000
G2 X29.228 Y-40.261 Z-4.000 I-4.027 J4.448 F720.000
G1 X0.971 Y-40.261 Z-4.000 F720.000
G2 X-5.029 Y-34.261 Z-4.000 I0.000 J6.000 F720.000
G1 X-5.029 Y-0.661 Z-4.000 F720.000
G2 X0.971 Y5.339 Z-4.000 I6.000 J0.000 F720.000
G1 X91.965 Y5.339 Z-4.000 F720.000
G1 X92.830 Y5.276 Z-4.000 F720.000
G1 X98.653 Y4.427 Z-4.000 F720.000
G1 X109.167 Y4.427 Z-4.000 F720.000
G2 X113.122 Y2.938 Z-4.000 I0.000 J-6.000 F720.000
G1 X113.122 Y2.938 Z-4.500 F30.000
G2 X115.167 Y-1.573 Z-4.500 I-3.956 J-4.511 F720.000
G1 X115.167 Y-15.427 Z-4.500 F720.000
G2 X109.167 Y-21.427 Z-4.500 I-6.000 J0.000 F720.000
G1 X52.346 Y-21.427 Z-4.500 F720.000
G1 X33.255 Y-38.709 Z-4.500 F720.000
G2 X29.228 Y-40.261 Z-4.500 I-4.027 J4.448 F720.000
G1 X0.971 Y-40.261 Z-4.500 F720.000
G2 X-5.029 Y-34.261 Z-4.500 I0.000 J6.000 F720.000
G1 X-5.029 Y-0.661 Z-4.500 F720.000
G2 X0.971 Y5.339 Z-4.500 I6.000 J0.000 F720.000
G1 X91.965 Y5.339 Z-4.500 F720.000
G1 X92.830 Y5.276 Z-4.500 F720.000
G1 X98.653 Y4.427 Z-4.500 F720.000
G1 X109.167 Y4.427 Z-4.500 F720.000
G2 X113.122 Y2.938 Z-4.500 I0.000 J-6.000 F720.000
G1 X113.122 Y2.938 Z-5.000 F30.000
G2 X115.167 Y-1.573 Z-5.000 I-3.956 J-4.511 F720.000
G1 X115.167 Y-15.427 Z-5.000 F720.000
G2 X109.167 Y-21.427 Z-5.000 I-6.000 J0.000 F720.000
G1 X52.346 Y-21.427 Z-5.000 F720.000
G1 X33.255 Y-38.709 Z-5.000 F720.000
G2 X29.228 Y-40.261 Z-5.000 I-4.027 J4.448 F720.000
G1 X0.971 Y-40.261 Z-5.000 F720.000
G2 X-5.029 Y-34.261 Z-5.000 I0.000 J6.000 F720.000
G1 X-5.029 Y-0.661 Z-5.000 F720.000
G2 X0.971 Y5.339 Z-5.000 I6.000 J0.000 F720.000
G1 X91.965 Y5.339 Z-5.000 F720.000
G1 X92.830 Y5.276 Z-5.000 F720.000
G1 X98.653 Y4.427 Z-5.000 F720.000
G1 X109.167 Y4.427 Z-5.000 F720.000
G2 X113.122 Y2.938 Z-5.000 I0.000 J-6.000 F720.000
G1 X113.122 Y2.938 Z-5.500 F30.000
G2 X115.167 Y-1.573 Z-5.500 I-3.956 J-4.511 F720.000
G1 X115.167 Y-15.427 Z-5.500 F720.000
G2 X109.167 Y-21.427 Z-5.500 I-6.000 J0.000 F720.000
G1 X52.346 Y-21.427 Z-5.500 F720.000
G1 X33.255 Y-38.709 Z-5.500 F720.000
G2 X29.228 Y-40.261 Z-5.500 I-4.027 J4.448 F720.000
G1 X0.971 Y-40.261 Z-5.500 F720.000
G2 X-5.029 Y-34.261 Z-5.500 I0.000 J6.000 F720.000
G1 X-5.029 Y-0.661 Z-5.500 F720.000
G2 X0.971 Y5.339 Z-5.500 I6.000 J0.000 F720.000
G1 X91.965 Y5.339 Z-5.500 F720.000
G1 X92.830 Y5.276 Z-5.500 F720.000
G1 X98.653 Y4.427 Z-5.500 F720.000
G1 X109.167 Y4.427 Z-5.500 F720.000
G2 X113.122 Y2.938 Z-5.500 I0.000 J-6.000 F720.000
G1 X113.122 Y2.938 Z-6.000 F30.000
G2 X115.167 Y-1.573 Z-6.000 I-3.956 J-4.511 F720.000
G1 X115.167 Y-15.427 Z-6.000 F720.000
G2 X109.167 Y-21.427 Z-6.000 I-6.000 J0.000 F720.000
G1 X52.346 Y-21.427 Z-6.000 F720.000
G1 X33.255 Y-38.709 Z-6.000 F720.000
G2 X29.228 Y-40.261 Z-6.000 I-4.027 J4.448 F720.000
G1 X0.971 Y-40.261 Z-6.000 F720.000
G2 X-5.029 Y-34.261 Z-6.000 I0.000 J6.000 F720.000
G1 X-5.029 Y-0.661 Z-6.000 F720.000
G2 X0.971 Y5.339 Z-6.000 I6.000 J0.000 F720.000
G1 X91.965 Y5.339 Z-6.000 F720.000
G1 X92.830 Y5.276 Z-6.000 F720.000
G1 X98.653 Y4.427 Z-6.000 F720.000
G1 X109.167 Y4.427 Z-6.000 F720.000
G2 X113.122 Y2.938 Z-6.000 I0.000 J-6.000 F720.000
G1 X113.122 Y2.938 Z-6.500 F30.000
G2 X115.167 Y-1.573 Z-6.500 I-3.956 J-4.511 F720.000
G1 X115.167 Y-15.427 Z-6.500 F720.000
G2 X109.167 Y-21.427 Z-6.500 I-6.000 J0.000 F720.000
G1 X52.346 Y-21.427 Z-6.500 F720.000
G1 X33.255 Y-38.709 Z-6.500 F720.000
G2 X29.228 Y-40.261 Z-6.500 I-4.027 J4.448 F720.000
G1 X0.971 Y-40.261 Z-6.500 F720.000
G2 X-5.029 Y-34.261 Z-6.500 I0.000 J6.000 F720.000
G1 X-5.029 Y-0.661 Z-6.500 F720.000
G2 X0.971 Y5.339 Z-6.500 I6.000 J0.000 F720.000
G1 X91.965 Y5.339 Z-6.500 F720.000
G1 X92.830 Y5.276 Z-6.500 F720.000
G1 X98.653 Y4.427 Z-6.500 F720.000
G1 X109.167 Y4.427 Z-6.500 F720.000
G2 X113.122 Y2.938 Z-6.500 I0.000 J-6.000 F720.000
G1 X113.122 Y2.938 Z-7.000 F30.000
G2 X115.167 Y-1.573 Z-7.000 I-3.956 J-4.511 F720.000
G1 X115.167 Y-15.427 Z-7.000 F720.000
G2 X109.167 Y-21.427 Z-7.000 I-6.000 J0.000 F720.000
G1 X52.346 Y-21.427 Z-7.000 F720.000
G1 X33.255 Y-38.709 Z-7.000 F720.000
G2 X29.228 Y-40.261 Z-7.000 I-4.027 J4.448 F720.000
G1 X0.971 Y-40.261 Z-7.000 F720.000
G2 X-5.029 Y-34.261 Z-7.000 I0.000 J6.000 F720.000
G1 X-5.029 Y-0.661 Z-7.000 F720.000
G2 X0.971 Y5.339 Z-7.000 I6.000 J0.000 F720.000
G1 X91.965 Y5.339 Z-7.000 F720.000
G1 X92.830 Y5.276 Z-7.000 F720.000
G1 X98.653 Y4.427 Z-7.000 F720.000
G1 X109.167 Y4.427 Z-7.000 F720.000
G2 X113.122 Y2.938 Z-7.000 I0.000 J-6.000 F720.000
G1 X113.122 Y2.938 Z-7.500 F30.000
G2 X115.167 Y-1.573 Z-7.500 I-3.956 J-4.511 F720.000
G1 X115.167 Y-15.427 Z-7.500 F720.000
G2 X109.167 Y-21.427 Z-7.500 I-6.000 J0.000 F720.000
G1 X52.346 Y-21.427 Z-7.500 F720.000
G1 X33.255 Y-38.709 Z-7.500 F720.000
G2 X29.228 Y-40.261 Z-7.500 I-4.027 J4.448 F720.000
G1 X0.971 Y-40.261 Z-7.500 F720.000
G2 X-5.029 Y-34.261 Z-7.500 I0.000 J6.000 F720.000
G1 X-5.029 Y-0.661 Z-7.500 F720.000
G2 X0.971 Y5.339 Z-7.500 I6.000 J0.000 F720.000
G1 X91.965 Y5.339 Z-7.500 F720.000
G1 X92.830 Y5.276 Z-7.500 F720.000
G1 X98.653 Y4.427 Z-7.500 F720.000
G1 X109.167 Y4.427 Z-7.500 F720.000
G2 X113.122 Y2.938 Z-7.500 I0.000 J-6.000 F720.000
G1 X113.122 Y2.938 Z-8.000 F30.000
G2 X115.167 Y-1.573 Z-8.000 I-3.956 J-4.511 F720.000
G1 X115.167 Y-15.427 Z-8.000 F720.000
G2 X109.167 Y-21.427 Z-8.000 I-6.000 J0.000 F720.000
G1 X52.346 Y-21.427 Z-8.000 F720.000
G1 X33.255 Y-38.709 Z-8.000 F720.000
G2 X29.228 Y-40.261 Z-8.000 I-4.027 J4.448 F720.000
G1 X0.971 Y-40.261 Z-8.000 F720.000
G2 X-5.029 Y-34.261 Z-8.000 I0.000 J6.000 F720.000
G1 X-5.029 Y-0.661 Z-8.000 F720.000
G2 X0.971 Y5.339 Z-8.000 I6.000 J0.000 F720.000
G1 X91.965 Y5.339 Z-8.000 F720.000
G1 X92.830 Y5.276 Z-8.000 F720.000
G1 X98.653 Y4.427 Z-8.000 F720.000
G1 X109.167 Y4.427 Z-8.000 F720.000
G2 X113.122 Y2.938 Z-8.000 I0.000 J-6.000 F720.000
G1 X113.122 Y2.938 Z-8.500 F30.000
G2 X115.167 Y-1.573 Z-8.500 I-3.956 J-4.511 F720.000
G1 X115.167 Y-15.427 Z-8.500 F720.000
G2 X109.167 Y-21.427 Z-8.500 I-6.000 J0.000 F720.000
G1 X52.346 Y-21.427 Z-8.500 F720.000
G1 X33.255 Y-38.709 Z-8.500 F720.000
G2 X29.228 Y-40.261 Z-8.500 I-4.027 J4.448 F720.000
G1 X0.971 Y-40.261 Z-8.500 F720.000
G2 X-5.029 Y-34.261 Z-8.500 I0.000 J6.000 F720.000
G1 X-5.029 Y-0.661 Z-8.500 F720.000
G2 X0.971 Y5.339 Z-8.500 I6.000 J0.000 F720.000
G1 X91.965 Y5.339 Z-8.500 F720.000
G1 X92.830 Y5.276 Z-8.500 F720.000
G1 X98.653 Y4.427 Z-8.500 F720.000
G1 X109.167 Y4.427 Z-8.500 F720.000
G2 X113.122 Y2.938 Z-8.500 I0.000 J-6.000 F720.000
G1 X113.122 Y2.938 Z-9.000 F30.000
G2 X115.167 Y-1.573 Z-9.000 I-3.956 J-4.511 F720.000
G1 X115.167 Y-15.427 Z-9.000 F720.000
G2 X109.167 Y-21.427 Z-9.000 I-6.000 J0.000 F720.000
G1 X52.346 Y-21.427 Z-9.000 F720.000
G1 X33.255 Y-38.709 Z-9.000 F720.000
G2 X29.228 Y-40.261 Z-9.000 I-4.027 J4.448 F720.000
G1 X0.971 Y-40.261 Z-9.000 F720.000
G2 X-5.029 Y-34.261 Z-9.000 I0.000 J6.000 F720.000
G1 X-5.029 Y-0.661 Z-9.000 F720.000
G2 X0.971 Y5.339 Z-9.000 I6.000 J0.000 F720.000
G1 X91.965 Y5.339 Z-9.000 F720.000
G1 X92.830 Y5.276 Z-9.000 F720.000
G1 X98.653 Y4.427 Z-9.000 F720.000
G1 X109.167 Y4.427 Z-9.000 F720.000
G2 X113.122 Y2.938 Z-9.000 I0.000 J-6.000 F720.000
G1 X113.122 Y2.938 Z-9.500 F30.000
G2 X115.167 Y-1.573 Z-9.500 I-3.956 J-4.511 F720.000
G1 X115.167 Y-15.427 Z-9.500 F720.000
G2 X109.167 Y-21.427 Z-9.500 I-6.000 J0.000 F720.000
G1 X52.346 Y-21.427 Z-9.500 F720.000
G1 X33.255 Y-38.709 Z-9.500 F720.000
G2 X29.228 Y-40.261 Z-9.500 I-4.027 J4.448 F720.000
G1 X0.971 Y-40.261 Z-9.500 F720.000
G2 X-5.029 Y-34.261 Z-9.500 I0.000 J6.000 F720.000
G1 X-5.029 Y-0.661 Z-9.500 F720.000
G2 X0.971 Y5.339 Z-9.500 I6.000 J0.000 F720.000
G1 X91.965 Y5.339 Z-9.500 F720.000
G1 X92.830 Y5.276 Z-9.500 F720.000
G1 X98.653 Y4.427 Z-9.500 F720.000
G1 X109.167 Y4.427 Z-9.500 F720.000
G2 X113.122 Y2.938 Z-9.500 I0.000 J-6.000 F720.000
G1 X113.122 Y2.938 Z-10.000 F30.000
G2 X115.167 Y-1.573 Z-10.000 I-3.956 J-4.511 F720.000
G1 X115.167 Y-15.427 Z-10.000 F720.000
G2 X109.167 Y-21.427 Z-10.000 I-6.000 J0.000 F720.000
G1 X52.346 Y-21.427 Z-10.000 F720.000
G1 X33.255 Y-38.709 Z-10.000 F720.000
G2 X29.228 Y-40.261 Z-10.000 I-4.027 J4.448 F720.000
G1 X0.971 Y-40.261 Z-10.000 F720.000
G2 X-5.029 Y-34.261 Z-10.000 I0.000 J6.000 F720.000
G1 X-5.029 Y-0.661 Z-10.000 F720.000
G2 X0.971 Y5.339 Z-10.000 I6.000 J0.000 F720.000
G1 X91.965 Y5.339 Z-10.000 F720.000
G1 X92.830 Y5.276 Z-10.000 F720.000
G1 X98.653 Y4.427 Z-10.000 F720.000
G1 X109.167 Y4.427 Z-10.000 F720.000
G2 X113.122 Y2.938 Z-10.000 I0.000 J-6.000 F720.000
G1 X113.122 Y2.938 Z-10.500 F30.000
G2 X115.167 Y-1.573 Z-10.500 I-3.956 J-4.511 F720.000
G1 X115.167 Y-15.427 Z-10.500 F720.000
G2 X109.167 Y-21.427 Z-10.500 I-6.000 J0.000 F720.000
G1 X52.346 Y-21.427 Z-10.500 F720.000
G1 X33.255 Y-38.709 Z-10.500 F720.000
G2 X29.228 Y-40.261 Z-10.500 I-4.027 J4.448 F720.000
G1 X0.971 Y-40.261 Z-10.500 F720.000
G2 X-5.029 Y-34.261 Z-10.500 I0.000 J6.000 F720.000
G1 X-5.029 Y-0.661 Z-10.500 F720.000
G2 X0.971 Y5.339 Z-10.500 I6.000 J0.000 F720.000
G1 X91.965 Y5.339 Z-10.500 F720.000
G1 X92.830 Y5.276 Z-10.500 F720.000
G1 X98.653 Y4.427 Z-10.500 F720.000
G1 X109.167 Y4.427 Z-10.500 F720.000
G2 X113.122 Y2.938 Z-10.500 I0.000 J-6.000 F720.000
G1 X113.122 Y2.938 Z-11.000 F30.000
G2 X115.167 Y-1.573 Z-11.000 I-3.956 J-4.511 F720.000
G1 X115.167 Y-15.427 Z-11.000 F720.000
G2 X109.167 Y-21.427 Z-11.000 I-6.000 J0.000 F720.000
G1 X52.346 Y-21.427 Z-11.000 F720.000
G1 X33.255 Y-38.709 Z-11.000 F720.000
G2 X29.228 Y-40.261 Z-11.000 I-4.027 J4.448 F720.000
G1 X0.971 Y-40.261 Z-11.000 F720.000
G2 X-5.029 Y-34.261 Z-11.000 I0.000 J6.000 F720.000
G1 X-5.029 Y-0.661 Z-11.000 F720.000
G2 X0.971 Y5.339 Z-11.000 I6.000 J0.000 F720.000
G1 X91.965 Y5.339 Z-11.000 F720.000
G1 X92.830 Y5.276 Z-11.000 F720.000
G1 X98.653 Y4.427 Z-11.000 F720.000
G1 X109.167 Y4.427 Z-11.000 F720.000
G2 X113.122 Y2.938 Z-11.000 I0.000 J-6.000 F720.000
G1 X113.122 Y2.938 Z-11.500 F30.000
G2 X115.167 Y-1.573 Z-11.500 I-3.956 J-4.511 F720.000
G1 X115.167 Y-15.427 Z-11.500 F720.000
G2 X109.167 Y-21.427 Z-11.500 I-6.000 J0.000 F720.000
G1 X52.346 Y-21.427 Z-11.500 F720.000
G1 X33.255 Y-38.709 Z-11.500 F720.000
G2 X29.228 Y-40.261 Z-11.500 I-4.027 J4.448 F720.000
G1 X0.971 Y-40.261 Z-11.500 F720.000
G2 X-5.029 Y-34.261 Z-11.500 I0.000 J6.000 F720.000
G1 X-5.029 Y-0.661 Z-11.500 F720.000
G2 X0.971 Y5.339 Z-11.500 I6.000 J0.000 F720.000
G1 X91.965 Y5.339 Z-11.500 F720.000
G1 X92.830 Y5.276 Z-11.500 F720.000
G1 X98.653 Y4.427 Z-11.500 F720.000
G1 X109.167 Y4.427 Z-11.500 F720.000
G2 X113.122 Y2.938 Z-11.500 I0.000 J-6.000 F720.000
G1 X113.122 Y2.938 Z-12.000 F30.000
G2 X115.167 Y-1.573 Z-12.000 I-3.956 J-4.511 F720.000
G1 X115.167 Y-15.427 Z-12.000 F720.000
G2 X109.167 Y-21.427 Z-12.000 I-6.000 J0.000 F720.000
G1 X52.346 Y-21.427 Z-12.000 F720.000
G1 X33.255 Y-38.709 Z-12.000 F720.000
G2 X29.228 Y-40.261 Z-12.000 I-4.027 J4.448 F720.000
G1 X0.971 Y-40.261 Z-12.000 F720.000
G2 X-5.029 Y-34.261 Z-12.000 I0.000 J6.000 F720.000
G1 X-5.029 Y-0.661 Z-12.000 F720.000
G2 X0.971 Y5.339 Z-12.000 I6.000 J0.000 F720.000
G1 X91.965 Y5.339 Z-12.000 F720.000
G1 X92.830 Y5.276 Z-12.000 F720.000
G1 X98.653 Y4.427 Z-12.000 F720.000
G1 X109.167 Y4.427 Z-12.000 F720.000
G2 X113.122 Y2.938 Z-12.000 I0.000 J-6.000 F720.000
G1 X113.122 Y2.938 Z-12.500 F30.000
G2 X115.167 Y-1.573 Z-12.500 I-3.956 J-4.511 F720.000
G1 X115.167 Y-15.427 Z-12.500 F720.000
G2 X109.167 Y-21.427 Z-12.500 I-6.000 J0.000 F720.000
G1 X52.346 Y-21.427 Z-12.500 F720.000
G1 X33.255 Y-38.709 Z-12.500 F720.000
G2 X29.228 Y-40.261 Z-12.500 I-4.027 J4.448 F720.000
G1 X0.971 Y-40.261 Z-12.500 F720.000
G2 X-5.029 Y-34.261 Z-12.500 I0.000 J6.000 F720.000
G1 X-5.029 Y-0.661 Z-12.500 F720.000
G2 X0.971 Y5.339 Z-12.500 I6.000 J0.000 F720.000
G1 X91.965 Y5.339 Z-12.500 F720.000
G1 X92.830 Y5.276 Z-12.500 F720.000
G1 X98.653 Y4.427 Z-12.500 F720.000
G1 X109.167 Y4.427 Z-12.500 F720.000
G2 X113.122 Y2.938 Z-12.500 I0.000 J-6.000 F720.000
G1 X113.122 Y2.938 Z-13.000 F30.000
G2 X115.167 Y-1.573 Z-13.000 I-3.956 J-4.511 F720.000
G1 X115.167 Y-15.427 Z-13.000 F720.000
G2 X109.167 Y-21.427 Z-13.000 I-6.000 J0.000 F720.000
G1 X52.346 Y-21.427 Z-13.000 F720.000
G1 X33.255 Y-38.709 Z-13.000 F720.000
G2 X29.228 Y-40.261 Z-13.000 I-4.027 J4.448 F720.000
G1 X0.971 Y-40.261 Z-13.000 F720.000
G2 X-5.029 Y-34.261 Z-13.000 I0.000 J6.000 F720.000
G1 X-5.029 Y-0.661 Z-13.000 F720.000
G2 X0.971 Y5.339 Z-13.000 I6.000 J0.000 F720.000
G1 X91.965 Y5.339 Z-13.000 F720.000
G1 X92.830 Y5.276 Z-13.000 F720.000
G1 X98.653 Y4.427 Z-13.000 F720.000
G1 X109.167 Y4.427 Z-13.000 F720.000
G2 X113.122 Y2.938 Z-13.000 I0.000 J-6.000 F720.000
G1 X113.122 Y2.938 Z-13.500 F30.000
G2 X115.167 Y-1.573 Z-13.500 I-3.956 J-4.511 F720.000
G1 X115.167 Y-15.427 Z-13.500 F720.000
G2 X109.167 Y-21.427 Z-13.500 I-6.000 J0.000 F720.000
G1 X52.346 Y-21.427 Z-13.500 F720.000
G1 X33.255 Y-38.709 Z-13.500 F720.000
G2 X29.228 Y-40.261 Z-13.500 I-4.027 J4.448 F720.000
G1 X0.971 Y-40.261 Z-13.500 F720.000
G2 X-5.029 Y-34.261 Z-13.500 I0.000 J6.000 F720.000
G1 X-5.029 Y-0.661 Z-13.500 F720.000
G2 X0.971 Y5.339 Z-13.500 I6.000 J0.000 F720.000
G1 X91.965 Y5.339 Z-13.500 F720.000
G1 X92.830 Y5.276 Z-13.500 F720.000
G1 X98.653 Y4.427 Z-13.500 F720.000
G1 X109.167 Y4.427 Z-13.500 F720.000
G2 X113.122 Y2.938 Z-13.500 I0.000 J-6.000 F720.000
G0 Z5.000
(finish operation: Profile_Edges)
(begin operation: T4: 12mm Endmill)
(machine: not set, mm/min)
(T4: 12mm Endmill)
M6 T4 G43 H4
M3 S3000
(finish operation: T4: 12mm Endmill)
(begin operation: Profile_Edges001)
(machine: not set, mm/min)
(Profile_Edges001)
(Compensated Tool Path. Diameter: 12.0)
G0 Z5.000
G0 X18.964 Y-16.225
G0 Z3.000
G1 X18.964 Y-16.225 Z-0.500 F30.000
G2 X20.498 Y-19.206 Z-0.500 I-3.885 J-3.885 F720.000
G2 X9.658 Y-21.015 Z-0.500 I-5.420 J-0.904 F720.000
G2 X18.964 Y-16.225 Z-0.500 I5.420 J0.904 F720.000
G1 X18.964 Y-16.225 Z-1.000 F30.000
G2 X20.498 Y-19.206 Z-1.000 I-3.885 J-3.885 F720.000
G2 X9.658 Y-21.015 Z-1.000 I-5.420 J-0.904 F720.000
G2 X18.964 Y-16.225 Z-1.000 I5.420 J0.904 F720.000
G1 X18.964 Y-16.225 Z-1.500 F30.000
G2 X20.498 Y-19.206 Z-1.500 I-3.885 J-3.885 F720.000
G2 X9.658 Y-21.015 Z-1.500 I-5.420 J-0.904 F720.000
G2 X18.964 Y-16.225 Z-1.500 I5.420 J0.904 F720.000
G1 X18.964 Y-16.225 Z-2.000 F30.000
G2 X20.498 Y-19.206 Z-2.000 I-3.885 J-3.885 F720.000
G2 X9.658 Y-21.015 Z-2.000 I-5.420 J-0.904 F720.000
G2 X18.964 Y-16.225 Z-2.000 I5.420 J0.904 F720.000
G1 X18.964 Y-16.225 Z-2.500 F30.000
G2 X20.498 Y-19.206 Z-2.500 I-3.885 J-3.885 F720.000
G2 X9.658 Y-21.015 Z-2.500 I-5.420 J-0.904 F720.000
G2 X18.964 Y-16.225 Z-2.500 I5.420 J0.904 F720.000
G1 X18.964 Y-16.225 Z-3.000 F30.000
G2 X20.498 Y-19.206 Z-3.000 I-3.885 J-3.885 F720.000
G2 X9.658 Y-21.015 Z-3.000 I-5.420 J-0.904 F720.000
G2 X18.964 Y-16.225 Z-3.000 I5.420 J0.904 F720.000
G1 X18.964 Y-16.225 Z-3.500 F30.000
G2 X20.498 Y-19.206 Z-3.500 I-3.885 J-3.885 F720.000
G2 X9.658 Y-21.015 Z-3.500 I-5.420 J-0.904 F720.000
G2 X18.964 Y-16.225 Z-3.500 I5.420 J0.904 F720.000
G1 X18.964 Y-16.225 Z-4.000 F30.000
G2 X20.498 Y-19.206 Z-4.000 I-3.885 J-3.885 F720.000
G2 X9.658 Y-21.015 Z-4.000 I-5.420 J-0.904 F720.000
G2 X18.964 Y-16.225 Z-4.000 I5.420 J0.904 F720.000
G1 X18.964 Y-16.225 Z-4.500 F30.000
G2 X20.498 Y-19.206 Z-4.500 I-3.885 J-3.885 F720.000
G2 X9.658 Y-21.015 Z-4.500 I-5.420 J-0.904 F720.000
G2 X18.964 Y-16.225 Z-4.500 I5.420 J0.904 F720.000
G1 X18.964 Y-16.225 Z-5.000 F30.000
G2 X20.498 Y-19.206 Z-5.000 I-3.885 J-3.885 F720.000
G2 X9.658 Y-21.015 Z-5.000 I-5.420 J-0.904 F720.000
G2 X18.964 Y-16.225 Z-5.000 I5.420 J0.904 F720.000
G1 X18.964 Y-16.225 Z-5.500 F30.000
G2 X20.498 Y-19.206 Z-5.500 I-3.885 J-3.885 F720.000
G2 X9.658 Y-21.015 Z-5.500 I-5.420 J-0.904 F720.000
G2 X18.964 Y-16.225 Z-5.500 I5.420 J0.904 F720.000
G1 X18.964 Y-16.225 Z-6.000 F30.000
G2 X20.498 Y-19.206 Z-6.000 I-3.885 J-3.885 F720.000
G2 X9.658 Y-21.015 Z-6.000 I-5.420 J-0.904 F720.000
G2 X18.964 Y-16.225 Z-6.000 I5.420 J0.904 F720.000
G1 X18.964 Y-16.225 Z-6.500 F30.000
G2 X20.498 Y-19.206 Z-6.500 I-3.885 J-3.885 F720.000
G2 X9.658 Y-21.015 Z-6.500 I-5.420 J-0.904 F720.000
G2 X18.964 Y-16.225 Z-6.500 I5.420 J0.904 F720.000
G1 X18.964 Y-16.225 Z-7.000 F30.000
G2 X20.498 Y-19.206 Z-7.000 I-3.885 J-3.885 F720.000
G2 X9.658 Y-21.015 Z-7.000 I-5.420 J-0.904 F720.000
G2 X18.964 Y-16.225 Z-7.000 I5.420 J0.904 F720.000
G1 X18.964 Y-16.225 Z-7.500 F30.000
G2 X20.498 Y-19.206 Z-7.500 I-3.885 J-3.885 F720.000
G2 X9.658 Y-21.015 Z-7.500 I-5.420 J-0.904 F720.000
G2 X18.964 Y-16.225 Z-7.500 I5.420 J0.904 F720.000
G1 X18.964 Y-16.225 Z-8.000 F30.000
G2 X20.498 Y-19.206 Z-8.000 I-3.885 J-3.885 F720.000
G2 X9.658 Y-21.015 Z-8.000 I-5.420 J-0.904 F720.000
G2 X18.964 Y-16.225 Z-8.000 I5.420 J0.904 F720.000
G1 X18.964 Y-16.225 Z-8.500 F30.000
G2 X20.498 Y-19.206 Z-8.500 I-3.885 J-3.885 F720.000
G2 X9.658 Y-21.015 Z-8.500 I-5.420 J-0.904 F720.000
G2 X18.964 Y-16.225 Z-8.500 I5.420 J0.904 F720.000
G1 X18.964 Y-16.225 Z-9.000 F30.000
G2 X20.498 Y-19.206 Z-9.000 I-3.885 J-3.885 F720.000
G2 X9.658 Y-21.015 Z-9.000 I-5.420 J-0.904 F720.000
G2 X18.964 Y-16.225 Z-9.000 I5.420 J0.904 F720.000
G1 X18.964 Y-16.225 Z-9.500 F30.000
G2 X20.498 Y-19.206 Z-9.500 I-3.885 J-3.885 F720.000
G2 X9.658 Y-21.015 Z-9.500 I-5.420 J-0.904 F720.000
G2 X18.964 Y-16.225 Z-9.500 I5.420 J0.904 F720.000
G1 X18.964 Y-16.225 Z-10.000 F30.000
G2 X20.498 Y-19.206 Z-10.000 I-3.885 J-3.885 F720.000
G2 X9.658 Y-21.015 Z-10.000 I-5.420 J-0.904 F720.000
G2 X18.964 Y-16.225 Z-10.000 I5.420 J0.904 F720.000
G1 X18.964 Y-16.225 Z-10.500 F30.000
G2 X20.498 Y-19.206 Z-10.500 I-3.885 J-3.885 F720.000
G2 X9.658 Y-21.015 Z-10.500 I-5.420 J-0.904 F720.000
G2 X18.964 Y-16.225 Z-10.500 I5.420 J0.904 F720.000
G1 X18.964 Y-16.225 Z-11.000 F30.000
G2 X20.498 Y-19.206 Z-11.000 I-3.885 J-3.885 F720.000
G2 X9.658 Y-21.015 Z-11.000 I-5.420 J-0.904 F720.000
G2 X18.964 Y-16.225 Z-11.000 I5.420 J0.904 F720.000
G1 X18.964 Y-16.225 Z-11.500 F30.000
G2 X20.498 Y-19.206 Z-11.500 I-3.885 J-3.885 F720.000
G2 X9.658 Y-21.015 Z-11.500 I-5.420 J-0.904 F720.000
G2 X18.964 Y-16.225 Z-11.500 I5.420 J0.904 F720.000
G1 X18.964 Y-16.225 Z-12.000 F30.000
G2 X20.498 Y-19.206 Z-12.000 I-3.885 J-3.885 F720.000
G2 X9.658 Y-21.015 Z-12.000 I-5.420 J-0.904 F720.000
G2 X18.964 Y-16.225 Z-12.000 I5.420 J0.904 F720.000
G1 X18.964 Y-16.225 Z-12.500 F30.000
G2 X20.498 Y-19.206 Z-12.500 I-3.885 J-3.885 F720.000
G2 X9.658 Y-21.015 Z-12.500 I-5.420 J-0.904 F720.000
G2 X18.964 Y-16.225 Z-12.500 I5.420 J0.904 F720.000
G1 X18.964 Y-16.225 Z-13.000 F30.000
G2 X20.498 Y-19.206 Z-13.000 I-3.885 J-3.885 F720.000
G2 X9.658 Y-21.015 Z-13.000 I-5.420 J-0.904 F720.000
G2 X18.964 Y-16.225 Z-13.000 I5.420 J0.904 F720.000
G1 X18.964 Y-16.225 Z-13.500 F30.000
G2 X20.498 Y-19.206 Z-13.500 I-3.885 J-3.885 F720.000
G2 X9.658 Y-21.015 Z-13.500 I-5.420 J-0.904 F720.000
G2 X18.964 Y-16.225 Z-13.500 I5.420 J0.904 F720.000
G0 Z5.000
(finish operation: Profile_Edges001)
(begin operation: T5: 6mm Endmill)
(machine: not set, mm/min)
(T5: 6mm Endmill)
M6 T5 G43 H5
M3 S3000
(finish operation: T5: 6mm Endmill)
(begin operation: Profile_Edges002)
(machine: not set, mm/min)
(Profile_Edges002)
(Compensated Tool Path. Diameter: 6.0)
G0 Z5.000
G0 X61.727 Y-7.691
G0 Z3.000
G1 X61.727 Y-7.691 Z-0.300 F18.000
G2 X61.280 Y-8.544 Z-0.300 I-0.350 J-0.360 F240.000
G1 X43.195 Y-8.544 Z-0.300 F240.000
G2 X42.938 Y-8.514 Z-0.300 I-0.028 J0.868 F240.000
G2 X43.195 Y-7.544 Z-0.300 I0.156 J0.478 F240.000
G1 X61.280 Y-7.544 Z-0.300 F240.000
G2 X61.526 Y-7.572 Z-0.300 I0.027 J-0.869 F240.000
G2 X61.727 Y-7.691 Z-0.300 I-0.150 J-0.479 F240.000
G1 X61.727 Y-7.691 Z-0.600 F18.000
G2 X61.280 Y-8.544 Z-0.600 I-0.350 J-0.360 F240.000
G1 X43.195 Y-8.544 Z-0.600 F240.000
G2 X42.938 Y-8.514 Z-0.600 I-0.028 J0.868 F240.000
G2 X43.195 Y-7.544 Z-0.600 I0.156 J0.478 F240.000
G1 X61.280 Y-7.544 Z-0.600 F240.000
G2 X61.526 Y-7.572 Z-0.600 I0.027 J-0.869 F240.000
G2 X61.727 Y-7.691 Z-0.600 I-0.150 J-0.479 F240.000
G1 X61.727 Y-7.691 Z-0.900 F18.000
G2 X61.280 Y-8.544 Z-0.900 I-0.350 J-0.360 F240.000
G1 X43.195 Y-8.544 Z-0.900 F240.000
G2 X42.938 Y-8.514 Z-0.900 I-0.028 J0.868 F240.000
G2 X43.195 Y-7.544 Z-0.900 I0.156 J0.478 F240.000
G1 X61.280 Y-7.544 Z-0.900 F240.000
G2 X61.526 Y-7.572 Z-0.900 I0.027 J-0.869 F240.000
G2 X61.727 Y-7.691 Z-0.900 I-0.150 J-0.479 F240.000
G1 X61.727 Y-7.691 Z-1.200 F18.000
G2 X61.280 Y-8.544 Z-1.200 I-0.350 J-0.360 F240.000
G1 X43.195 Y-8.544 Z-1.200 F240.000
G2 X42.938 Y-8.514 Z-1.200 I-0.028 J0.868 F240.000
G2 X43.195 Y-7.544 Z-1.200 I0.156 J0.478 F240.000
G1 X61.280 Y-7.544 Z-1.200 F240.000
G2 X61.526 Y-7.572 Z-1.200 I0.027 J-0.869 F240.000
G2 X61.727 Y-7.691 Z-1.200 I-0.150 J-0.479 F240.000
G1 X61.727 Y-7.691 Z-1.500 F18.000
G2 X61.280 Y-8.544 Z-1.500 I-0.350 J-0.360 F240.000
G1 X43.195 Y-8.544 Z-1.500 F240.000
G2 X42.938 Y-8.514 Z-1.500 I-0.028 J0.868 F240.000
G2 X43.195 Y-7.544 Z-1.500 I0.156 J0.478 F240.000
G1 X61.280 Y-7.544 Z-1.500 F240.000
G2 X61.526 Y-7.572 Z-1.500 I0.027 J-0.869 F240.000
G2 X61.727 Y-7.691 Z-1.500 I-0.150 J-0.479 F240.000
G1 X61.727 Y-7.691 Z-1.800 F18.000
G2 X61.280 Y-8.544 Z-1.800 I-0.350 J-0.360 F240.000
G1 X43.195 Y-8.544 Z-1.800 F240.000
G2 X42.938 Y-8.514 Z-1.800 I-0.028 J0.868 F240.000
G2 X43.195 Y-7.544 Z-1.800 I0.156 J0.478 F240.000
G1 X61.280 Y-7.544 Z-1.800 F240.000
G2 X61.526 Y-7.572 Z-1.800 I0.027 J-0.869 F240.000
G2 X61.727 Y-7.691 Z-1.800 I-0.150 J-0.479 F240.000
G1 X61.727 Y-7.691 Z-2.100 F18.000
G2 X61.280 Y-8.544 Z-2.100 I-0.350 J-0.360 F240.000
G1 X43.195 Y-8.544 Z-2.100 F240.000
G2 X42.938 Y-8.514 Z-2.100 I-0.028 J0.868 F240.000
G2 X43.195 Y-7.544 Z-2.100 I0.156 J0.478 F240.000
G1 X61.280 Y-7.544 Z-2.100 F240.000
G2 X61.526 Y-7.572 Z-2.100 I0.027 J-0.869 F240.000
G2 X61.727 Y-7.691 Z-2.100 I-0.150 J-0.479 F240.000
G1 X61.727 Y-7.691 Z-2.400 F18.000
G2 X61.280 Y-8.544 Z-2.400 I-0.350 J-0.360 F240.000
G1 X43.195 Y-8.544 Z-2.400 F240.000
G2 X42.938 Y-8.514 Z-2.400 I-0.028 J0.868 F240.000
G2 X43.195 Y-7.544 Z-2.400 I0.156 J0.478 F240.000
G1 X61.280 Y-7.544 Z-2.400 F240.000
G2 X61.526 Y-7.572 Z-2.400 I0.027 J-0.869 F240.000
G2 X61.727 Y-7.691 Z-2.400 I-0.150 J-0.479 F240.000
G1 X61.727 Y-7.691 Z-2.700 F18.000
G2 X61.280 Y-8.544 Z-2.700 I-0.350 J-0.360 F240.000
G1 X43.195 Y-8.544 Z-2.700 F240.000
G2 X42.938 Y-8.514 Z-2.700 I-0.028 J0.868 F240.000
G2 X43.195 Y-7.544 Z-2.700 I0.156 J0.478 F240.000
G1 X61.280 Y-7.544 Z-2.700 F240.000
G2 X61.526 Y-7.572 Z-2.700 I0.027 J-0.869 F240.000
G2 X61.727 Y-7.691 Z-2.700 I-0.150 J-0.479 F240.000
G1 X61.727 Y-7.691 Z-3.000 F18.000
G2 X61.280 Y-8.544 Z-3.000 I-0.350 J-0.360 F240.000
G1 X43.195 Y-8.544 Z-3.000 F240.000
G2 X42.938 Y-8.514 Z-3.000 I-0.028 J0.868 F240.000
G2 X43.195 Y-7.544 Z-3.000 I0.156 J0.478 F240.000
G1 X61.280 Y-7.544 Z-3.000 F240.000
G2 X61.526 Y-7.572 Z-3.000 I0.027 J-0.869 F240.000
G2 X61.727 Y-7.691 Z-3.000 I-0.150 J-0.479 F240.000
G1 X61.727 Y-7.691 Z-3.300 F18.000
G2 X61.280 Y-8.544 Z-3.300 I-0.350 J-0.360 F240.000
G1 X43.195 Y-8.544 Z-3.300 F240.000
G2 X42.938 Y-8.514 Z-3.300 I-0.028 J0.868 F240.000
G2 X43.195 Y-7.544 Z-3.300 I0.156 J0.478 F240.000
G1 X61.280 Y-7.544 Z-3.300 F240.000
G2 X61.526 Y-7.572 Z-3.300 I0.027 J-0.869 F240.000
G2 X61.727 Y-7.691 Z-3.300 I-0.150 J-0.479 F240.000
G1 X61.727 Y-7.691 Z-3.600 F18.000
G2 X61.280 Y-8.544 Z-3.600 I-0.350 J-0.360 F240.000
G1 X43.195 Y-8.544 Z-3.600 F240.000
G2 X42.938 Y-8.514 Z-3.600 I-0.028 J0.868 F240.000
G2 X43.195 Y-7.544 Z-3.600 I0.156 J0.478 F240.000
G1 X61.280 Y-7.544 Z-3.600 F240.000
G2 X61.526 Y-7.572 Z-3.600 I0.027 J-0.869 F240.000
G2 X61.727 Y-7.691 Z-3.600 I-0.150 J-0.479 F240.000
G1 X61.727 Y-7.691 Z-3.900 F18.000
G2 X61.280 Y-8.544 Z-3.900 I-0.350 J-0.360 F240.000
G1 X43.195 Y-8.544 Z-3.900 F240.000
G2 X42.938 Y-8.514 Z-3.900 I-0.028 J0.868 F240.000
G2 X43.195 Y-7.544 Z-3.900 I0.156 J0.478 F240.000
G1 X61.280 Y-7.544 Z-3.900 F240.000
G2 X61.526 Y-7.572 Z-3.900 I0.027 J-0.869 F240.000
G2 X61.727 Y-7.691 Z-3.900 I-0.150 J-0.479 F240.000
G1 X61.727 Y-7.691 Z-4.200 F18.000
G2 X61.280 Y-8.544 Z-4.200 I-0.350 J-0.360 F240.000
G1 X43.195 Y-8.544 Z-4.200 F240.000
G2 X42.938 Y-8.514 Z-4.200 I-0.028 J0.868 F240.000
G2 X43.195 Y-7.544 Z-4.200 I0.156 J0.478 F240.000
G1 X61.280 Y-7.544 Z-4.200 F240.000
G2 X61.526 Y-7.572 Z-4.200 I0.027 J-0.869 F240.000
G2 X61.727 Y-7.691 Z-4.200 I-0.150 J-0.479 F240.000
G1 X61.727 Y-7.691 Z-4.500 F18.000
G2 X61.280 Y-8.544 Z-4.500 I-0.350 J-0.360 F240.000
G1 X43.195 Y-8.544 Z-4.500 F240.000
G2 X42.938 Y-8.514 Z-4.500 I-0.028 J0.868 F240.000
G2 X43.195 Y-7.544 Z-4.500 I0.156 J0.478 F240.000
G1 X61.280 Y-7.544 Z-4.500 F240.000
G2 X61.526 Y-7.572 Z-4.500 I0.027 J-0.869 F240.000
G2 X61.727 Y-7.691 Z-4.500 I-0.150 J-0.479 F240.000
G1 X61.727 Y-7.691 Z-4.800 F18.000
G2 X61.280 Y-8.544 Z-4.800 I-0.350 J-0.360 F240.000
G1 X43.195 Y-8.544 Z-4.800 F240.000
G2 X42.938 Y-8.514 Z-4.800 I-0.028 J0.868 F240.000
G2 X43.195 Y-7.544 Z-4.800 I0.156 J0.478 F240.000
G1 X61.280 Y-7.544 Z-4.800 F240.000
G2 X61.526 Y-7.572 Z-4.800 I0.027 J-0.869 F240.000
G2 X61.727 Y-7.691 Z-4.800 I-0.150 J-0.479 F240.000
G1 X61.727 Y-7.691 Z-5.100 F18.000
G2 X61.280 Y-8.544 Z-5.100 I-0.350 J-0.360 F240.000
G1 X43.195 Y-8.544 Z-5.100 F240.000
G2 X42.938 Y-8.514 Z-5.100 I-0.028 J0.868 F240.000
G2 X43.195 Y-7.544 Z-5.100 I0.156 J0.478 F240.000
G1 X61.280 Y-7.544 Z-5.100 F240.000
G2 X61.526 Y-7.572 Z-5.100 I0.027 J-0.869 F240.000
G2 X61.727 Y-7.691 Z-5.100 I-0.150 J-0.479 F240.000
G1 X61.727 Y-7.691 Z-5.400 F18.000
G2 X61.280 Y-8.544 Z-5.400 I-0.350 J-0.360 F240.000
G1 X43.195 Y-8.544 Z-5.400 F240.000
G2 X42.938 Y-8.514 Z-5.400 I-0.028 J0.868 F240.000
G2 X43.195 Y-7.544 Z-5.400 I0.156 J0.478 F240.000
G1 X61.280 Y-7.544 Z-5.400 F240.000
G2 X61.526 Y-7.572 Z-5.400 I0.027 J-0.869 F240.000
G2 X61.727 Y-7.691 Z-5.400 I-0.150 J-0.479 F240.000
G1 X61.727 Y-7.691 Z-5.700 F18.000
G2 X61.280 Y-8.544 Z-5.700 I-0.350 J-0.360 F240.000
G1 X43.195 Y-8.544 Z-5.700 F240.000
G2 X42.938 Y-8.514 Z-5.700 I-0.028 J0.868 F240.000
G2 X43.195 Y-7.544 Z-5.700 I0.156 J0.478 F240.000
G1 X61.280 Y-7.544 Z-5.700 F240.000
G2 X61.526 Y-7.572 Z-5.700 I0.027 J-0.869 F240.000
G2 X61.727 Y-7.691 Z-5.700 I-0.150 J-0.479 F240.000
G1 X61.727 Y-7.691 Z-6.000 F18.000
G2 X61.280 Y-8.544 Z-6.000 I-0.350 J-0.360 F240.000
G1 X43.195 Y-8.544 Z-6.000 F240.000
G2 X42.938 Y-8.514 Z-6.000 I-0.028 J0.868 F240.000
G2 X43.195 Y-7.544 Z-6.000 I0.156 J0.478 F240.000
G1 X61.280 Y-7.544 Z-6.000 F240.000
G2 X61.526 Y-7.572 Z-6.000 I0.027 J-0.869 F240.000
G2 X61.727 Y-7.691 Z-6.000 I-0.150 J-0.479 F240.000
G1 X61.727 Y-7.691 Z-6.300 F18.000
G2 X61.280 Y-8.544 Z-6.300 I-0.350 J-0.360 F240.000
G1 X43.195 Y-8.544 Z-6.300 F240.000
G2 X42.938 Y-8.514 Z-6.300 I-0.028 J0.868 F240.000
G2 X43.195 Y-7.544 Z-6.300 I0.156 J0.478 F240.000
G1 X61.280 Y-7.544 Z-6.300 F240.000
G2 X61.526 Y-7.572 Z-6.300 I0.027 J-0.869 F240.000
G2 X61.727 Y-7.691 Z-6.300 I-0.150 J-0.479 F240.000
G1 X61.727 Y-7.691 Z-6.600 F18.000
G2 X61.280 Y-8.544 Z-6.600 I-0.350 J-0.360 F240.000
G1 X43.195 Y-8.544 Z-6.600 F240.000
G2 X42.938 Y-8.514 Z-6.600 I-0.028 J0.868 F240.000
G2 X43.195 Y-7.544 Z-6.600 I0.156 J0.478 F240.000
G1 X61.280 Y-7.544 Z-6.600 F240.000
G2 X61.526 Y-7.572 Z-6.600 I0.027 J-0.869 F240.000
G2 X61.727 Y-7.691 Z-6.600 I-0.150 J-0.479 F240.000
G1 X61.727 Y-7.691 Z-6.900 F18.000
G2 X61.280 Y-8.544 Z-6.900 I-0.350 J-0.360 F240.000
G1 X43.195 Y-8.544 Z-6.900 F240.000
G2 X42.938 Y-8.514 Z-6.900 I-0.028 J0.868 F240.000
G2 X43.195 Y-7.544 Z-6.900 I0.156 J0.478 F240.000
G1 X61.280 Y-7.544 Z-6.900 F240.000
G2 X61.526 Y-7.572 Z-6.900 I0.027 J-0.869 F240.000
G2 X61.727 Y-7.691 Z-6.900 I-0.150 J-0.479 F240.000
G1 X61.727 Y-7.691 Z-7.200 F18.000
G2 X61.280 Y-8.544 Z-7.200 I-0.350 J-0.360 F240.000
G1 X43.195 Y-8.544 Z-7.200 F240.000
G2 X42.938 Y-8.514 Z-7.200 I-0.028 J0.868 F240.000
G2 X43.195 Y-7.544 Z-7.200 I0.156 J0.478 F240.000
G1 X61.280 Y-7.544 Z-7.200 F240.000
G2 X61.526 Y-7.572 Z-7.200 I0.027 J-0.869 F240.000
G2 X61.727 Y-7.691 Z-7.200 I-0.150 J-0.479 F240.000
G1 X61.727 Y-7.691 Z-7.500 F18.000
G2 X61.280 Y-8.544 Z-7.500 I-0.350 J-0.360 F240.000
G1 X43.195 Y-8.544 Z-7.500 F240.000
G2 X42.938 Y-8.514 Z-7.500 I-0.028 J0.868 F240.000
G2 X43.195 Y-7.544 Z-7.500 I0.156 J0.478 F240.000
G1 X61.280 Y-7.544 Z-7.500 F240.000
G2 X61.526 Y-7.572 Z-7.500 I0.027 J-0.869 F240.000
G2 X61.727 Y-7.691 Z-7.500 I-0.150 J-0.479 F240.000
G1 X61.727 Y-7.691 Z-7.800 F18.000
G2 X61.280 Y-8.544 Z-7.800 I-0.350 J-0.360 F240.000
G1 X43.195 Y-8.544 Z-7.800 F240.000
G2 X42.938 Y-8.514 Z-7.800 I-0.028 J0.868 F240.000
G2 X43.195 Y-7.544 Z-7.800 I0.156 J0.478 F240.000
G1 X61.280 Y-7.544 Z-7.800 F240.000
G2 X61.526 Y-7.572 Z-7.800 I0.027 J-0.869 F240.000
G2 X61.727 Y-7.691 Z-7.800 I-0.150 J-0.479 F240.000
G1 X61.727 Y-7.691 Z-8.100 F18.000
G2 X61.280 Y-8.544 Z-8.100 I-0.350 J-0.360 F240.000
G1 X43.195 Y-8.544 Z-8.100 F240.000
G2 X42.938 Y-8.514 Z-8.100 I-0.028 J0.868 F240.000
G2 X43.195 Y-7.544 Z-8.100 I0.156 J0.478 F240.000
G1 X61.280 Y-7.544 Z-8.100 F240.000
G2 X61.526 Y-7.572 Z-8.100 I0.027 J-0.869 F240.000
G2 X61.727 Y-7.691 Z-8.100 I-0.150 J-0.479 F240.000
G1 X61.727 Y-7.691 Z-8.400 F18.000
G2 X61.280 Y-8.544 Z-8.400 I-0.350 J-0.360 F240.000
G1 X43.195 Y-8.544 Z-8.400 F240.000
G2 X42.938 Y-8.514 Z-8.400 I-0.028 J0.868 F240.000
G2 X43.195 Y-7.544 Z-8.400 I0.156 J0.478 F240.000
G1 X61.280 Y-7.544 Z-8.400 F240.000
G2 X61.526 Y-7.572 Z-8.400 I0.027 J-0.869 F240.000
G2 X61.727 Y-7.691 Z-8.400 I-0.150 J-0.479 F240.000
G1 X61.727 Y-7.691 Z-8.700 F18.000
G2 X61.280 Y-8.544 Z-8.700 I-0.350 J-0.360 F240.000
G1 X43.195 Y-8.544 Z-8.700 F240.000
G2 X42.938 Y-8.514 Z-8.700 I-0.028 J0.868 F240.000
G2 X43.195 Y-7.544 Z-8.700 I0.156 J0.478 F240.000
G1 X61.280 Y-7.544 Z-8.700 F240.000
G2 X61.526 Y-7.572 Z-8.700 I0.027 J-0.869 F240.000
G2 X61.727 Y-7.691 Z-8.700 I-0.150 J-0.479 F240.000
G1 X61.727 Y-7.691 Z-9.000 F18.000
G2 X61.280 Y-8.544 Z-9.000 I-0.350 J-0.360 F240.000
G1 X43.195 Y-8.544 Z-9.000 F240.000
G2 X42.938 Y-8.514 Z-9.000 I-0.028 J0.868 F240.000
G2 X43.195 Y-7.544 Z-9.000 I0.156 J0.478 F240.000
G1 X61.280 Y-7.544 Z-9.000 F240.000
G2 X61.526 Y-7.572 Z-9.000 I0.027 J-0.869 F240.000
G2 X61.727 Y-7.691 Z-9.000 I-0.150 J-0.479 F240.000
G1 X61.727 Y-7.691 Z-9.300 F18.000
G2 X61.280 Y-8.544 Z-9.300 I-0.350 J-0.360 F240.000
G1 X43.195 Y-8.544 Z-9.300 F240.000
G2 X42.938 Y-8.514 Z-9.300 I-0.028 J0.868 F240.000
G2 X43.195 Y-7.544 Z-9.300 I0.156 J0.478 F240.000
G1 X61.280 Y-7.544 Z-9.300 F240.000
G2 X61.526 Y-7.572 Z-9.300 I0.027 J-0.869 F240.000
G2 X61.727 Y-7.691 Z-9.300 I-0.150 J-0.479 F240.000
G1 X61.727 Y-7.691 Z-9.600 F18.000
G2 X61.280 Y-8.544 Z-9.600 I-0.350 J-0.360 F240.000
G1 X43.195 Y-8.544 Z-9.600 F240.000
G2 X42.938 Y-8.514 Z-9.600 I-0.028 J0.868 F240.000
G2 X43.195 Y-7.544 Z-9.600 I0.156 J0.478 F240.000
G1 X61.280 Y-7.544 Z-9.600 F240.000
G2 X61.526 Y-7.572 Z-9.600 I0.027 J-0.869 F240.000
G2 X61.727 Y-7.691 Z-9.600 I-0.150 J-0.479 F240.000
G1 X61.727 Y-7.691 Z-9.900 F18.000
G2 X61.280 Y-8.544 Z-9.900 I-0.350 J-0.360 F240.000
G1 X43.195 Y-8.544 Z-9.900 F240.000
G2 X42.938 Y-8.514 Z-9.900 I-0.028 J0.868 F240.000
G2 X43.195 Y-7.544 Z-9.900 I0.156 J0.478 F240.000
G1 X61.280 Y-7.544 Z-9.900 F240.000
G2 X61.526 Y-7.572 Z-9.900 I0.027 J-0.869 F240.000
G2 X61.727 Y-7.691 Z-9.900 I-0.150 J-0.479 F240.000
G1 X61.727 Y-7.691 Z-10.000 F18.000
G2 X61.280 Y-8.544 Z-10.000 I-0.350 J-0.360 F240.000
G1 X43.195 Y-8.544 Z-10.000 F240.000
G2 X42.938 Y-8.514 Z-10.000 I-0.028 J0.868 F240.000
G2 X43.195 Y-7.544 Z-10.000 I0.156 J0.478 F240.000
G1 X61.280 Y-7.544 Z-10.000 F240.000
G2 X61.526 Y-7.572 Z-10.000 I0.027 J-0.869 F240.000
G2 X61.727 Y-7.691 Z-10.000 I-0.150 J-0.479 F240.000
G0 Z5.000
(finish operation: Profile_Edges002)
(begin operation: T5: 6mm Endmill)
(machine: not set, mm/min)
(T5: 6mm Endmill)
M6 T5 G43 H5
M3 S3000
(finish operation: T5: 6mm Endmill)
(begin operation: Profile_Edges003)
(machine: not set, mm/min)
(Profile_Edges003)
(Compensated Tool Path. Diameter: 6.0)
G0 Z5.000
G0 X92.906 Y-7.691
G0 Z3.000
G1 X92.906 Y-7.691 Z-0.300 F18.000
G2 X92.460 Y-8.544 Z-0.300 I-0.350 J-0.360 F240.000
G1 X78.232 Y-8.544 Z-0.300 F240.000
G2 X77.975 Y-8.514 Z-0.300 I-0.028 J0.868 F240.000
G2 X78.232 Y-7.544 Z-0.300 I0.156 J0.478 F240.000
G1 X92.460 Y-7.544 Z-0.300 F240.000
G2 X92.706 Y-7.572 Z-0.300 I0.027 J-0.869 F240.000
G2 X92.906 Y-7.691 Z-0.300 I-0.150 J-0.479 F240.000
G1 X92.906 Y-7.691 Z-0.600 F18.000
G2 X92.460 Y-8.544 Z-0.600 I-0.350 J-0.360 F240.000
G1 X78.232 Y-8.544 Z-0.600 F240.000
G2 X77.975 Y-8.514 Z-0.600 I-0.028 J0.868 F240.000
G2 X78.232 Y-7.544 Z-0.600 I0.156 J0.478 F240.000
G1 X92.460 Y-7.544 Z-0.600 F240.000
G2 X92.706 Y-7.572 Z-0.600 I0.027 J-0.869 F240.000
G2 X92.906 Y-7.691 Z-0.600 I-0.150 J-0.479 F240.000
G1 X92.906 Y-7.691 Z-0.900 F18.000
G2 X92.460 Y-8.544 Z-0.900 I-0.350 J-0.360 F240.000
G1 X78.232 Y-8.544 Z-0.900 F240.000
G2 X77.975 Y-8.514 Z-0.900 I-0.028 J0.868 F240.000
G2 X78.232 Y-7.544 Z-0.900 I0.156 J0.478 F240.000
G1 X92.460 Y-7.544 Z-0.900 F240.000
G2 X92.706 Y-7.572 Z-0.900 I0.027 J-0.869 F240.000
G2 X92.906 Y-7.691 Z-0.900 I-0.150 J-0.479 F240.000
G1 X92.906 Y-7.691 Z-1.200 F18.000
G2 X92.460 Y-8.544 Z-1.200 I-0.350 J-0.360 F240.000
G1 X78.232 Y-8.544 Z-1.200 F240.000
G2 X77.975 Y-8.514 Z-1.200 I-0.028 J0.868 F240.000
G2 X78.232 Y-7.544 Z-1.200 I0.156 J0.478 F240.000
G1 X92.460 Y-7.544 Z-1.200 F240.000
G2 X92.706 Y-7.572 Z-1.200 I0.027 J-0.869 F240.000
G2 X92.906 Y-7.691 Z-1.200 I-0.150 J-0.479 F240.000
G1 X92.906 Y-7.691 Z-1.500 F18.000
G2 X92.460 Y-8.544 Z-1.500 I-0.350 J-0.360 F240.000
G1 X78.232 Y-8.544 Z-1.500 F240.000
G2 X77.975 Y-8.514 Z-1.500 I-0.028 J0.868 F240.000
G2 X78.232 Y-7.544 Z-1.500 I0.156 J0.478 F240.000
G1 X92.460 Y-7.544 Z-1.500 F240.000
G2 X92.706 Y-7.572 Z-1.500 I0.027 J-0.869 F240.000
G2 X92.906 Y-7.691 Z-1.500 I-0.150 J-0.479 F240.000
G1 X92.906 Y-7.691 Z-1.800 F18.000
G2 X92.460 Y-8.544 Z-1.800 I-0.350 J-0.360 F240.000
G1 X78.232 Y-8.544 Z-1.800 F240.000
G2 X77.975 Y-8.514 Z-1.800 I-0.028 J0.868 F240.000
G2 X78.232 Y-7.544 Z-1.800 I0.156 J0.478 F240.000
G1 X92.460 Y-7.544 Z-1.800 F240.000
G2 X92.706 Y-7.572 Z-1.800 I0.027 J-0.869 F240.000
G2 X92.906 Y-7.691 Z-1.800 I-0.150 J-0.479 F240.000
G1 X92.906 Y-7.691 Z-2.100 F18.000
G2 X92.460 Y-8.544 Z-2.100 I-0.350 J-0.360 F240.000
G1 X78.232 Y-8.544 Z-2.100 F240.000
G2 X77.975 Y-8.514 Z-2.100 I-0.028 J0.868 F240.000
G2 X78.232 Y-7.544 Z-2.100 I0.156 J0.478 F240.000
G1 X92.460 Y-7.544 Z-2.100 F240.000
G2 X92.706 Y-7.572 Z-2.100 I0.027 J-0.869 F240.000
G2 X92.906 Y-7.691 Z-2.100 I-0.150 J-0.479 F240.000
G1 X92.906 Y-7.691 Z-2.400 F18.000
G2 X92.460 Y-8.544 Z-2.400 I-0.350 J-0.360 F240.000
G1 X78.232 Y-8.544 Z-2.400 F240.000
G2 X77.975 Y-8.514 Z-2.400 I-0.028 J0.868 F240.000
G2 X78.232 Y-7.544 Z-2.400 I0.156 J0.478 F240.000
G1 X92.460 Y-7.544 Z-2.400 F240.000
G2 X92.706 Y-7.572 Z-2.400 I0.027 J-0.869 F240.000
G2 X92.906 Y-7.691 Z-2.400 I-0.150 J-0.479 F240.000
G1 X92.906 Y-7.691 Z-2.700 F18.000
G2 X92.460 Y-8.544 Z-2.700 I-0.350 J-0.360 F240.000
G1 X78.232 Y-8.544 Z-2.700 F240.000
G2 X77.975 Y-8.514 Z-2.700 I-0.028 J0.868 F240.000
G2 X78.232 Y-7.544 Z-2.700 I0.156 J0.478 F240.000
G1 X92.460 Y-7.544 Z-2.700 F240.000
G2 X92.706 Y-7.572 Z-2.700 I0.027 J-0.869 F240.000
G2 X92.906 Y-7.691 Z-2.700 I-0.150 J-0.479 F240.000
G1 X92.906 Y-7.691 Z-3.000 F18.000
G2 X92.460 Y-8.544 Z-3.000 I-0.350 J-0.360 F240.000
G1 X78.232 Y-8.544 Z-3.000 F240.000
G2 X77.975 Y-8.514 Z-3.000 I-0.028 J0.868 F240.000
G2 X78.232 Y-7.544 Z-3.000 I0.156 J0.478 F240.000
G1 X92.460 Y-7.544 Z-3.000 F240.000
G2 X92.706 Y-7.572 Z-3.000 I0.027 J-0.869 F240.000
G2 X92.906 Y-7.691 Z-3.000 I-0.150 J-0.479 F240.000
G1 X92.906 Y-7.691 Z-3.300 F18.000
G2 X92.460 Y-8.544 Z-3.300 I-0.350 J-0.360 F240.000
G1 X78.232 Y-8.544 Z-3.300 F240.000
G2 X77.975 Y-8.514 Z-3.300 I-0.028 J0.868 F240.000
G2 X78.232 Y-7.544 Z-3.300 I0.156 J0.478 F240.000
G1 X92.460 Y-7.544 Z-3.300 F240.000
G2 X92.706 Y-7.572 Z-3.300 I0.027 J-0.869 F240.000
G2 X92.906 Y-7.691 Z-3.300 I-0.150 J-0.479 F240.000
G1 X92.906 Y-7.691 Z-3.600 F18.000
G2 X92.460 Y-8.544 Z-3.600 I-0.350 J-0.360 F240.000
G1 X78.232 Y-8.544 Z-3.600 F240.000
G2 X77.975 Y-8.514 Z-3.600 I-0.028 J0.868 F240.000
G2 X78.232 Y-7.544 Z-3.600 I0.156 J0.478 F240.000
G1 X92.460 Y-7.544 Z-3.600 F240.000
G2 X92.706 Y-7.572 Z-3.600 I0.027 J-0.869 F240.000
G2 X92.906 Y-7.691 Z-3.600 I-0.150 J-0.479 F240.000
G1 X92.906 Y-7.691 Z-3.900 F18.000
G2 X92.460 Y-8.544 Z-3.900 I-0.350 J-0.360 F240.000
G1 X78.232 Y-8.544 Z-3.900 F240.000
G2 X77.975 Y-8.514 Z-3.900 I-0.028 J0.868 F240.000
G2 X78.232 Y-7.544 Z-3.900 I0.156 J0.478 F240.000
G1 X92.460 Y-7.544 Z-3.900 F240.000
G2 X92.706 Y-7.572 Z-3.900 I0.027 J-0.869 F240.000
G2 X92.906 Y-7.691 Z-3.900 I-0.150 J-0.479 F240.000
G1 X92.906 Y-7.691 Z-4.200 F18.000
G2 X92.460 Y-8.544 Z-4.200 I-0.350 J-0.360 F240.000
G1 X78.232 Y-8.544 Z-4.200 F240.000
G2 X77.975 Y-8.514 Z-4.200 I-0.028 J0.868 F240.000
G2 X78.232 Y-7.544 Z-4.200 I0.156 J0.478 F240.000
G1 X92.460 Y-7.544 Z-4.200 F240.000
G2 X92.706 Y-7.572 Z-4.200 I0.027 J-0.869 F240.000
G2 X92.906 Y-7.691 Z-4.200 I-0.150 J-0.479 F240.000
G1 X92.906 Y-7.691 Z-4.500 F18.000
G2 X92.460 Y-8.544 Z-4.500 I-0.350 J-0.360 F240.000
G1 X78.232 Y-8.544 Z-4.500 F240.000
G2 X77.975 Y-8.514 Z-4.500 I-0.028 J0.868 F240.000
G2 X78.232 Y-7.544 Z-4.500 I0.156 J0.478 F240.000
G1 X92.460 Y-7.544 Z-4.500 F240.000
G2 X92.706 Y-7.572 Z-4.500 I0.027 J-0.869 F240.000
G2 X92.906 Y-7.691 Z-4.500 I-0.150 J-0.479 F240.000
G1 X92.906 Y-7.691 Z-4.800 F18.000
G2 X92.460 Y-8.544 Z-4.800 I-0.350 J-0.360 F240.000
G1 X78.232 Y-8.544 Z-4.800 F240.000
G2 X77.975 Y-8.514 Z-4.800 I-0.028 J0.868 F240.000
G2 X78.232 Y-7.544 Z-4.800 I0.156 J0.478 F240.000
G1 X92.460 Y-7.544 Z-4.800 F240.000
G2 X92.706 Y-7.572 Z-4.800 I0.027 J-0.869 F240.000
G2 X92.906 Y-7.691 Z-4.800 I-0.150 J-0.479 F240.000
G1 X92.906 Y-7.691 Z-5.100 F18.000
G2 X92.460 Y-8.544 Z-5.100 I-0.350 J-0.360 F240.000
G1 X78.232 Y-8.544 Z-5.100 F240.000
G2 X77.975 Y-8.514 Z-5.100 I-0.028 J0.868 F240.000
G2 X78.232 Y-7.544 Z-5.100 I0.156 J0.478 F240.000
G1 X92.460 Y-7.544 Z-5.100 F240.000
G2 X92.706 Y-7.572 Z-5.100 I0.027 J-0.869 F240.000
G2 X92.906 Y-7.691 Z-5.100 I-0.150 J-0.479 F240.000
G1 X92.906 Y-7.691 Z-5.400 F18.000
G2 X92.460 Y-8.544 Z-5.400 I-0.350 J-0.360 F240.000
G1 X78.232 Y-8.544 Z-5.400 F240.000
G2 X77.975 Y-8.514 Z-5.400 I-0.028 J0.868 F240.000
G2 X78.232 Y-7.544 Z-5.400 I0.156 J0.478 F240.000
G1 X92.460 Y-7.544 Z-5.400 F240.000
G2 X92.706 Y-7.572 Z-5.400 I0.027 J-0.869 F240.000
G2 X92.906 Y-7.691 Z-5.400 I-0.150 J-0.479 F240.000
G1 X92.906 Y-7.691 Z-5.700 F18.000
G2 X92.460 Y-8.544 Z-5.700 I-0.350 J-0.360 F240.000
G1 X78.232 Y-8.544 Z-5.700 F240.000
G2 X77.975 Y-8.514 Z-5.700 I-0.028 J0.868 F240.000
G2 X78.232 Y-7.544 Z-5.700 I0.156 J0.478 F240.000
G1 X92.460 Y-7.544 Z-5.700 F240.000
G2 X92.706 Y-7.572 Z-5.700 I0.027 J-0.869 F240.000
G2 X92.906 Y-7.691 Z-5.700 I-0.150 J-0.479 F240.000
G1 X92.906 Y-7.691 Z-6.000 F18.000
G2 X92.460 Y-8.544 Z-6.000 I-0.350 J-0.360 F240.000
G1 X78.232 Y-8.544 Z-6.000 F240.000
G2 X77.975 Y-8.514 Z-6.000 I-0.028 J0.868 F240.000
G2 X78.232 Y-7.544 Z-6.000 I0.156 J0.478 F240.000
G1 X92.460 Y-7.544 Z-6.000 F240.000
G2 X92.706 Y-7.572 Z-6.000 I0.027 J-0.869 F240.000
G2 X92.906 Y-7.691 Z-6.000 I-0.150 J-0.479 F240.000
G1 X92.906 Y-7.691 Z-6.300 F18.000
G2 X92.460 Y-8.544 Z-6.300 I-0.350 J-0.360 F240.000
G1 X78.232 Y-8.544 Z-6.300 F240.000
G2 X77.975 Y-8.514 Z-6.300 I-0.028 J0.868 F240.000
G2 X78.232 Y-7.544 Z-6.300 I0.156 J0.478 F240.000
G1 X92.460 Y-7.544 Z-6.300 F240.000
G2 X92.706 Y-7.572 Z-6.300 I0.027 J-0.869 F240.000
G2 X92.906 Y-7.691 Z-6.300 I-0.150 J-0.479 F240.000
G1 X92.906 Y-7.691 Z-6.600 F18.000
G2 X92.460 Y-8.544 Z-6.600 I-0.350 J-0.360 F240.000
G1 X78.232 Y-8.544 Z-6.600 F240.000
G2 X77.975 Y-8.514 Z-6.600 I-0.028 J0.868 F240.000
G2 X78.232 Y-7.544 Z-6.600 I0.156 J0.478 F240.000
G1 X92.460 Y-7.544 Z-6.600 F240.000
G2 X92.706 Y-7.572 Z-6.600 I0.027 J-0.869 F240.000
G2 X92.906 Y-7.691 Z-6.600 I-0.150 J-0.479 F240.000
G1 X92.906 Y-7.691 Z-6.900 F18.000
G2 X92.460 Y-8.544 Z-6.900 I-0.350 J-0.360 F240.000
G1 X78.232 Y-8.544 Z-6.900 F240.000
G2 X77.975 Y-8.514 Z-6.900 I-0.028 J0.868 F240.000
G2 X78.232 Y-7.544 Z-6.900 I0.156 J0.478 F240.000
G1 X92.460 Y-7.544 Z-6.900 F240.000
G2 X92.706 Y-7.572 Z-6.900 I0.027 J-0.869 F240.000
G2 X92.906 Y-7.691 Z-6.900 I-0.150 J-0.479 F240.000
G1 X92.906 Y-7.691 Z-7.200 F18.000
G2 X92.460 Y-8.544 Z-7.200 I-0.350 J-0.360 F240.000
G1 X78.232 Y-8.544 Z-7.200 F240.000
G2 X77.975 Y-8.514 Z-7.200 I-0.028 J0.868 F240.000
G2 X78.232 Y-7.544 Z-7.200 I0.156 J0.478 F240.000
G1 X92.460 Y-7.544 Z-7.200 F240.000
G2 X92.706 Y-7.572 Z-7.200 I0.027 J-0.869 F240.000
G2 X92.906 Y-7.691 Z-7.200 I-0.150 J-0.479 F240.000
G1 X92.906 Y-7.691 Z-7.500 F18.000
G2 X92.460 Y-8.544 Z-7.500 I-0.350 J-0.360 F240.000
G1 X78.232 Y-8.544 Z-7.500 F240.000
G2 X77.975 Y-8.514 Z-7.500 I-0.028 J0.868 F240.000
G2 X78.232 Y-7.544 Z-7.500 I0.156 J0.478 F240.000
G1 X92.460 Y-7.544 Z-7.500 F240.000
G2 X92.706 Y-7.572 Z-7.500 I0.027 J-0.869 F240.000
G2 X92.906 Y-7.691 Z-7.500 I-0.150 J-0.479 F240.000
G1 X92.906 Y-7.691 Z-7.800 F18.000
G2 X92.460 Y-8.544 Z-7.800 I-0.350 J-0.360 F240.000
G1 X78.232 Y-8.544 Z-7.800 F240.000
G2 X77.975 Y-8.514 Z-7.800 I-0.028 J0.868 F240.000
G2 X78.232 Y-7.544 Z-7.800 I0.156 J0.478 F240.000
G1 X92.460 Y-7.544 Z-7.800 F240.000
G2 X92.706 Y-7.572 Z-7.800 I0.027 J-0.869 F240.000
G2 X92.906 Y-7.691 Z-7.800 I-0.150 J-0.479 F240.000
G1 X92.906 Y-7.691 Z-8.100 F18.000
G2 X92.460 Y-8.544 Z-8.100 I-0.350 J-0.360 F240.000
G1 X78.232 Y-8.544 Z-8.100 F240.000
G2 X77.975 Y-8.514 Z-8.100 I-0.028 J0.868 F240.000
G2 X78.232 Y-7.544 Z-8.100 I0.156 J0.478 F240.000
G1 X92.460 Y-7.544 Z-8.100 F240.000
G2 X92.706 Y-7.572 Z-8.100 I0.027 J-0.869 F240.000
G2 X92.906 Y-7.691 Z-8.100 I-0.150 J-0.479 F240.000
G1 X92.906 Y-7.691 Z-8.400 F18.000
G2 X92.460 Y-8.544 Z-8.400 I-0.350 J-0.360 F240.000
G1 X78.232 Y-8.544 Z-8.400 F240.000
G2 X77.975 Y-8.514 Z-8.400 I-0.028 J0.868 F240.000
G2 X78.232 Y-7.544 Z-8.400 I0.156 J0.478 F240.000
G1 X92.460 Y-7.544 Z-8.400 F240.000
G2 X92.706 Y-7.572 Z-8.400 I0.027 J-0.869 F240.000
G2 X92.906 Y-7.691 Z-8.400 I-0.150 J-0.479 F240.000
G1 X92.906 Y-7.691 Z-8.700 F18.000
G2 X92.460 Y-8.544 Z-8.700 I-0.350 J-0.360 F240.000
G1 X78.232 Y-8.544 Z-8.700 F240.000
G2 X77.975 Y-8.514 Z-8.700 I-0.028 J0.868 F240.000
G2 X78.232 Y-7.544 Z-8.700 I0.156 J0.478 F240.000
G1 X92.460 Y-7.544 Z-8.700 F240.000
G2 X92.706 Y-7.572 Z-8.700 I0.027 J-0.869 F240.000
G2 X92.906 Y-7.691 Z-8.700 I-0.150 J-0.479 F240.000
G1 X92.906 Y-7.691 Z-9.000 F18.000
G2 X92.460 Y-8.544 Z-9.000 I-0.350 J-0.360 F240.000
G1 X78.232 Y-8.544 Z-9.000 F240.000
G2 X77.975 Y-8.514 Z-9.000 I-0.028 J0.868 F240.000
G2 X78.232 Y-7.544 Z-9.000 I0.156 J0.478 F240.000
G1 X92.460 Y-7.544 Z-9.000 F240.000
G2 X92.706 Y-7.572 Z-9.000 I0.027 J-0.869 F240.000
G2 X92.906 Y-7.691 Z-9.000 I-0.150 J-0.479 F240.000
G1 X92.906 Y-7.691 Z-9.300 F18.000
G2 X92.460 Y-8.544 Z-9.300 I-0.350 J-0.360 F240.000
G1 X78.232 Y-8.544 Z-9.300 F240.000
G2 X77.975 Y-8.514 Z-9.300 I-0.028 J0.868 F240.000
G2 X78.232 Y-7.544 Z-9.300 I0.156 J0.478 F240.000
G1 X92.460 Y-7.544 Z-9.300 F240.000
G2 X92.706 Y-7.572 Z-9.300 I0.027 J-0.869 F240.000
G2 X92.906 Y-7.691 Z-9.300 I-0.150 J-0.479 F240.000
G1 X92.906 Y-7.691 Z-9.600 F18.000
G2 X92.460 Y-8.544 Z-9.600 I-0.350 J-0.360 F240.000
G1 X78.232 Y-8.544 Z-9.600 F240.000
G2 X77.975 Y-8.514 Z-9.600 I-0.028 J0.868 F240.000
G2 X78.232 Y-7.544 Z-9.600 I0.156 J0.478 F240.000
G1 X92.460 Y-7.544 Z-9.600 F240.000
G2 X92.706 Y-7.572 Z-9.600 I0.027 J-0.869 F240.000
G2 X92.906 Y-7.691 Z-9.600 I-0.150 J-0.479 F240.000
G1 X92.906 Y-7.691 Z-9.900 F18.000
G2 X92.460 Y-8.544 Z-9.900 I-0.350 J-0.360 F240.000
G1 X78.232 Y-8.544 Z-9.900 F240.000
G2 X77.975 Y-8.514 Z-9.900 I-0.028 J0.868 F240.000
G2 X78.232 Y-7.544 Z-9.900 I0.156 J0.478 F240.000
G1 X92.460 Y-7.544 Z-9.900 F240.000
G2 X92.706 Y-7.572 Z-9.900 I0.027 J-0.869 F240.000
G2 X92.906 Y-7.691 Z-9.900 I-0.150 J-0.479 F240.000
G1 X92.906 Y-7.691 Z-10.000 F18.000
G2 X92.460 Y-8.544 Z-10.000 I-0.350 J-0.360 F240.000
G1 X78.232 Y-8.544 Z-10.000 F240.000
G2 X77.975 Y-8.514 Z-10.000 I-0.028 J0.868 F240.000
G2 X78.232 Y-7.544 Z-10.000 I0.156 J0.478 F240.000
G1 X92.460 Y-7.544 Z-10.000 F240.000
G2 X92.706 Y-7.572 Z-10.000 I0.027 J-0.869 F240.000
G2 X92.906 Y-7.691 Z-10.000 I-0.150 J-0.479 F240.000
G0 Z5.000
(finish operation: Profile_Edges003)
(begin operation: T6: 4mm Endmill)
(machine: not set, mm/min)
(T6: 4mm Endmill)
M6 T6 G43 H6
M3 S3000
(finish operation: T6: 4mm Endmill)
(begin operation: Profile_Edges004)
(machine: not set, mm/min)
(Profile_Edges004)
(Compensated Tool Path. Diameter: 4.0)
G0 Z5.000
G0 X106.909 Y-5.331
G0 Z3.000
G1 X106.909 Y-5.331 Z-0.200 F12.000
G2 X106.784 Y-5.895 Z-0.200 I-0.242 J-0.242 F240.000
G2 X106.549 Y-5.251 Z-0.200 I-0.117 J0.322 F240.000
G2 X106.909 Y-5.331 Z-0.200 I0.117 J-0.322 F240.000
G1 X106.909 Y-5.331 Z-0.400 F12.000
G2 X106.784 Y-5.895 Z-0.400 I-0.242 J-0.242 F240.000
G2 X106.549 Y-5.251 Z-0.400 I-0.117 J0.322 F240.000
G2 X106.909 Y-5.331 Z-0.400 I0.117 J-0.322 F240.000
G1 X106.909 Y-5.331 Z-0.600 F12.000
G2 X106.784 Y-5.895 Z-0.600 I-0.242 J-0.242 F240.000
G2 X106.549 Y-5.251 Z-0.600 I-0.117 J0.322 F240.000
G2 X106.909 Y-5.331 Z-0.600 I0.117 J-0.322 F240.000
G1 X106.909 Y-5.331 Z-0.800 F12.000
G2 X106.784 Y-5.895 Z-0.800 I-0.242 J-0.242 F240.000
G2 X106.549 Y-5.251 Z-0.800 I-0.117 J0.322 F240.000
G2 X106.909 Y-5.331 Z-0.800 I0.117 J-0.322 F240.000
G1 X106.909 Y-5.331 Z-1.000 F12.000
G2 X106.784 Y-5.895 Z-1.000 I-0.242 J-0.242 F240.000
G2 X106.549 Y-5.251 Z-1.000 I-0.117 J0.322 F240.000
G2 X106.909 Y-5.331 Z-1.000 I0.117 J-0.322 F240.000
G1 X106.909 Y-5.331 Z-1.200 F12.000
G2 X106.784 Y-5.895 Z-1.200 I-0.242 J-0.242 F240.000
G2 X106.549 Y-5.251 Z-1.200 I-0.117 J0.322 F240.000
G2 X106.909 Y-5.331 Z-1.200 I0.117 J-0.322 F240.000
G1 X106.909 Y-5.331 Z-1.400 F12.000
G2 X106.784 Y-5.895 Z-1.400 I-0.242 J-0.242 F240.000
G2 X106.549 Y-5.251 Z-1.400 I-0.117 J0.322 F240.000
G2 X106.909 Y-5.331 Z-1.400 I0.117 J-0.322 F240.000
G1 X106.909 Y-5.331 Z-1.600 F12.000
G2 X106.784 Y-5.895 Z-1.600 I-0.242 J-0.242 F240.000
G2 X106.549 Y-5.251 Z-1.600 I-0.117 J0.322 F240.000
G2 X106.909 Y-5.331 Z-1.600 I0.117 J-0.322 F240.000
G1 X106.909 Y-5.331 Z-1.800 F12.000
G2 X106.784 Y-5.895 Z-1.800 I-0.242 J-0.242 F240.000
G2 X106.549 Y-5.251 Z-1.800 I-0.117 J0.322 F240.000
G2 X106.909 Y-5.331 Z-1.800 I0.117 J-0.322 F240.000
G1 X106.909 Y-5.331 Z-2.000 F12.000
G2 X106.784 Y-5.895 Z-2.000 I-0.242 J-0.242 F240.000
G2 X106.549 Y-5.251 Z-2.000 I-0.117 J0.322 F240.000
G2 X106.909 Y-5.331 Z-2.000 I0.117 J-0.322 F240.000
G1 X106.909 Y-5.331 Z-2.200 F12.000
G2 X106.784 Y-5.895 Z-2.200 I-0.242 J-0.242 F240.000
G2 X106.549 Y-5.251 Z-2.200 I-0.117 J0.322 F240.000
G2 X106.909 Y-5.331 Z-2.200 I0.117 J-0.322 F240.000
G1 X106.909 Y-5.331 Z-2.400 F12.000
G2 X106.784 Y-5.895 Z-2.400 I-0.242 J-0.242 F240.000
G2 X106.549 Y-5.251 Z-2.400 I-0.117 J0.322 F240.000
G2 X106.909 Y-5.331 Z-2.400 I0.117 J-0.322 F240.000
G1 X106.909 Y-5.331 Z-2.600 F12.000
G2 X106.784 Y-5.895 Z-2.600 I-0.242 J-0.242 F240.000
G2 X106.549 Y-5.251 Z-2.600 I-0.117 J0.322 F240.000
G2 X106.909 Y-5.331 Z-2.600 I0.117 J-0.322 F240.000
G1 X106.909 Y-5.331 Z-2.800 F12.000
G2 X106.784 Y-5.895 Z-2.800 I-0.242 J-0.242 F240.000
G2 X106.549 Y-5.251 Z-2.800 I-0.117 J0.322 F240.000
G2 X106.909 Y-5.331 Z-2.800 I0.117 J-0.322 F240.000
G1 X106.909 Y-5.331 Z-3.000 F12.000
G2 X106.784 Y-5.895 Z-3.000 I-0.242 J-0.242 F240.000
G2 X106.549 Y-5.251 Z-3.000 I-0.117 J0.322 F240.000
G2 X106.909 Y-5.331 Z-3.000 I0.117 J-0.322 F240.000
G1 X106.909 Y-5.331 Z-3.200 F12.000
G2 X106.784 Y-5.895 Z-3.200 I-0.242 J-0.242 F240.000
G2 X106.549 Y-5.251 Z-3.200 I-0.117 J0.322 F240.000
G2 X106.909 Y-5.331 Z-3.200 I0.117 J-0.322 F240.000
G1 X106.909 Y-5.331 Z-3.400 F12.000
G2 X106.784 Y-5.895 Z-3.400 I-0.242 J-0.242 F240.000
G2 X106.549 Y-5.251 Z-3.400 I-0.117 J0.322 F240.000
G2 X106.909 Y-5.331 Z-3.400 I0.117 J-0.322 F240.000
G1 X106.909 Y-5.331 Z-3.600 F12.000
G2 X106.784 Y-5.895 Z-3.600 I-0.242 J-0.242 F240.000
G2 X106.549 Y-5.251 Z-3.600 I-0.117 J0.322 F240.000
G2 X106.909 Y-5.331 Z-3.600 I0.117 J-0.322 F240.000
G1 X106.909 Y-5.331 Z-3.800 F12.000
G2 X106.784 Y-5.895 Z-3.800 I-0.242 J-0.242 F240.000
G2 X106.549 Y-5.251 Z-3.800 I-0.117 J0.322 F240.000
G2 X106.909 Y-5.331 Z-3.800 I0.117 J-0.322 F240.000
G1 X106.909 Y-5.331 Z-4.000 F12.000
G2 X106.784 Y-5.895 Z-4.000 I-0.242 J-0.242 F240.000
G2 X106.549 Y-5.251 Z-4.000 I-0.117 J0.322 F240.000
G2 X106.909 Y-5.331 Z-4.000 I0.117 J-0.322 F240.000
G1 X106.909 Y-5.331 Z-4.200 F12.000
G2 X106.784 Y-5.895 Z-4.200 I-0.242 J-0.242 F240.000
G2 X106.549 Y-5.251 Z-4.200 I-0.117 J0.322 F240.000
G2 X106.909 Y-5.331 Z-4.200 I0.117 J-0.322 F240.000
G1 X106.909 Y-5.331 Z-4.400 F12.000
G2 X106.784 Y-5.895 Z-4.400 I-0.242 J-0.242 F240.000
G2 X106.549 Y-5.251 Z-4.400 I-0.117 J0.322 F240.000
G2 X106.909 Y-5.331 Z-4.400 I0.117 J-0.322 F240.000
G1 X106.909 Y-5.331 Z-4.600 F12.000
G2 X106.784 Y-5.895 Z-4.600 I-0.242 J-0.242 F240.000
G2 X106.549 Y-5.251 Z-4.600 I-0.117 J0.322 F240.000
G2 X106.909 Y-5.331 Z-4.600 I0.117 J-0.322 F240.000
G1 X106.909 Y-5.331 Z-4.800 F12.000
G2 X106.784 Y-5.895 Z-4.800 I-0.242 J-0.242 F240.000
G2 X106.549 Y-5.251 Z-4.800 I-0.117 J0.322 F240.000
G2 X106.909 Y-5.331 Z-4.800 I0.117 J-0.322 F240.000
G1 X106.909 Y-5.331 Z-5.000 F12.000
G2 X106.784 Y-5.895 Z-5.000 I-0.242 J-0.242 F240.000
G2 X106.549 Y-5.251 Z-5.000 I-0.117 J0.322 F240.000
G2 X106.909 Y-5.331 Z-5.000 I0.117 J-0.322 F240.000
G1 X106.909 Y-5.331 Z-5.200 F12.000
G2 X106.784 Y-5.895 Z-5.200 I-0.242 J-0.242 F240.000
G2 X106.549 Y-5.251 Z-5.200 I-0.117 J0.322 F240.000
G2 X106.909 Y-5.331 Z-5.200 I0.117 J-0.322 F240.000
G1 X106.909 Y-5.331 Z-5.400 F12.000
G2 X106.784 Y-5.895 Z-5.400 I-0.242 J-0.242 F240.000
G2 X106.549 Y-5.251 Z-5.400 I-0.117 J0.322 F240.000
G2 X106.909 Y-5.331 Z-5.400 I0.117 J-0.322 F240.000
G1 X106.909 Y-5.331 Z-5.600 F12.000
G2 X106.784 Y-5.895 Z-5.600 I-0.242 J-0.242 F240.000
G2 X106.549 Y-5.251 Z-5.600 I-0.117 J0.322 F240.000
G2 X106.909 Y-5.331 Z-5.600 I0.117 J-0.322 F240.000
G1 X106.909 Y-5.331 Z-5.800 F12.000
G2 X106.784 Y-5.895 Z-5.800 I-0.242 J-0.242 F240.000
G2 X106.549 Y-5.251 Z-5.800 I-0.117 J0.322 F240.000
G2 X106.909 Y-5.331 Z-5.800 I0.117 J-0.322 F240.000
G1 X106.909 Y-5.331 Z-6.000 F12.000
G2 X106.784 Y-5.895 Z-6.000 I-0.242 J-0.242 F240.000
G2 X106.549 Y-5.251 Z-6.000 I-0.117 J0.322 F240.000
G2 X106.909 Y-5.331 Z-6.000 I0.117 J-0.322 F240.000
G1 X106.909 Y-5.331 Z-6.200 F12.000
G2 X106.784 Y-5.895 Z-6.200 I-0.242 J-0.242 F240.000
G2 X106.549 Y-5.251 Z-6.200 I-0.117 J0.322 F240.000
G2 X106.909 Y-5.331 Z-6.200 I0.117 J-0.322 F240.000
G1 X106.909 Y-5.331 Z-6.400 F12.000
G2 X106.784 Y-5.895 Z-6.400 I-0.242 J-0.242 F240.000
G2 X106.549 Y-5.251 Z-6.400 I-0.117 J0.322 F240.000
G2 X106.909 Y-5.331 Z-6.400 I0.117 J-0.322 F240.000
G1 X106.909 Y-5.331 Z-6.600 F12.000
G2 X106.784 Y-5.895 Z-6.600 I-0.242 J-0.242 F240.000
G2 X106.549 Y-5.251 Z-6.600 I-0.117 J0.322 F240.000
G2 X106.909 Y-5.331 Z-6.600 I0.117 J-0.322 F240.000
G1 X106.909 Y-5.331 Z-6.800 F12.000
G2 X106.784 Y-5.895 Z-6.800 I-0.242 J-0.242 F240.000
G2 X106.549 Y-5.251 Z-6.800 I-0.117 J0.322 F240.000
G2 X106.909 Y-5.331 Z-6.800 I0.117 J-0.322 F240.000
G1 X106.909 Y-5.331 Z-7.000 F12.000
G2 X106.784 Y-5.895 Z-7.000 I-0.242 J-0.242 F240.000
G2 X106.549 Y-5.251 Z-7.000 I-0.117 J0.322 F240.000
G2 X106.909 Y-5.331 Z-7.000 I0.117 J-0.322 F240.000
G1 X106.909 Y-5.331 Z-7.200 F12.000
G2 X106.784 Y-5.895 Z-7.200 I-0.242 J-0.242 F240.000
G2 X106.549 Y-5.251 Z-7.200 I-0.117 J0.322 F240.000
G2 X106.909 Y-5.331 Z-7.200 I0.117 J-0.322 F240.000
G1 X106.909 Y-5.331 Z-7.400 F12.000
G2 X106.784 Y-5.895 Z-7.400 I-0.242 J-0.242 F240.000
G2 X106.549 Y-5.251 Z-7.400 I-0.117 J0.322 F240.000
G2 X106.909 Y-5.331 Z-7.400 I0.117 J-0.322 F240.000
G1 X106.909 Y-5.331 Z-7.600 F12.000
G2 X106.784 Y-5.895 Z-7.600 I-0.242 J-0.242 F240.000
G2 X106.549 Y-5.251 Z-7.600 I-0.117 J0.322 F240.000
G2 X106.909 Y-5.331 Z-7.600 I0.117 J-0.322 F240.000
G1 X106.909 Y-5.331 Z-7.800 F12.000
G2 X106.784 Y-5.895 Z-7.800 I-0.242 J-0.242 F240.000
G2 X106.549 Y-5.251 Z-7.800 I-0.117 J0.322 F240.000
G2 X106.909 Y-5.331 Z-7.800 I0.117 J-0.322 F240.000
G1 X106.909 Y-5.331 Z-8.000 F12.000
G2 X106.784 Y-5.895 Z-8.000 I-0.242 J-0.242 F240.000
G2 X106.549 Y-5.251 Z-8.000 I-0.117 J0.322 F240.000
G2 X106.909 Y-5.331 Z-8.000 I0.117 J-0.322 F240.000
G1 X106.909 Y-5.331 Z-8.200 F12.000
G2 X106.784 Y-5.895 Z-8.200 I-0.242 J-0.242 F240.000
G2 X106.549 Y-5.251 Z-8.200 I-0.117 J0.322 F240.000
G2 X106.909 Y-5.331 Z-8.200 I0.117 J-0.322 F240.000
G1 X106.909 Y-5.331 Z-8.400 F12.000
G2 X106.784 Y-5.895 Z-8.400 I-0.242 J-0.242 F240.000
G2 X106.549 Y-5.251 Z-8.400 I-0.117 J0.322 F240.000
G2 X106.909 Y-5.331 Z-8.400 I0.117 J-0.322 F240.000
G1 X106.909 Y-5.331 Z-8.600 F12.000
G2 X106.784 Y-5.895 Z-8.600 I-0.242 J-0.242 F240.000
G2 X106.549 Y-5.251 Z-8.600 I-0.117 J0.322 F240.000
G2 X106.909 Y-5.331 Z-8.600 I0.117 J-0.322 F240.000
G1 X106.909 Y-5.331 Z-8.800 F12.000
G2 X106.784 Y-5.895 Z-8.800 I-0.242 J-0.242 F240.000
G2 X106.549 Y-5.251 Z-8.800 I-0.117 J0.322 F240.000
G2 X106.909 Y-5.331 Z-8.800 I0.117 J-0.322 F240.000
G1 X106.909 Y-5.331 Z-9.000 F12.000
G2 X106.784 Y-5.895 Z-9.000 I-0.242 J-0.242 F240.000
G2 X106.549 Y-5.251 Z-9.000 I-0.117 J0.322 F240.000
G2 X106.909 Y-5.331 Z-9.000 I0.117 J-0.322 F240.000
G1 X106.909 Y-5.331 Z-9.200 F12.000
G2 X106.784 Y-5.895 Z-9.200 I-0.242 J-0.242 F240.000
G2 X106.549 Y-5.251 Z-9.200 I-0.117 J0.322 F240.000
G2 X106.909 Y-5.331 Z-9.200 I0.117 J-0.322 F240.000
G1 X106.909 Y-5.331 Z-9.400 F12.000
G2 X106.784 Y-5.895 Z-9.400 I-0.242 J-0.242 F240.000
G2 X106.549 Y-5.251 Z-9.400 I-0.117 J0.322 F240.000
G2 X106.909 Y-5.331 Z-9.400 I0.117 J-0.322 F240.000
G1 X106.909 Y-5.331 Z-9.600 F12.000
G2 X106.784 Y-5.895 Z-9.600 I-0.242 J-0.242 F240.000
G2 X106.549 Y-5.251 Z-9.600 I-0.117 J0.322 F240.000
G2 X106.909 Y-5.331 Z-9.600 I0.117 J-0.322 F240.000
G1 X106.909 Y-5.331 Z-9.800 F12.000
G2 X106.784 Y-5.895 Z-9.800 I-0.242 J-0.242 F240.000
G2 X106.549 Y-5.251 Z-9.800 I-0.117 J0.322 F240.000
G2 X106.909 Y-5.331 Z-9.800 I0.117 J-0.322 F240.000
G1 X106.909 Y-5.331 Z-10.000 F12.000
G2 X106.784 Y-5.895 Z-10.000 I-0.242 J-0.242 F240.000
G2 X106.549 Y-5.251 Z-10.000 I-0.117 J0.322 F240.000
G2 X106.909 Y-5.331 Z-10.000 I0.117 J-0.322 F240.000
G0 Z5.000
(finish operation: Profile_Edges004)
(begin operation: T6: 4mm Endmill)
(machine: not set, mm/min)
(T6: 4mm Endmill)
M6 T6 G43 H6
M3 S3000
(finish operation: T6: 4mm Endmill)
(begin operation: Profile_Edges005)
(machine: not set, mm/min)
(Profile_Edges005)
(Compensated Tool Path. Diameter: 4.0)
G0 Z5.000
G0 X106.909 Y-12.331
G0 Z3.000
G1 X106.909 Y-12.331 Z-0.200 F12.000
G2 X106.784 Y-12.895 Z-0.200 I-0.242 J-0.242 F240.000
G2 X106.549 Y-12.251 Z-0.200 I-0.117 J0.322 F240.000
G2 X106.909 Y-12.331 Z-0.200 I0.117 J-0.322 F240.000
G1 X106.909 Y-12.331 Z-0.400 F12.000
G2 X106.784 Y-12.895 Z-0.400 I-0.242 J-0.242 F240.000
G2 X106.549 Y-12.251 Z-0.400 I-0.117 J0.322 F240.000
G2 X106.909 Y-12.331 Z-0.400 I0.117 J-0.322 F240.000
G1 X106.909 Y-12.331 Z-0.600 F12.000
G2 X106.784 Y-12.895 Z-0.600 I-0.242 J-0.242 F240.000
G2 X106.549 Y-12.251 Z-0.600 I-0.117 J0.322 F240.000
G2 X106.909 Y-12.331 Z-0.600 I0.117 J-0.322 F240.000
G1 X106.909 Y-12.331 Z-0.800 F12.000
G2 X106.784 Y-12.895 Z-0.800 I-0.242 J-0.242 F240.000
G2 X106.549 Y-12.251 Z-0.800 I-0.117 J0.322 F240.000
G2 X106.909 Y-12.331 Z-0.800 I0.117 J-0.322 F240.000
G1 X106.909 Y-12.331 Z-1.000 F12.000
G2 X106.784 Y-12.895 Z-1.000 I-0.242 J-0.242 F240.000
G2 X106.549 Y-12.251 Z-1.000 I-0.117 J0.322 F240.000
G2 X106.909 Y-12.331 Z-1.000 I0.117 J-0.322 F240.000
G1 X106.909 Y-12.331 Z-1.200 F12.000
G2 X106.784 Y-12.895 Z-1.200 I-0.242 J-0.242 F240.000
G2 X106.549 Y-12.251 Z-1.200 I-0.117 J0.322 F240.000
G2 X106.909 Y-12.331 Z-1.200 I0.117 J-0.322 F240.000
G1 X106.909 Y-12.331 Z-1.400 F12.000
G2 X106.784 Y-12.895 Z-1.400 I-0.242 J-0.242 F240.000
G2 X106.549 Y-12.251 Z-1.400 I-0.117 J0.322 F240.000
G2 X106.909 Y-12.331 Z-1.400 I0.117 J-0.322 F240.000
G1 X106.909 Y-12.331 Z-1.600 F12.000
G2 X106.784 Y-12.895 Z-1.600 I-0.242 J-0.242 F240.000
G2 X106.549 Y-12.251 Z-1.600 I-0.117 J0.322 F240.000
G2 X106.909 Y-12.331 Z-1.600 I0.117 J-0.322 F240.000
G1 X106.909 Y-12.331 Z-1.800 F12.000
G2 X106.784 Y-12.895 Z-1.800 I-0.242 J-0.242 F240.000
G2 X106.549 Y-12.251 Z-1.800 I-0.117 J0.322 F240.000
G2 X106.909 Y-12.331 Z-1.800 I0.117 J-0.322 F240.000
G1 X106.909 Y-12.331 Z-2.000 F12.000
G2 X106.784 Y-12.895 Z-2.000 I-0.242 J-0.242 F240.000
G2 X106.549 Y-12.251 Z-2.000 I-0.117 J0.322 F240.000
G2 X106.909 Y-12.331 Z-2.000 I0.117 J-0.322 F240.000
G1 X106.909 Y-12.331 Z-2.200 F12.000
G2 X106.784 Y-12.895 Z-2.200 I-0.242 J-0.242 F240.000
G2 X106.549 Y-12.251 Z-2.200 I-0.117 J0.322 F240.000
G2 X106.909 Y-12.331 Z-2.200 I0.117 J-0.322 F240.000
G1 X106.909 Y-12.331 Z-2.400 F12.000
G2 X106.784 Y-12.895 Z-2.400 I-0.242 J-0.242 F240.000
G2 X106.549 Y-12.251 Z-2.400 I-0.117 J0.322 F240.000
G2 X106.909 Y-12.331 Z-2.400 I0.117 J-0.322 F240.000
G1 X106.909 Y-12.331 Z-2.600 F12.000
G2 X106.784 Y-12.895 Z-2.600 I-0.242 J-0.242 F240.000
G2 X106.549 Y-12.251 Z-2.600 I-0.117 J0.322 F240.000
G2 X106.909 Y-12.331 Z-2.600 I0.117 J-0.322 F240.000
G1 X106.909 Y-12.331 Z-2.800 F12.000
G2 X106.784 Y-12.895 Z-2.800 I-0.242 J-0.242 F240.000
G2 X106.549 Y-12.251 Z-2.800 I-0.117 J0.322 F240.000
G2 X106.909 Y-12.331 Z-2.800 I0.117 J-0.322 F240.000
G1 X106.909 Y-12.331 Z-3.000 F12.000
G2 X106.784 Y-12.895 Z-3.000 I-0.242 J-0.242 F240.000
G2 X106.549 Y-12.251 Z-3.000 I-0.117 J0.322 F240.000
G2 X106.909 Y-12.331 Z-3.000 I0.117 J-0.322 F240.000
G1 X106.909 Y-12.331 Z-3.200 F12.000
G2 X106.784 Y-12.895 Z-3.200 I-0.242 J-0.242 F240.000
G2 X106.549 Y-12.251 Z-3.200 I-0.117 J0.322 F240.000
G2 X106.909 Y-12.331 Z-3.200 I0.117 J-0.322 F240.000
G1 X106.909 Y-12.331 Z-3.400 F12.000
G2 X106.784 Y-12.895 Z-3.400 I-0.242 J-0.242 F240.000
G2 X106.549 Y-12.251 Z-3.400 I-0.117 J0.322 F240.000
G2 X106.909 Y-12.331 Z-3.400 I0.117 J-0.322 F240.000
G1 X106.909 Y-12.331 Z-3.600 F12.000
G2 X106.784 Y-12.895 Z-3.600 I-0.242 J-0.242 F240.000
G2 X106.549 Y-12.251 Z-3.600 I-0.117 J0.322 F240.000
G2 X106.909 Y-12.331 Z-3.600 I0.117 J-0.322 F240.000
G1 X106.909 Y-12.331 Z-3.800 F12.000
G2 X106.784 Y-12.895 Z-3.800 I-0.242 J-0.242 F240.000
G2 X106.549 Y-12.251 Z-3.800 I-0.117 J0.322 F240.000
G2 X106.909 Y-12.331 Z-3.800 I0.117 J-0.322 F240.000
G1 X106.909 Y-12.331 Z-4.000 F12.000
G2 X106.784 Y-12.895 Z-4.000 I-0.242 J-0.242 F240.000
G2 X106.549 Y-12.251 Z-4.000 I-0.117 J0.322 F240.000
G2 X106.909 Y-12.331 Z-4.000 I0.117 J-0.322 F240.000
G1 X106.909 Y-12.331 Z-4.200 F12.000
G2 X106.784 Y-12.895 Z-4.200 I-0.242 J-0.242 F240.000
G2 X106.549 Y-12.251 Z-4.200 I-0.117 J0.322 F240.000
G2 X106.909 Y-12.331 Z-4.200 I0.117 J-0.322 F240.000
G1 X106.909 Y-12.331 Z-4.400 F12.000
G2 X106.784 Y-12.895 Z-4.400 I-0.242 J-0.242 F240.000
G2 X106.549 Y-12.251 Z-4.400 I-0.117 J0.322 F240.000
G2 X106.909 Y-12.331 Z-4.400 I0.117 J-0.322 F240.000
G1 X106.909 Y-12.331 Z-4.600 F12.000
G2 X106.784 Y-12.895 Z-4.600 I-0.242 J-0.242 F240.000
G2 X106.549 Y-12.251 Z-4.600 I-0.117 J0.322 F240.000
G2 X106.909 Y-12.331 Z-4.600 I0.117 J-0.322 F240.000
G1 X106.909 Y-12.331 Z-4.800 F12.000
G2 X106.784 Y-12.895 Z-4.800 I-0.242 J-0.242 F240.000
G2 X106.549 Y-12.251 Z-4.800 I-0.117 J0.322 F240.000
G2 X106.909 Y-12.331 Z-4.800 I0.117 J-0.322 F240.000
G1 X106.909 Y-12.331 Z-5.000 F12.000
G2 X106.784 Y-12.895 Z-5.000 I-0.242 J-0.242 F240.000
G2 X106.549 Y-12.251 Z-5.000 I-0.117 J0.322 F240.000
G2 X106.909 Y-12.331 Z-5.000 I0.117 J-0.322 F240.000
G1 X106.909 Y-12.331 Z-5.200 F12.000
G2 X106.784 Y-12.895 Z-5.200 I-0.242 J-0.242 F240.000
G2 X106.549 Y-12.251 Z-5.200 I-0.117 J0.322 F240.000
G2 X106.909 Y-12.331 Z-5.200 I0.117 J-0.322 F240.000
G1 X106.909 Y-12.331 Z-5.400 F12.000
G2 X106.784 Y-12.895 Z-5.400 I-0.242 J-0.242 F240.000
G2 X106.549 Y-12.251 Z-5.400 I-0.117 J0.322 F240.000
G2 X106.909 Y-12.331 Z-5.400 I0.117 J-0.322 F240.000
G1 X106.909 Y-12.331 Z-5.600 F12.000
G2 X106.784 Y-12.895 Z-5.600 I-0.242 J-0.242 F240.000
G2 X106.549 Y-12.251 Z-5.600 I-0.117 J0.322 F240.000
G2 X106.909 Y-12.331 Z-5.600 I0.117 J-0.322 F240.000
G1 X106.909 Y-12.331 Z-5.800 F12.000
G2 X106.784 Y-12.895 Z-5.800 I-0.242 J-0.242 F240.000
G2 X106.549 Y-12.251 Z-5.800 I-0.117 J0.322 F240.000
G2 X106.909 Y-12.331 Z-5.800 I0.117 J-0.322 F240.000
G1 X106.909 Y-12.331 Z-6.000 F12.000
G2 X106.784 Y-12.895 Z-6.000 I-0.242 J-0.242 F240.000
G2 X106.549 Y-12.251 Z-6.000 I-0.117 J0.322 F240.000
G2 X106.909 Y-12.331 Z-6.000 I0.117 J-0.322 F240.000
G1 X106.909 Y-12.331 Z-6.200 F12.000
G2 X106.784 Y-12.895 Z-6.200 I-0.242 J-0.242 F240.000
G2 X106.549 Y-12.251 Z-6.200 I-0.117 J0.322 F240.000
G2 X106.909 Y-12.331 Z-6.200 I0.117 J-0.322 F240.000
G1 X106.909 Y-12.331 Z-6.400 F12.000
G2 X106.784 Y-12.895 Z-6.400 I-0.242 J-0.242 F240.000
G2 X106.549 Y-12.251 Z-6.400 I-0.117 J0.322 F240.000
G2 X106.909 Y-12.331 Z-6.400 I0.117 J-0.322 F240.000
G1 X106.909 Y-12.331 Z-6.600 F12.000
G2 X106.784 Y-12.895 Z-6.600 I-0.242 J-0.242 F240.000
G2 X106.549 Y-12.251 Z-6.600 I-0.117 J0.322 F240.000
G2 X106.909 Y-12.331 Z-6.600 I0.117 J-0.322 F240.000
G1 X106.909 Y-12.331 Z-6.800 F12.000
G2 X106.784 Y-12.895 Z-6.800 I-0.242 J-0.242 F240.000
G2 X106.549 Y-12.251 Z-6.800 I-0.117 J0.322 F240.000
G2 X106.909 Y-12.331 Z-6.800 I0.117 J-0.322 F240.000
G1 X106.909 Y-12.331 Z-7.000 F12.000
G2 X106.784 Y-12.895 Z-7.000 I-0.242 J-0.242 F240.000
G2 X106.549 Y-12.251 Z-7.000 I-0.117 J0.322 F240.000
G2 X106.909 Y-12.331 Z-7.000 I0.117 J-0.322 F240.000
G1 X106.909 Y-12.331 Z-7.200 F12.000
G2 X106.784 Y-12.895 Z-7.200 I-0.242 J-0.242 F240.000
G2 X106.549 Y-12.251 Z-7.200 I-0.117 J0.322 F240.000
G2 X106.909 Y-12.331 Z-7.200 I0.117 J-0.322 F240.000
G1 X106.909 Y-12.331 Z-7.400 F12.000
G2 X106.784 Y-12.895 Z-7.400 I-0.242 J-0.242 F240.000
G2 X106.549 Y-12.251 Z-7.400 I-0.117 J0.322 F240.000
G2 X106.909 Y-12.331 Z-7.400 I0.117 J-0.322 F240.000
G1 X106.909 Y-12.331 Z-7.600 F12.000
G2 X106.784 Y-12.895 Z-7.600 I-0.242 J-0.242 F240.000
G2 X106.549 Y-12.251 Z-7.600 I-0.117 J0.322 F240.000
G2 X106.909 Y-12.331 Z-7.600 I0.117 J-0.322 F240.000
G1 X106.909 Y-12.331 Z-7.800 F12.000
G2 X106.784 Y-12.895 Z-7.800 I-0.242 J-0.242 F240.000
G2 X106.549 Y-12.251 Z-7.800 I-0.117 J0.322 F240.000
G2 X106.909 Y-12.331 Z-7.800 I0.117 J-0.322 F240.000
G1 X106.909 Y-12.331 Z-8.000 F12.000
G2 X106.784 Y-12.895 Z-8.000 I-0.242 J-0.242 F240.000
G2 X106.549 Y-12.251 Z-8.000 I-0.117 J0.322 F240.000
G2 X106.909 Y-12.331 Z-8.000 I0.117 J-0.322 F240.000
G1 X106.909 Y-12.331 Z-8.200 F12.000
G2 X106.784 Y-12.895 Z-8.200 I-0.242 J-0.242 F240.000
G2 X106.549 Y-12.251 Z-8.200 I-0.117 J0.322 F240.000
G2 X106.909 Y-12.331 Z-8.200 I0.117 J-0.322 F240.000
G1 X106.909 Y-12.331 Z-8.400 F12.000
G2 X106.784 Y-12.895 Z-8.400 I-0.242 J-0.242 F240.000
G2 X106.549 Y-12.251 Z-8.400 I-0.117 J0.322 F240.000
G2 X106.909 Y-12.331 Z-8.400 I0.117 J-0.322 F240.000
G1 X106.909 Y-12.331 Z-8.600 F12.000
G2 X106.784 Y-12.895 Z-8.600 I-0.242 J-0.242 F240.000
G2 X106.549 Y-12.251 Z-8.600 I-0.117 J0.322 F240.000
G2 X106.909 Y-12.331 Z-8.600 I0.117 J-0.322 F240.000
G1 X106.909 Y-12.331 Z-8.800 F12.000
G2 X106.784 Y-12.895 Z-8.800 I-0.242 J-0.242 F240.000
G2 X106.549 Y-12.251 Z-8.800 I-0.117 J0.322 F240.000
G2 X106.909 Y-12.331 Z-8.800 I0.117 J-0.322 F240.000
G1 X106.909 Y-12.331 Z-9.000 F12.000
G2 X106.784 Y-12.895 Z-9.000 I-0.242 J-0.242 F240.000
G2 X106.549 Y-12.251 Z-9.000 I-0.117 J0.322 F240.000
G2 X106.909 Y-12.331 Z-9.000 I0.117 J-0.322 F240.000
G1 X106.909 Y-12.331 Z-9.200 F12.000
G2 X106.784 Y-12.895 Z-9.200 I-0.242 J-0.242 F240.000
G2 X106.549 Y-12.251 Z-9.200 I-0.117 J0.322 F240.000
G2 X106.909 Y-12.331 Z-9.200 I0.117 J-0.322 F240.000
G1 X106.909 Y-12.331 Z-9.400 F12.000
G2 X106.784 Y-12.895 Z-9.400 I-0.242 J-0.242 F240.000
G2 X106.549 Y-12.251 Z-9.400 I-0.117 J0.322 F240.000
G2 X106.909 Y-12.331 Z-9.400 I0.117 J-0.322 F240.000
G1 X106.909 Y-12.331 Z-9.600 F12.000
G2 X106.784 Y-12.895 Z-9.600 I-0.242 J-0.242 F240.000
G2 X106.549 Y-12.251 Z-9.600 I-0.117 J0.322 F240.000
G2 X106.909 Y-12.331 Z-9.600 I0.117 J-0.322 F240.000
G1 X106.909 Y-12.331 Z-9.800 F12.000
G2 X106.784 Y-12.895 Z-9.800 I-0.242 J-0.242 F240.000
G2 X106.549 Y-12.251 Z-9.800 I-0.117 J0.322 F240.000
G2 X106.909 Y-12.331 Z-9.800 I0.117 J-0.322 F240.000
G1 X106.909 Y-12.331 Z-10.000 F12.000
G2 X106.784 Y-12.895 Z-10.000 I-0.242 J-0.242 F240.000
G2 X106.549 Y-12.251 Z-10.000 I-0.117 J0.322 F240.000
G2 X106.909 Y-12.331 Z-10.000 I0.117 J-0.322 F240.000
G0 Z5.000
(finish operation: Profile_Edges005)
(begin operation: T4: 12mm Endmill)
(machine: not set, mm/min)
(T4: 12mm Endmill)
M6 T4 G43 H4
M3 S3000
(finish operation: T4: 12mm Endmill)
(begin operation: Profile_Edges006)
(machine: not set, mm/min)
(Profile_Edges006)
(Compensated Tool Path. Diameter: 12.0)
G0 Z5.000
G0 X23.480 Y-11.661
G0 Z3.000
G1 X23.480 Y-11.661 Z-0.500 F30.000
G1 X23.480 Y-33.261 Z-0.500 F720.000
G1 X3.971 Y-33.261 Z-0.500 F720.000
G1 X3.971 Y-11.661 Z-0.500 F720.000
G1 X23.480 Y-11.661 Z-0.500 F720.000
G1 X23.480 Y-11.661 Z-1.000 F30.000
G1 X23.480 Y-33.261 Z-1.000 F720.000
G1 X3.971 Y-33.261 Z-1.000 F720.000
G1 X3.971 Y-11.661 Z-1.000 F720.000
G1 X23.480 Y-11.661 Z-1.000 F720.000
G1 X23.480 Y-11.661 Z-1.500 F30.000
G1 X23.480 Y-33.261 Z-1.500 F720.000
G1 X3.971 Y-33.261 Z-1.500 F720.000
G1 X3.971 Y-11.661 Z-1.500 F720.000
G1 X23.480 Y-11.661 Z-1.500 F720.000
G1 X23.480 Y-11.661 Z-2.000 F30.000
G1 X23.480 Y-33.261 Z-2.000 F720.000
G1 X3.971 Y-33.261 Z-2.000 F720.000
G1 X3.971 Y-11.661 Z-2.000 F720.000
G1 X23.480 Y-11.661 Z-2.000 F720.000
G1 X23.480 Y-11.661 Z-2.500 F30.000
G1 X23.480 Y-33.261 Z-2.500 F720.000
G1 X3.971 Y-33.261 Z-2.500 F720.000
G1 X3.971 Y-11.661 Z-2.500 F720.000
G1 X23.480 Y-11.661 Z-2.500 F720.000
G1 X23.480 Y-11.661 Z-3.000 F30.000
G1 X23.480 Y-33.261 Z-3.000 F720.000
G1 X3.971 Y-33.261 Z-3.000 F720.000
G1 X3.971 Y-11.661 Z-3.000 F720.000
G1 X23.480 Y-11.661 Z-3.000 F720.000
G1 X23.480 Y-11.661 Z-3.500 F30.000
G1 X23.480 Y-33.261 Z-3.500 F720.000
G1 X3.971 Y-33.261 Z-3.500 F720.000
G1 X3.971 Y-11.661 Z-3.500 F720.000
G1 X23.480 Y-11.661 Z-3.500 F720.000
G1 X23.480 Y-11.661 Z-4.000 F30.000
G1 X23.480 Y-33.261 Z-4.000 F720.000
G1 X3.971 Y-33.261 Z-4.000 F720.000
G1 X3.971 Y-11.661 Z-4.000 F720.000
G1 X23.480 Y-11.661 Z-4.000 F720.000
G1 X23.480 Y-11.661 Z-4.500 F30.000
G1 X23.480 Y-33.261 Z-4.500 F720.000
G1 X3.971 Y-33.261 Z-4.500 F720.000
G1 X3.971 Y-11.661 Z-4.500 F720.000
G1 X23.480 Y-11.661 Z-4.500 F720.000
G1 X23.480 Y-11.661 Z-5.000 F30.000
G1 X23.480 Y-33.261 Z-5.000 F720.000
G1 X3.971 Y-33.261 Z-5.000 F720.000
G1 X3.971 Y-11.661 Z-5.000 F720.000
G1 X23.480 Y-11.661 Z-5.000 F720.000
G1 X23.480 Y-11.661 Z-5.500 F30.000
G1 X23.480 Y-33.261 Z-5.500 F720.000
G1 X3.971 Y-33.261 Z-5.500 F720.000
G1 X3.971 Y-11.661 Z-5.500 F720.000
G1 X23.480 Y-11.661 Z-5.500 F720.000
G1 X23.480 Y-11.661 Z-6.000 F30.000
G1 X23.480 Y-33.261 Z-6.000 F720.000
G1 X3.971 Y-33.261 Z-6.000 F720.000
G1 X3.971 Y-11.661 Z-6.000 F720.000
G1 X23.480 Y-11.661 Z-6.000 F720.000
G1 X23.480 Y-11.661 Z-6.500 F30.000
G1 X23.480 Y-33.261 Z-6.500 F720.000
G1 X3.971 Y-33.261 Z-6.500 F720.000
G1 X3.971 Y-11.661 Z-6.500 F720.000
G1 X23.480 Y-11.661 Z-6.500 F720.000
G1 X23.480 Y-11.661 Z-7.000 F30.000
G1 X23.480 Y-33.261 Z-7.000 F720.000
G1 X3.971 Y-33.261 Z-7.000 F720.000
G1 X3.971 Y-11.661 Z-7.000 F720.000
G1 X23.480 Y-11.661 Z-7.000 F720.000
G1 X23.480 Y-11.661 Z-7.500 F30.000
G1 X23.480 Y-33.261 Z-7.500 F720.000
G1 X3.971 Y-33.261 Z-7.500 F720.000
G1 X3.971 Y-11.661 Z-7.500 F720.000
G1 X23.480 Y-11.661 Z-7.500 F720.000
G1 X23.480 Y-11.661 Z-8.000 F30.000
G1 X23.480 Y-33.261 Z-8.000 F720.000
G1 X3.971 Y-33.261 Z-8.000 F720.000
G1 X3.971 Y-11.661 Z-8.000 F720.000
G1 X23.480 Y-11.661 Z-8.000 F720.000
G1 X23.480 Y-11.661 Z-8.500 F30.000
G1 X23.480 Y-33.261 Z-8.500 F720.000
G1 X3.971 Y-33.261 Z-8.500 F720.000
G1 X3.971 Y-11.661 Z-8.500 F720.000
G1 X23.480 Y-11.661 Z-8.500 F720.000
G1 X23.480 Y-11.661 Z-9.000 F30.000
G1 X23.480 Y-33.261 Z-9.000 F720.000
G1 X3.971 Y-33.261 Z-9.000 F720.000
G1 X3.971 Y-11.661 Z-9.000 F720.000
G1 X23.480 Y-11.661 Z-9.000 F720.000
G1 X23.480 Y-11.661 Z-9.500 F30.000
G1 X23.480 Y-33.261 Z-9.500 F720.000
G1 X3.971 Y-33.261 Z-9.500 F720.000
G1 X3.971 Y-11.661 Z-9.500 F720.000
G1 X23.480 Y-11.661 Z-9.500 F720.000
G1 X23.480 Y-11.661 Z-10.000 F30.000
G1 X23.480 Y-33.261 Z-10.000 F720.000
G1 X3.971 Y-33.261 Z-10.000 F720.000
G1 X3.971 Y-11.661 Z-10.000 F720.000
G1 X23.480 Y-11.661 Z-10.000 F720.000
G0 Z5.000
(finish operation: Profile_Edges006)
(begin operation: T6: 4mm Endmill)
(machine: not set, mm/min)
(T6: 4mm Endmill)
M6 T6 G43 H6
M3 S3000
(finish operation: T6: 4mm Endmill)
(begin operation: Profile_Edges007)
(machine: not set, mm/min)
(Profile_Edges007)
(Compensated Tool Path. Diameter: 4.0)
G0 Z5.000
G0 X27.457 Y-7.656
G0 Z3.000
G1 X27.457 Y-7.656 Z-0.200 F12.000
G2 X27.480 Y-7.698 Z-0.200 I-0.000 J-0.027 F240.000
G1 X27.480 Y-9.661 Z-0.200 F240.000
G1 X0.521 Y-9.661 Z-0.200 F240.000
G1 X0.521 Y-7.661 Z-0.200 F240.000
G1 X3.563 Y-7.661 Z-0.200 F240.000
G3 X8.387 Y-4.031 Z-0.200 I-0.025 J5.053 F240.000
G2 X8.995 Y-4.031 Z-0.200 I0.304 J-0.155 F240.000
G3 X13.659 Y-7.654 Z-0.200 I4.841 J1.419 F240.000
G1 X27.442 Y-7.661 Z-0.200 F240.000
G2 X27.457 Y-7.656 Z-0.200 I0.015 J-0.022 F240.000
G1 X27.457 Y-7.656 Z-0.400 F12.000
G2 X27.480 Y-7.698 Z-0.400 I-0.000 J-0.027 F240.000
G1 X27.480 Y-9.661 Z-0.400 F240.000
G1 X0.521 Y-9.661 Z-0.400 F240.000
G1 X0.521 Y-7.661 Z-0.400 F240.000
G1 X3.563 Y-7.661 Z-0.400 F240.000
G3 X8.387 Y-4.031 Z-0.400 I-0.025 J5.053 F240.000
G2 X8.995 Y-4.031 Z-0.400 I0.304 J-0.155 F240.000
G3 X13.659 Y-7.654 Z-0.400 I4.841 J1.419 F240.000
G1 X27.442 Y-7.661 Z-0.400 F240.000
G2 X27.457 Y-7.656 Z-0.400 I0.015 J-0.022 F240.000
G1 X27.457 Y-7.656 Z-0.600 F12.000
G2 X27.480 Y-7.698 Z-0.600 I-0.000 J-0.027 F240.000
G1 X27.480 Y-9.661 Z-0.600 F240.000
G1 X0.521 Y-9.661 Z-0.600 F240.000
G1 X0.521 Y-7.661 Z-0.600 F240.000
G1 X3.563 Y-7.661 Z-0.600 F240.000
G3 X8.387 Y-4.031 Z-0.600 I-0.025 J5.053 F240.000
G2 X8.995 Y-4.031 Z-0.600 I0.304 J-0.155 F240.000
G3 X13.659 Y-7.654 Z-0.600 I4.841 J1.419 F240.000
G1 X27.442 Y-7.661 Z-0.600 F240.000
G2 X27.457 Y-7.656 Z-0.600 I0.015 J-0.022 F240.000
G1 X27.457 Y-7.656 Z-0.800 F12.000
G2 X27.480 Y-7.698 Z-0.800 I-0.000 J-0.027 F240.000
G1 X27.480 Y-9.661 Z-0.800 F240.000
G1 X0.521 Y-9.661 Z-0.800 F240.000
G1 X0.521 Y-7.661 Z-0.800 F240.000
G1 X3.563 Y-7.661 Z-0.800 F240.000
G3 X8.387 Y-4.031 Z-0.800 I-0.025 J5.053 F240.000
G2 X8.995 Y-4.031 Z-0.800 I0.304 J-0.155 F240.000
G3 X13.659 Y-7.654 Z-0.800 I4.841 J1.419 F240.000
G1 X27.442 Y-7.661 Z-0.800 F240.000
G2 X27.457 Y-7.656 Z-0.800 I0.015 J-0.022 F240.000
G1 X27.457 Y-7.656 Z-1.000 F12.000
G2 X27.480 Y-7.698 Z-1.000 I-0.000 J-0.027 F240.000
G1 X27.480 Y-9.661 Z-1.000 F240.000
G1 X0.521 Y-9.661 Z-1.000 F240.000
G1 X0.521 Y-7.661 Z-1.000 F240.000
G1 X3.563 Y-7.661 Z-1.000 F240.000
G3 X8.387 Y-4.031 Z-1.000 I-0.025 J5.053 F240.000
G2 X8.995 Y-4.031 Z-1.000 I0.304 J-0.155 F240.000
G3 X13.659 Y-7.654 Z-1.000 I4.841 J1.419 F240.000
G1 X27.442 Y-7.661 Z-1.000 F240.000
G2 X27.457 Y-7.656 Z-1.000 I0.015 J-0.022 F240.000
G1 X27.457 Y-7.656 Z-1.200 F12.000
G2 X27.480 Y-7.698 Z-1.200 I-0.000 J-0.027 F240.000
G1 X27.480 Y-9.661 Z-1.200 F240.000
G1 X0.521 Y-9.661 Z-1.200 F240.000
G1 X0.521 Y-7.661 Z-1.200 F240.000
G1 X3.563 Y-7.661 Z-1.200 F240.000
G3 X8.387 Y-4.031 Z-1.200 I-0.025 J5.053 F240.000
G2 X8.995 Y-4.031 Z-1.200 I0.304 J-0.155 F240.000
G3 X13.659 Y-7.654 Z-1.200 I4.841 J1.419 F240.000
G1 X27.442 Y-7.661 Z-1.200 F240.000
G2 X27.457 Y-7.656 Z-1.200 I0.015 J-0.022 F240.000
G1 X27.457 Y-7.656 Z-1.400 F12.000
G2 X27.480 Y-7.698 Z-1.400 I-0.000 J-0.027 F240.000
G1 X27.480 Y-9.661 Z-1.400 F240.000
G1 X0.521 Y-9.661 Z-1.400 F240.000
G1 X0.521 Y-7.661 Z-1.400 F240.000
G1 X3.563 Y-7.661 Z-1.400 F240.000
G3 X8.387 Y-4.031 Z-1.400 I-0.025 J5.053 F240.000
G2 X8.995 Y-4.031 Z-1.400 I0.304 J-0.155 F240.000
G3 X13.659 Y-7.654 Z-1.400 I4.841 J1.419 F240.000
G1 X27.442 Y-7.661 Z-1.400 F240.000
G2 X27.457 Y-7.656 Z-1.400 I0.015 J-0.022 F240.000
G1 X27.457 Y-7.656 Z-1.600 F12.000
G2 X27.480 Y-7.698 Z-1.600 I-0.000 J-0.027 F240.000
G1 X27.480 Y-9.661 Z-1.600 F240.000
G1 X0.521 Y-9.661 Z-1.600 F240.000
G1 X0.521 Y-7.661 Z-1.600 F240.000
G1 X3.563 Y-7.661 Z-1.600 F240.000
G3 X8.387 Y-4.031 Z-1.600 I-0.025 J5.053 F240.000
G2 X8.995 Y-4.031 Z-1.600 I0.304 J-0.155 F240.000
G3 X13.659 Y-7.654 Z-1.600 I4.841 J1.419 F240.000
G1 X27.442 Y-7.661 Z-1.600 F240.000
G2 X27.457 Y-7.656 Z-1.600 I0.015 J-0.022 F240.000
G1 X27.457 Y-7.656 Z-1.800 F12.000
G2 X27.480 Y-7.698 Z-1.800 I-0.000 J-0.027 F240.000
G1 X27.480 Y-9.661 Z-1.800 F240.000
G1 X0.521 Y-9.661 Z-1.800 F240.000
G1 X0.521 Y-7.661 Z-1.800 F240.000
G1 X3.563 Y-7.661 Z-1.800 F240.000
G3 X8.387 Y-4.031 Z-1.800 I-0.025 J5.053 F240.000
G2 X8.995 Y-4.031 Z-1.800 I0.304 J-0.155 F240.000
G3 X13.659 Y-7.654 Z-1.800 I4.841 J1.419 F240.000
G1 X27.442 Y-7.661 Z-1.800 F240.000
G2 X27.457 Y-7.656 Z-1.800 I0.015 J-0.022 F240.000
G1 X27.457 Y-7.656 Z-2.000 F12.000
G2 X27.480 Y-7.698 Z-2.000 I-0.000 J-0.027 F240.000
G1 X27.480 Y-9.661 Z-2.000 F240.000
G1 X0.521 Y-9.661 Z-2.000 F240.000
G1 X0.521 Y-7.661 Z-2.000 F240.000
G1 X3.563 Y-7.661 Z-2.000 F240.000
G3 X8.387 Y-4.031 Z-2.000 I-0.025 J5.053 F240.000
G2 X8.995 Y-4.031 Z-2.000 I0.304 J-0.155 F240.000
G3 X13.659 Y-7.654 Z-2.000 I4.841 J1.419 F240.000
G1 X27.442 Y-7.661 Z-2.000 F240.000
G2 X27.457 Y-7.656 Z-2.000 I0.015 J-0.022 F240.000
G1 X27.457 Y-7.656 Z-2.200 F12.000
G2 X27.480 Y-7.698 Z-2.200 I-0.000 J-0.027 F240.000
G1 X27.480 Y-9.661 Z-2.200 F240.000
G1 X0.521 Y-9.661 Z-2.200 F240.000
G1 X0.521 Y-7.661 Z-2.200 F240.000
G1 X3.563 Y-7.661 Z-2.200 F240.000
G3 X8.387 Y-4.031 Z-2.200 I-0.025 J5.053 F240.000
G2 X8.995 Y-4.031 Z-2.200 I0.304 J-0.155 F240.000
G3 X13.659 Y-7.654 Z-2.200 I4.841 J1.419 F240.000
G1 X27.442 Y-7.661 Z-2.200 F240.000
G2 X27.457 Y-7.656 Z-2.200 I0.015 J-0.022 F240.000
G1 X27.457 Y-7.656 Z-2.400 F12.000
G2 X27.480 Y-7.698 Z-2.400 I-0.000 J-0.027 F240.000
G1 X27.480 Y-9.661 Z-2.400 F240.000
G1 X0.521 Y-9.661 Z-2.400 F240.000
G1 X0.521 Y-7.661 Z-2.400 F240.000
G1 X3.563 Y-7.661 Z-2.400 F240.000
G3 X8.387 Y-4.031 Z-2.400 I-0.025 J5.053 F240.000
G2 X8.995 Y-4.031 Z-2.400 I0.304 J-0.155 F240.000
G3 X13.659 Y-7.654 Z-2.400 I4.841 J1.419 F240.000
G1 X27.442 Y-7.661 Z-2.400 F240.000
G2 X27.457 Y-7.656 Z-2.400 I0.015 J-0.022 F240.000
G1 X27.457 Y-7.656 Z-2.600 F12.000
G2 X27.480 Y-7.698 Z-2.600 I-0.000 J-0.027 F240.000
G1 X27.480 Y-9.661 Z-2.600 F240.000
G1 X0.521 Y-9.661 Z-2.600 F240.000
G1 X0.521 Y-7.661 Z-2.600 F240.000
G1 X3.563 Y-7.661 Z-2.600 F240.000
G3 X8.387 Y-4.031 Z-2.600 I-0.025 J5.053 F240.000
G2 X8.995 Y-4.031 Z-2.600 I0.304 J-0.155 F240.000
G3 X13.659 Y-7.654 Z-2.600 I4.841 J1.419 F240.000
G1 X27.442 Y-7.661 Z-2.600 F240.000
G2 X27.457 Y-7.656 Z-2.600 I0.015 J-0.022 F240.000
G1 X27.457 Y-7.656 Z-2.800 F12.000
G2 X27.480 Y-7.698 Z-2.800 I-0.000 J-0.027 F240.000
G1 X27.480 Y-9.661 Z-2.800 F240.000
G1 X0.521 Y-9.661 Z-2.800 F240.000
G1 X0.521 Y-7.661 Z-2.800 F240.000
G1 X3.563 Y-7.661 Z-2.800 F240.000
G3 X8.387 Y-4.031 Z-2.800 I-0.025 J5.053 F240.000
G2 X8.995 Y-4.031 Z-2.800 I0.304 J-0.155 F240.000
G3 X13.659 Y-7.654 Z-2.800 I4.841 J1.419 F240.000
G1 X27.442 Y-7.661 Z-2.800 F240.000
G2 X27.457 Y-7.656 Z-2.800 I0.015 J-0.022 F240.000
G1 X27.457 Y-7.656 Z-3.000 F12.000
G2 X27.480 Y-7.698 Z-3.000 I-0.000 J-0.027 F240.000
G1 X27.480 Y-9.661 Z-3.000 F240.000
G1 X0.521 Y-9.661 Z-3.000 F240.000
G1 X0.521 Y-7.661 Z-3.000 F240.000
G1 X3.563 Y-7.661 Z-3.000 F240.000
G3 X8.387 Y-4.031 Z-3.000 I-0.025 J5.053 F240.000
G2 X8.995 Y-4.031 Z-3.000 I0.304 J-0.155 F240.000
G3 X13.659 Y-7.654 Z-3.000 I4.841 J1.419 F240.000
G1 X27.442 Y-7.661 Z-3.000 F240.000
G2 X27.457 Y-7.656 Z-3.000 I0.015 J-0.022 F240.000
G1 X27.457 Y-7.656 Z-3.200 F12.000
G2 X27.480 Y-7.698 Z-3.200 I-0.000 J-0.027 F240.000
G1 X27.480 Y-9.661 Z-3.200 F240.000
G1 X0.521 Y-9.661 Z-3.200 F240.000
G1 X0.521 Y-7.661 Z-3.200 F240.000
G1 X3.563 Y-7.661 Z-3.200 F240.000
G3 X8.387 Y-4.031 Z-3.200 I-0.025 J5.053 F240.000
G2 X8.995 Y-4.031 Z-3.200 I0.304 J-0.155 F240.000
G3 X13.659 Y-7.654 Z-3.200 I4.841 J1.419 F240.000
G1 X27.442 Y-7.661 Z-3.200 F240.000
G2 X27.457 Y-7.656 Z-3.200 I0.015 J-0.022 F240.000
G1 X27.457 Y-7.656 Z-3.400 F12.000
G2 X27.480 Y-7.698 Z-3.400 I-0.000 J-0.027 F240.000
G1 X27.480 Y-9.661 Z-3.400 F240.000
G1 X0.521 Y-9.661 Z-3.400 F240.000
G1 X0.521 Y-7.661 Z-3.400 F240.000
G1 X3.563 Y-7.661 Z-3.400 F240.000
G3 X8.387 Y-4.031 Z-3.400 I-0.025 J5.053 F240.000
G2 X8.995 Y-4.031 Z-3.400 I0.304 J-0.155 F240.000
G3 X13.659 Y-7.654 Z-3.400 I4.841 J1.419 F240.000
G1 X27.442 Y-7.661 Z-3.400 F240.000
G2 X27.457 Y-7.656 Z-3.400 I0.015 J-0.022 F240.000
G1 X27.457 Y-7.656 Z-3.600 F12.000
G2 X27.480 Y-7.698 Z-3.600 I-0.000 J-0.027 F240.000
G1 X27.480 Y-9.661 Z-3.600 F240.000
G1 X0.521 Y-9.661 Z-3.600 F240.000
G1 X0.521 Y-7.661 Z-3.600 F240.000
G1 X3.563 Y-7.661 Z-3.600 F240.000
G3 X8.387 Y-4.031 Z-3.600 I-0.025 J5.053 F240.000
G2 X8.995 Y-4.031 Z-3.600 I0.304 J-0.155 F240.000
G3 X13.659 Y-7.654 Z-3.600 I4.841 J1.419 F240.000
G1 X27.442 Y-7.661 Z-3.600 F240.000
G2 X27.457 Y-7.656 Z-3.600 I0.015 J-0.022 F240.000
G1 X27.457 Y-7.656 Z-3.800 F12.000
G2 X27.480 Y-7.698 Z-3.800 I-0.000 J-0.027 F240.000
G1 X27.480 Y-9.661 Z-3.800 F240.000
G1 X0.521 Y-9.661 Z-3.800 F240.000
G1 X0.521 Y-7.661 Z-3.800 F240.000
G1 X3.563 Y-7.661 Z-3.800 F240.000
G3 X8.387 Y-4.031 Z-3.800 I-0.025 J5.053 F240.000
G2 X8.995 Y-4.031 Z-3.800 I0.304 J-0.155 F240.000
G3 X13.659 Y-7.654 Z-3.800 I4.841 J1.419 F240.000
G1 X27.442 Y-7.661 Z-3.800 F240.000
G2 X27.457 Y-7.656 Z-3.800 I0.015 J-0.022 F240.000
G1 X27.457 Y-7.656 Z-4.000 F12.000
G2 X27.480 Y-7.698 Z-4.000 I-0.000 J-0.027 F240.000
G1 X27.480 Y-9.661 Z-4.000 F240.000
G1 X0.521 Y-9.661 Z-4.000 F240.000
G1 X0.521 Y-7.661 Z-4.000 F240.000
G1 X3.563 Y-7.661 Z-4.000 F240.000
G3 X8.387 Y-4.031 Z-4.000 I-0.025 J5.053 F240.000
G2 X8.995 Y-4.031 Z-4.000 I0.304 J-0.155 F240.000
G3 X13.659 Y-7.654 Z-4.000 I4.841 J1.419 F240.000
G1 X27.442 Y-7.661 Z-4.000 F240.000
G2 X27.457 Y-7.656 Z-4.000 I0.015 J-0.022 F240.000
G1 X27.457 Y-7.656 Z-4.200 F12.000
G2 X27.480 Y-7.698 Z-4.200 I-0.000 J-0.027 F240.000
G1 X27.480 Y-9.661 Z-4.200 F240.000
G1 X0.521 Y-9.661 Z-4.200 F240.000
G1 X0.521 Y-7.661 Z-4.200 F240.000
G1 X3.563 Y-7.661 Z-4.200 F240.000
G3 X8.387 Y-4.031 Z-4.200 I-0.025 J5.053 F240.000
G2 X8.995 Y-4.031 Z-4.200 I0.304 J-0.155 F240.000
G3 X13.659 Y-7.654 Z-4.200 I4.841 J1.419 F240.000
G1 X27.442 Y-7.661 Z-4.200 F240.000
G2 X27.457 Y-7.656 Z-4.200 I0.015 J-0.022 F240.000
G1 X27.457 Y-7.656 Z-4.400 F12.000
G2 X27.480 Y-7.698 Z-4.400 I-0.000 J-0.027 F240.000
G1 X27.480 Y-9.661 Z-4.400 F240.000
G1 X0.521 Y-9.661 Z-4.400 F240.000
G1 X0.521 Y-7.661 Z-4.400 F240.000
G1 X3.563 Y-7.661 Z-4.400 F240.000
G3 X8.387 Y-4.031 Z-4.400 I-0.025 J5.053 F240.000
G2 X8.995 Y-4.031 Z-4.400 I0.304 J-0.155 F240.000
G3 X13.659 Y-7.654 Z-4.400 I4.841 J1.419 F240.000
G1 X27.442 Y-7.661 Z-4.400 F240.000
G2 X27.457 Y-7.656 Z-4.400 I0.015 J-0.022 F240.000
G1 X27.457 Y-7.656 Z-4.600 F12.000
G2 X27.480 Y-7.698 Z-4.600 I-0.000 J-0.027 F240.000
G1 X27.480 Y-9.661 Z-4.600 F240.000
G1 X0.521 Y-9.661 Z-4.600 F240.000
G1 X0.521 Y-7.661 Z-4.600 F240.000
G1 X3.563 Y-7.661 Z-4.600 F240.000
G3 X8.387 Y-4.031 Z-4.600 I-0.025 J5.053 F240.000
G2 X8.995 Y-4.031 Z-4.600 I0.304 J-0.155 F240.000
G3 X13.659 Y-7.654 Z-4.600 I4.841 J1.419 F240.000
G1 X27.442 Y-7.661 Z-4.600 F240.000
G2 X27.457 Y-7.656 Z-4.600 I0.015 J-0.022 F240.000
G1 X27.457 Y-7.656 Z-4.800 F12.000
G2 X27.480 Y-7.698 Z-4.800 I-0.000 J-0.027 F240.000
G1 X27.480 Y-9.661 Z-4.800 F240.000
G1 X0.521 Y-9.661 Z-4.800 F240.000
G1 X0.521 Y-7.661 Z-4.800 F240.000
G1 X3.563 Y-7.661 Z-4.800 F240.000
G3 X8.387 Y-4.031 Z-4.800 I-0.025 J5.053 F240.000
G2 X8.995 Y-4.031 Z-4.800 I0.304 J-0.155 F240.000
G3 X13.659 Y-7.654 Z-4.800 I4.841 J1.419 F240.000
G1 X27.442 Y-7.661 Z-4.800 F240.000
G2 X27.457 Y-7.656 Z-4.800 I0.015 J-0.022 F240.000
G1 X27.457 Y-7.656 Z-5.000 F12.000
G2 X27.480 Y-7.698 Z-5.000 I-0.000 J-0.027 F240.000
G1 X27.480 Y-9.661 Z-5.000 F240.000
G1 X0.521 Y-9.661 Z-5.000 F240.000
G1 X0.521 Y-7.661 Z-5.000 F240.000
G1 X3.563 Y-7.661 Z-5.000 F240.000
G3 X8.387 Y-4.031 Z-5.000 I-0.025 J5.053 F240.000
G2 X8.995 Y-4.031 Z-5.000 I0.304 J-0.155 F240.000
G3 X13.659 Y-7.654 Z-5.000 I4.841 J1.419 F240.000
G1 X27.442 Y-7.661 Z-5.000 F240.000
G2 X27.457 Y-7.656 Z-5.000 I0.015 J-0.022 F240.000
G1 X27.457 Y-7.656 Z-5.200 F12.000
G2 X27.480 Y-7.698 Z-5.200 I-0.000 J-0.027 F240.000
G1 X27.480 Y-9.661 Z-5.200 F240.000
G1 X0.521 Y-9.661 Z-5.200 F240.000
G1 X0.521 Y-7.661 Z-5.200 F240.000
G1 X3.563 Y-7.661 Z-5.200 F240.000
G3 X8.387 Y-4.031 Z-5.200 I-0.025 J5.053 F240.000
G2 X8.995 Y-4.031 Z-5.200 I0.304 J-0.155 F240.000
G3 X13.659 Y-7.654 Z-5.200 I4.841 J1.419 F240.000
G1 X27.442 Y-7.661 Z-5.200 F240.000
G2 X27.457 Y-7.656 Z-5.200 I0.015 J-0.022 F240.000
G1 X27.457 Y-7.656 Z-5.400 F12.000
G2 X27.480 Y-7.698 Z-5.400 I-0.000 J-0.027 F240.000
G1 X27.480 Y-9.661 Z-5.400 F240.000
G1 X0.521 Y-9.661 Z-5.400 F240.000
G1 X0.521 Y-7.661 Z-5.400 F240.000
G1 X3.563 Y-7.661 Z-5.400 F240.000
G3 X8.387 Y-4.031 Z-5.400 I-0.025 J5.053 F240.000
G2 X8.995 Y-4.031 Z-5.400 I0.304 J-0.155 F240.000
G3 X13.659 Y-7.654 Z-5.400 I4.841 J1.419 F240.000
G1 X27.442 Y-7.661 Z-5.400 F240.000
G2 X27.457 Y-7.656 Z-5.400 I0.015 J-0.022 F240.000
G1 X27.457 Y-7.656 Z-5.600 F12.000
G2 X27.480 Y-7.698 Z-5.600 I-0.000 J-0.027 F240.000
G1 X27.480 Y-9.661 Z-5.600 F240.000
G1 X0.521 Y-9.661 Z-5.600 F240.000
G1 X0.521 Y-7.661 Z-5.600 F240.000
G1 X3.563 Y-7.661 Z-5.600 F240.000
G3 X8.387 Y-4.031 Z-5.600 I-0.025 J5.053 F240.000
G2 X8.995 Y-4.031 Z-5.600 I0.304 J-0.155 F240.000
G3 X13.659 Y-7.654 Z-5.600 I4.841 J1.419 F240.000
G1 X27.442 Y-7.661 Z-5.600 F240.000
G2 X27.457 Y-7.656 Z-5.600 I0.015 J-0.022 F240.000
G1 X27.457 Y-7.656 Z-5.800 F12.000
G2 X27.480 Y-7.698 Z-5.800 I-0.000 J-0.027 F240.000
G1 X27.480 Y-9.661 Z-5.800 F240.000
G1 X0.521 Y-9.661 Z-5.800 F240.000
G1 X0.521 Y-7.661 Z-5.800 F240.000
G1 X3.563 Y-7.661 Z-5.800 F240.000
G3 X8.387 Y-4.031 Z-5.800 I-0.025 J5.053 F240.000
G2 X8.995 Y-4.031 Z-5.800 I0.304 J-0.155 F240.000
G3 X13.659 Y-7.654 Z-5.800 I4.841 J1.419 F240.000
G1 X27.442 Y-7.661 Z-5.800 F240.000
G2 X27.457 Y-7.656 Z-5.800 I0.015 J-0.022 F240.000
G1 X27.457 Y-7.656 Z-6.000 F12.000
G2 X27.480 Y-7.698 Z-6.000 I-0.000 J-0.027 F240.000
G1 X27.480 Y-9.661 Z-6.000 F240.000
G1 X0.521 Y-9.661 Z-6.000 F240.000
G1 X0.521 Y-7.661 Z-6.000 F240.000
G1 X3.563 Y-7.661 Z-6.000 F240.000
G3 X8.387 Y-4.031 Z-6.000 I-0.025 J5.053 F240.000
G2 X8.995 Y-4.031 Z-6.000 I0.304 J-0.155 F240.000
G3 X13.659 Y-7.654 Z-6.000 I4.841 J1.419 F240.000
G1 X27.442 Y-7.661 Z-6.000 F240.000
G2 X27.457 Y-7.656 Z-6.000 I0.015 J-0.022 F240.000
G1 X27.457 Y-7.656 Z-6.200 F12.000
G2 X27.480 Y-7.698 Z-6.200 I-0.000 J-0.027 F240.000
G1 X27.480 Y-9.661 Z-6.200 F240.000
G1 X0.521 Y-9.661 Z-6.200 F240.000
G1 X0.521 Y-7.661 Z-6.200 F240.000
G1 X3.563 Y-7.661 Z-6.200 F240.000
G3 X8.387 Y-4.031 Z-6.200 I-0.025 J5.053 F240.000
G2 X8.995 Y-4.031 Z-6.200 I0.304 J-0.155 F240.000
G3 X13.659 Y-7.654 Z-6.200 I4.841 J1.419 F240.000
G1 X27.442 Y-7.661 Z-6.200 F240.000
G2 X27.457 Y-7.656 Z-6.200 I0.015 J-0.022 F240.000
G1 X27.457 Y-7.656 Z-6.400 F12.000
G2 X27.480 Y-7.698 Z-6.400 I-0.000 J-0.027 F240.000
G1 X27.480 Y-9.661 Z-6.400 F240.000
G1 X0.521 Y-9.661 Z-6.400 F240.000
G1 X0.521 Y-7.661 Z-6.400 F240.000
G1 X3.563 Y-7.661 Z-6.400 F240.000
G3 X8.387 Y-4.031 Z-6.400 I-0.025 J5.053 F240.000
G2 X8.995 Y-4.031 Z-6.400 I0.304 J-0.155 F240.000
G3 X13.659 Y-7.654 Z-6.400 I4.841 J1.419 F240.000
G1 X27.442 Y-7.661 Z-6.400 F240.000
G2 X27.457 Y-7.656 Z-6.400 I0.015 J-0.022 F240.000
G1 X27.457 Y-7.656 Z-6.600 F12.000
G2 X27.480 Y-7.698 Z-6.600 I-0.000 J-0.027 F240.000
G1 X27.480 Y-9.661 Z-6.600 F240.000
G1 X0.521 Y-9.661 Z-6.600 F240.000
G1 X0.521 Y-7.661 Z-6.600 F240.000
G1 X3.563 Y-7.661 Z-6.600 F240.000
G3 X8.387 Y-4.031 Z-6.600 I-0.025 J5.053 F240.000
G2 X8.995 Y-4.031 Z-6.600 I0.304 J-0.155 F240.000
G3 X13.659 Y-7.654 Z-6.600 I4.841 J1.419 F240.000
G1 X27.442 Y-7.661 Z-6.600 F240.000
G2 X27.457 Y-7.656 Z-6.600 I0.015 J-0.022 F240.000
G1 X27.457 Y-7.656 Z-6.800 F12.000
G2 X27.480 Y-7.698 Z-6.800 I-0.000 J-0.027 F240.000
G1 X27.480 Y-9.661 Z-6.800 F240.000
G1 X0.521 Y-9.661 Z-6.800 F240.000
G1 X0.521 Y-7.661 Z-6.800 F240.000
G1 X3.563 Y-7.661 Z-6.800 F240.000
G3 X8.387 Y-4.031 Z-6.800 I-0.025 J5.053 F240.000
G2 X8.995 Y-4.031 Z-6.800 I0.304 J-0.155 F240.000
G3 X13.659 Y-7.654 Z-6.800 I4.841 J1.419 F240.000
G1 X27.442 Y-7.661 Z-6.800 F240.000
G2 X27.457 Y-7.656 Z-6.800 I0.015 J-0.022 F240.000
G1 X27.457 Y-7.656 Z-7.000 F12.000
G2 X27.480 Y-7.698 Z-7.000 I-0.000 J-0.027 F240.000
G1 X27.480 Y-9.661 Z-7.000 F240.000
G1 X0.521 Y-9.661 Z-7.000 F240.000
G1 X0.521 Y-7.661 Z-7.000 F240.000
G1 X3.563 Y-7.661 Z-7.000 F240.000
G3 X8.387 Y-4.031 Z-7.000 I-0.025 J5.053 F240.000
G2 X8.995 Y-4.031 Z-7.000 I0.304 J-0.155 F240.000
G3 X13.659 Y-7.654 Z-7.000 I4.841 J1.419 F240.000
G1 X27.442 Y-7.661 Z-7.000 F240.000
G2 X27.457 Y-7.656 Z-7.000 I0.015 J-0.022 F240.000
G1 X27.457 Y-7.656 Z-7.200 F12.000
G2 X27.480 Y-7.698 Z-7.200 I-0.000 J-0.027 F240.000
G1 X27.480 Y-9.661 Z-7.200 F240.000
G1 X0.521 Y-9.661 Z-7.200 F240.000
G1 X0.521 Y-7.661 Z-7.200 F240.000
G1 X3.563 Y-7.661 Z-7.200 F240.000
G3 X8.387 Y-4.031 Z-7.200 I-0.025 J5.053 F240.000
G2 X8.995 Y-4.031 Z-7.200 I0.304 J-0.155 F240.000
G3 X13.659 Y-7.654 Z-7.200 I4.841 J1.419 F240.000
G1 X27.442 Y-7.661 Z-7.200 F240.000
G2 X27.457 Y-7.656 Z-7.200 I0.015 J-0.022 F240.000
G1 X27.457 Y-7.656 Z-7.400 F12.000
G2 X27.480 Y-7.698 Z-7.400 I-0.000 J-0.027 F240.000
G1 X27.480 Y-9.661 Z-7.400 F240.000
G1 X0.521 Y-9.661 Z-7.400 F240.000
G1 X0.521 Y-7.661 Z-7.400 F240.000
G1 X3.563 Y-7.661 Z-7.400 F240.000
G3 X8.387 Y-4.031 Z-7.400 I-0.025 J5.053 F240.000
G2 X8.995 Y-4.031 Z-7.400 I0.304 J-0.155 F240.000
G3 X13.659 Y-7.654 Z-7.400 I4.841 J1.419 F240.000
G1 X27.442 Y-7.661 Z-7.400 F240.000
G2 X27.457 Y-7.656 Z-7.400 I0.015 J-0.022 F240.000
G1 X27.457 Y-7.656 Z-7.600 F12.000
G2 X27.480 Y-7.698 Z-7.600 I-0.000 J-0.027 F240.000
G1 X27.480 Y-9.661 Z-7.600 F240.000
G1 X0.521 Y-9.661 Z-7.600 F240.000
G1 X0.521 Y-7.661 Z-7.600 F240.000
G1 X3.563 Y-7.661 Z-7.600 F240.000
G3 X8.387 Y-4.031 Z-7.600 I-0.025 J5.053 F240.000
G2 X8.995 Y-4.031 Z-7.600 I0.304 J-0.155 F240.000
G3 X13.659 Y-7.654 Z-7.600 I4.841 J1.419 F240.000
G1 X27.442 Y-7.661 Z-7.600 F240.000
G2 X27.457 Y-7.656 Z-7.600 I0.015 J-0.022 F240.000
G1 X27.457 Y-7.656 Z-7.800 F12.000
G2 X27.480 Y-7.698 Z-7.800 I-0.000 J-0.027 F240.000
G1 X27.480 Y-9.661 Z-7.800 F240.000
G1 X0.521 Y-9.661 Z-7.800 F240.000
G1 X0.521 Y-7.661 Z-7.800 F240.000
G1 X3.563 Y-7.661 Z-7.800 F240.000
G3 X8.387 Y-4.031 Z-7.800 I-0.025 J5.053 F240.000
G2 X8.995 Y-4.031 Z-7.800 I0.304 J-0.155 F240.000
G3 X13.659 Y-7.654 Z-7.800 I4.841 J1.419 F240.000
G1 X27.442 Y-7.661 Z-7.800 F240.000
G2 X27.457 Y-7.656 Z-7.800 I0.015 J-0.022 F240.000
G1 X27.457 Y-7.656 Z-8.000 F12.000
G2 X27.480 Y-7.698 Z-8.000 I-0.000 J-0.027 F240.000
G1 X27.480 Y-9.661 Z-8.000 F240.000
G1 X0.521 Y-9.661 Z-8.000 F240.000
G1 X0.521 Y-7.661 Z-8.000 F240.000
G1 X3.563 Y-7.661 Z-8.000 F240.000
G3 X8.387 Y-4.031 Z-8.000 I-0.025 J5.053 F240.000
G2 X8.995 Y-4.031 Z-8.000 I0.304 J-0.155 F240.000
G3 X13.659 Y-7.654 Z-8.000 I4.841 J1.419 F240.000
G1 X27.442 Y-7.661 Z-8.000 F240.000
G2 X27.457 Y-7.656 Z-8.000 I0.015 J-0.022 F240.000
G1 X27.457 Y-7.656 Z-8.200 F12.000
G2 X27.480 Y-7.698 Z-8.200 I-0.000 J-0.027 F240.000
G1 X27.480 Y-9.661 Z-8.200 F240.000
G1 X0.521 Y-9.661 Z-8.200 F240.000
G1 X0.521 Y-7.661 Z-8.200 F240.000
G1 X3.563 Y-7.661 Z-8.200 F240.000
G3 X8.387 Y-4.031 Z-8.200 I-0.025 J5.053 F240.000
G2 X8.995 Y-4.031 Z-8.200 I0.304 J-0.155 F240.000
G3 X13.659 Y-7.654 Z-8.200 I4.841 J1.419 F240.000
G1 X27.442 Y-7.661 Z-8.200 F240.000
G2 X27.457 Y-7.656 Z-8.200 I0.015 J-0.022 F240.000
G1 X27.457 Y-7.656 Z-8.400 F12.000
G2 X27.480 Y-7.698 Z-8.400 I-0.000 J-0.027 F240.000
G1 X27.480 Y-9.661 Z-8.400 F240.000
G1 X0.521 Y-9.661 Z-8.400 F240.000
G1 X0.521 Y-7.661 Z-8.400 F240.000
G1 X3.563 Y-7.661 Z-8.400 F240.000
G3 X8.387 Y-4.031 Z-8.400 I-0.025 J5.053 F240.000
G2 X8.995 Y-4.031 Z-8.400 I0.304 J-0.155 F240.000
G3 X13.659 Y-7.654 Z-8.400 I4.841 J1.419 F240.000
G1 X27.442 Y-7.661 Z-8.400 F240.000
G2 X27.457 Y-7.656 Z-8.400 I0.015 J-0.022 F240.000
G1 X27.457 Y-7.656 Z-8.600 F12.000
G2 X27.480 Y-7.698 Z-8.600 I-0.000 J-0.027 F240.000
G1 X27.480 Y-9.661 Z-8.600 F240.000
G1 X0.521 Y-9.661 Z-8.600 F240.000
G1 X0.521 Y-7.661 Z-8.600 F240.000
G1 X3.563 Y-7.661 Z-8.600 F240.000
G3 X8.387 Y-4.031 Z-8.600 I-0.025 J5.053 F240.000
G2 X8.995 Y-4.031 Z-8.600 I0.304 J-0.155 F240.000
G3 X13.659 Y-7.654 Z-8.600 I4.841 J1.419 F240.000
G1 X27.442 Y-7.661 Z-8.600 F240.000
G2 X27.457 Y-7.656 Z-8.600 I0.015 J-0.022 F240.000
G1 X27.457 Y-7.656 Z-8.800 F12.000
G2 X27.480 Y-7.698 Z-8.800 I-0.000 J-0.027 F240.000
G1 X27.480 Y-9.661 Z-8.800 F240.000
G1 X0.521 Y-9.661 Z-8.800 F240.000
G1 X0.521 Y-7.661 Z-8.800 F240.000
G1 X3.563 Y-7.661 Z-8.800 F240.000
G3 X8.387 Y-4.031 Z-8.800 I-0.025 J5.053 F240.000
G2 X8.995 Y-4.031 Z-8.800 I0.304 J-0.155 F240.000
G3 X13.659 Y-7.654 Z-8.800 I4.841 J1.419 F240.000
G1 X27.442 Y-7.661 Z-8.800 F240.000
G2 X27.457 Y-7.656 Z-8.800 I0.015 J-0.022 F240.000
G1 X27.457 Y-7.656 Z-9.000 F12.000
G2 X27.480 Y-7.698 Z-9.000 I-0.000 J-0.027 F240.000
G1 X27.480 Y-9.661 Z-9.000 F240.000
G1 X0.521 Y-9.661 Z-9.000 F240.000
G1 X0.521 Y-7.661 Z-9.000 F240.000
G1 X3.563 Y-7.661 Z-9.000 F240.000
G3 X8.387 Y-4.031 Z-9.000 I-0.025 J5.053 F240.000
G2 X8.995 Y-4.031 Z-9.000 I0.304 J-0.155 F240.000
G3 X13.659 Y-7.654 Z-9.000 I4.841 J1.419 F240.000
G1 X27.442 Y-7.661 Z-9.000 F240.000
G2 X27.457 Y-7.656 Z-9.000 I0.015 J-0.022 F240.000
G1 X27.457 Y-7.656 Z-9.200 F12.000
G2 X27.480 Y-7.698 Z-9.200 I-0.000 J-0.027 F240.000
G1 X27.480 Y-9.661 Z-9.200 F240.000
G1 X0.521 Y-9.661 Z-9.200 F240.000
G1 X0.521 Y-7.661 Z-9.200 F240.000
G1 X3.563 Y-7.661 Z-9.200 F240.000
G3 X8.387 Y-4.031 Z-9.200 I-0.025 J5.053 F240.000
G2 X8.995 Y-4.031 Z-9.200 I0.304 J-0.155 F240.000
G3 X13.659 Y-7.654 Z-9.200 I4.841 J1.419 F240.000
G1 X27.442 Y-7.661 Z-9.200 F240.000
G2 X27.457 Y-7.656 Z-9.200 I0.015 J-0.022 F240.000
G1 X27.457 Y-7.656 Z-9.400 F12.000
G2 X27.480 Y-7.698 Z-9.400 I-0.000 J-0.027 F240.000
G1 X27.480 Y-9.661 Z-9.400 F240.000
G1 X0.521 Y-9.661 Z-9.400 F240.000
G1 X0.521 Y-7.661 Z-9.400 F240.000
G1 X3.563 Y-7.661 Z-9.400 F240.000
G3 X8.387 Y-4.031 Z-9.400 I-0.025 J5.053 F240.000
G2 X8.995 Y-4.031 Z-9.400 I0.304 J-0.155 F240.000
G3 X13.659 Y-7.654 Z-9.400 I4.841 J1.419 F240.000
G1 X27.442 Y-7.661 Z-9.400 F240.000
G2 X27.457 Y-7.656 Z-9.400 I0.015 J-0.022 F240.000
G1 X27.457 Y-7.656 Z-9.600 F12.000
G2 X27.480 Y-7.698 Z-9.600 I-0.000 J-0.027 F240.000
G1 X27.480 Y-9.661 Z-9.600 F240.000
G1 X0.521 Y-9.661 Z-9.600 F240.000
G1 X0.521 Y-7.661 Z-9.600 F240.000
G1 X3.563 Y-7.661 Z-9.600 F240.000
G3 X8.387 Y-4.031 Z-9.600 I-0.025 J5.053 F240.000
G2 X8.995 Y-4.031 Z-9.600 I0.304 J-0.155 F240.000
G3 X13.659 Y-7.654 Z-9.600 I4.841 J1.419 F240.000
G1 X27.442 Y-7.661 Z-9.600 F240.000
G2 X27.457 Y-7.656 Z-9.600 I0.015 J-0.022 F240.000
G1 X27.457 Y-7.656 Z-9.800 F12.000
G2 X27.480 Y-7.698 Z-9.800 I-0.000 J-0.027 F240.000
G1 X27.480 Y-9.661 Z-9.800 F240.000
G1 X0.521 Y-9.661 Z-9.800 F240.000
G1 X0.521 Y-7.661 Z-9.800 F240.000
G1 X3.563 Y-7.661 Z-9.800 F240.000
G3 X8.387 Y-4.031 Z-9.800 I-0.025 J5.053 F240.000
G2 X8.995 Y-4.031 Z-9.800 I0.304 J-0.155 F240.000
G3 X13.659 Y-7.654 Z-9.800 I4.841 J1.419 F240.000
G1 X27.442 Y-7.661 Z-9.800 F240.000
G2 X27.457 Y-7.656 Z-9.800 I0.015 J-0.022 F240.000
G1 X27.457 Y-7.656 Z-10.000 F12.000
G2 X27.480 Y-7.698 Z-10.000 I-0.000 J-0.027 F240.000
G1 X27.480 Y-9.661 Z-10.000 F240.000
G1 X0.521 Y-9.661 Z-10.000 F240.000
G1 X0.521 Y-7.661 Z-10.000 F240.000
G1 X3.563 Y-7.661 Z-10.000 F240.000
G3 X8.387 Y-4.031 Z-10.000 I-0.025 J5.053 F240.000
G2 X8.995 Y-4.031 Z-10.000 I0.304 J-0.155 F240.000
G3 X13.659 Y-7.654 Z-10.000 I4.841 J1.419 F240.000
G1 X27.442 Y-7.661 Z-10.000 F240.000
G2 X27.457 Y-7.656 Z-10.000 I0.015 J-0.022 F240.000
G0 Z5.000
(finish operation: Profile_Edges007)
(begin operation: T9: 2.5mm Drill (M3 tap))
(machine: not set, mm/min)
(T9: 2.5mm Drill M3 tap)
M6 T9 G43 H9
M3 S800
(finish operation: T9: 2.5mm Drill (M3 tap))
(begin operation: Drilling)
(machine: not set, mm/min)
(Drilling)
(Begin Drilling)
G0 Z5.000
G90
G98
G83 X3.578 Y-8.611 Z-14.000 F60.000 Q0.100 R-5.000
G83 X8.691 Y-8.187 Z-14.000 F60.000 Q0.100 R-5.000
G83 X8.691 Y-4.187 Z-14.000 F60.000 Q0.100 R-5.000
G83 X3.578 Y-31.611 Z-14.000 F60.000 Q0.100 R-5.000
G83 X26.578 Y-31.611 Z-14.000 F60.000 Q0.100 R-5.000
G83 X106.667 Y-12.573 Z-14.000 F60.000 Q0.100 R-5.000
G83 X106.667 Y-5.573 Z-14.000 F60.000 Q0.100 R-5.000
G80
G0 Z5.000
(finish operation: Drilling)
(begin operation: T9: 2.5mm Drill (M3 tap))
(machine: not set, mm/min)
(T9: 2.5mm Drill M3 tap)
M6 T9 G43 H9
M3 S800
(finish operation: T9: 2.5mm Drill (M3 tap))
(begin operation: Drilling001)
(machine: not set, mm/min)
(Drilling001)
(Begin Drilling)
G0 Z5.000
G90
G98
G83 X34.667 Y-9.073 Z-8.000 F60.000 Q0.100 R5.000
G83 X69.667 Y-9.073 Z-8.000 F60.000 Q0.100 R5.000
G83 X100.667 Y-9.073 Z-8.000 F60.000 Q0.100 R5.000
G80
G0 Z5.000
(finish operation: Drilling001)
(begin operation: T3: 6mm Chamfer)
(machine: not set, mm/min)
(T3: 6mm Chamfer)
M6 T3 G43 H3
M3 S1200
(finish operation: T3: 6mm Chamfer)
(begin operation: Profile_Edges008)
(machine: not set, mm/min)
(Profile_Edges008)
(Compensated Tool Path. Diameter: 6.0)
G0 Z5.000
G0 X111.667 Y0.927
G0 Z3.000
G1 X111.667 Y0.927 Z-0.100 F6.000
G1 X111.667 Y-17.927 Z-0.100 F180.000
G1 X109.667 Y-17.927 Z-0.100 F180.000
G1 X109.667 Y0.927 Z-0.100 F180.000
G1 X111.667 Y0.927 Z-0.100 F180.000
G1 X111.667 Y0.927 Z-0.200 F6.000
G1 X111.667 Y-17.927 Z-0.200 F180.000
G1 X109.667 Y-17.927 Z-0.200 F180.000
G1 X109.667 Y0.927 Z-0.200 F180.000
G1 X111.667 Y0.927 Z-0.200 F180.000
G1 X111.667 Y0.927 Z-0.300 F6.000
G1 X111.667 Y-17.927 Z-0.300 F180.000
G1 X109.667 Y-17.927 Z-0.300 F180.000
G1 X109.667 Y0.927 Z-0.300 F180.000
G1 X111.667 Y0.927 Z-0.300 F180.000
G1 X111.667 Y0.927 Z-0.400 F6.000
G1 X111.667 Y-17.927 Z-0.400 F180.000
G1 X109.667 Y-17.927 Z-0.400 F180.000
G1 X109.667 Y0.927 Z-0.400 F180.000
G1 X111.667 Y0.927 Z-0.400 F180.000
G1 X111.667 Y0.927 Z-0.500 F6.000
G1 X111.667 Y-17.927 Z-0.500 F180.000
G1 X109.667 Y-17.927 Z-0.500 F180.000
G1 X109.667 Y0.927 Z-0.500 F180.000
G1 X111.667 Y0.927 Z-0.500 F180.000
G1 X111.667 Y0.927 Z-0.600 F6.000
G1 X111.667 Y-17.927 Z-0.600 F180.000
G1 X109.667 Y-17.927 Z-0.600 F180.000
G1 X109.667 Y0.927 Z-0.600 F180.000
G1 X111.667 Y0.927 Z-0.600 F180.000
G1 X111.667 Y0.927 Z-0.700 F6.000
