(Exported by FreeCAD)
(Post Processor: linuxcnc_post)
(Output Time:2019-04-24 08:14:48.421671)
(begin preamble)
G17 G54 G40 G49 G80 G90
G21
M8
(begin operation: T5: 6mm Endmill)
(machine: not set, mm/min)
(T5: 6mm Endmill)
M6 T5 G43 H5
M3 S3000
(finish operation: T5: 6mm Endmill)
(begin operation: Profile_Edges)
(machine: not set, mm/min)
(Profile_Edges)
(Compensated Tool Path. Diameter: 6.0)
G0 Z5.000
G0 X21.510 Y-7.040
G0 Z3.000
G1 X21.510 Y-7.040 Z-0.200 F18.000
G2 X20.716 Y-10.346 Z-0.200 I-1.410 J-1.410 F180.000
G2 X18.204 Y-9.066 Z-0.200 I-0.616 J1.896 F180.000
G2 X19.484 Y-6.554 Z-0.200 I1.896 J0.616 F180.000
G2 X21.510 Y-7.040 Z-0.200 I0.616 J-1.896 F180.000
G1 X21.510 Y-7.040 Z-0.400 F18.000
G2 X20.716 Y-10.346 Z-0.400 I-1.410 J-1.410 F180.000
G2 X18.204 Y-9.066 Z-0.400 I-0.616 J1.896 F180.000
G2 X19.484 Y-6.554 Z-0.400 I1.896 J0.616 F180.000
G2 X21.510 Y-7.040 Z-0.400 I0.616 J-1.896 F180.000
G1 X21.510 Y-7.040 Z-0.600 F18.000
G2 X20.716 Y-10.346 Z-0.600 I-1.410 J-1.410 F180.000
G2 X18.204 Y-9.066 Z-0.600 I-0.616 J1.896 F180.000
G2 X19.484 Y-6.554 Z-0.600 I1.896 J0.616 F180.000
G2 X21.510 Y-7.040 Z-0.600 I0.616 J-1.896 F180.000
G1 X21.510 Y-7.040 Z-0.800 F18.000
G2 X20.716 Y-10.346 Z-0.800 I-1.410 J-1.410 F180.000
G2 X18.204 Y-9.066 Z-0.800 I-0.616 J1.896 F180.000
G2 X19.484 Y-6.554 Z-0.800 I1.896 J0.616 F180.000
G2 X21.510 Y-7.040 Z-0.800 I0.616 J-1.896 F180.000
G1 X21.510 Y-7.040 Z-1.000 F18.000
G2 X20.716 Y-10.346 Z-1.000 I-1.410 J-1.410 F180.000
G2 X18.204 Y-9.066 Z-1.000 I-0.616 J1.896 F180.000
G2 X19.484 Y-6.554 Z-1.000 I1.896 J0.616 F180.000
G2 X21.510 Y-7.040 Z-1.000 I0.616 J-1.896 F180.000
G1 X21.510 Y-7.040 Z-1.200 F18.000
G2 X20.716 Y-10.346 Z-1.200 I-1.410 J-1.410 F180.000
G2 X18.204 Y-9.066 Z-1.200 I-0.616 J1.896 F180.000
G2 X19.484 Y-6.554 Z-1.200 I1.896 J0.616 F180.000
G2 X21.510 Y-7.040 Z-1.200 I0.616 J-1.896 F180.000
G1 X21.510 Y-7.040 Z-1.400 F18.000
G2 X20.716 Y-10.346 Z-1.400 I-1.410 J-1.410 F180.000
G2 X18.204 Y-9.066 Z-1.400 I-0.616 J1.896 F180.000
G2 X19.484 Y-6.554 Z-1.400 I1.896 J0.616 F180.000
G2 X21.510 Y-7.040 Z-1.400 I0.616 J-1.896 F180.000
G1 X21.510 Y-7.040 Z-1.600 F18.000
G2 X20.716 Y-10.346 Z-1.600 I-1.410 J-1.410 F180.000
G2 X18.204 Y-9.066 Z-1.600 I-0.616 J1.896 F180.000
G2 X19.484 Y-6.554 Z-1.600 I1.896 J0.616 F180.000
G2 X21.510 Y-7.040 Z-1.600 I0.616 J-1.896 F180.000
G1 X21.510 Y-7.040 Z-1.800 F18.000
G2 X20.716 Y-10.346 Z-1.800 I-1.410 J-1.410 F180.000
G2 X18.204 Y-9.066 Z-1.800 I-0.616 J1.896 F180.000
G2 X19.484 Y-6.554 Z-1.800 I1.896 J0.616 F180.000
G2 X21.510 Y-7.040 Z-1.800 I0.616 J-1.896 F180.000
G1 X21.510 Y-7.040 Z-2.000 F18.000
G2 X20.716 Y-10.346 Z-2.000 I-1.410 J-1.410 F180.000
G2 X18.204 Y-9.066 Z-2.000 I-0.616 J1.896 F180.000
G2 X19.484 Y-6.554 Z-2.000 I1.896 J0.616 F180.000
G2 X21.510 Y-7.040 Z-2.000 I0.616 J-1.896 F180.000
G1 X21.510 Y-7.040 Z-2.200 F18.000
G2 X20.716 Y-10.346 Z-2.200 I-1.410 J-1.410 F180.000
G2 X18.204 Y-9.066 Z-2.200 I-0.616 J1.896 F180.000
G2 X19.484 Y-6.554 Z-2.200 I1.896 J0.616 F180.000
G2 X21.510 Y-7.040 Z-2.200 I0.616 J-1.896 F180.000
G1 X21.510 Y-7.040 Z-2.400 F18.000
G2 X20.716 Y-10.346 Z-2.400 I-1.410 J-1.410 F180.000
G2 X18.204 Y-9.066 Z-2.400 I-0.616 J1.896 F180.000
G2 X19.484 Y-6.554 Z-2.400 I1.896 J0.616 F180.000
G2 X21.510 Y-7.040 Z-2.400 I0.616 J-1.896 F180.000
G1 X21.510 Y-7.040 Z-2.600 F18.000
G2 X20.716 Y-10.346 Z-2.600 I-1.410 J-1.410 F180.000
G2 X18.204 Y-9.066 Z-2.600 I-0.616 J1.896 F180.000
G2 X19.484 Y-6.554 Z-2.600 I1.896 J0.616 F180.000
G2 X21.510 Y-7.040 Z-2.600 I0.616 J-1.896 F180.000
G1 X21.510 Y-7.040 Z-2.800 F18.000
G2 X20.716 Y-10.346 Z-2.800 I-1.410 J-1.410 F180.000
G2 X18.204 Y-9.066 Z-2.800 I-0.616 J1.896 F180.000
G2 X19.484 Y-6.554 Z-2.800 I1.896 J0.616 F180.000
G2 X21.510 Y-7.040 Z-2.800 I0.616 J-1.896 F180.000
G1 X21.510 Y-7.040 Z-3.000 F18.000
G2 X20.716 Y-10.346 Z-3.000 I-1.410 J-1.410 F180.000
G2 X18.204 Y-9.066 Z-3.000 I-0.616 J1.896 F180.000
G2 X19.484 Y-6.554 Z-3.000 I1.896 J0.616 F180.000
G2 X21.510 Y-7.040 Z-3.000 I0.616 J-1.896 F180.000
G1 X21.510 Y-7.040 Z-3.200 F18.000
G2 X20.716 Y-10.346 Z-3.200 I-1.410 J-1.410 F180.000
G2 X18.204 Y-9.066 Z-3.200 I-0.616 J1.896 F180.000
G2 X19.484 Y-6.554 Z-3.200 I1.896 J0.616 F180.000
G2 X21.510 Y-7.040 Z-3.200 I0.616 J-1.896 F180.000
G1 X21.510 Y-7.040 Z-3.400 F18.000
G2 X20.716 Y-10.346 Z-3.400 I-1.410 J-1.410 F180.000
G2 X18.204 Y-9.066 Z-3.400 I-0.616 J1.896 F180.000
G2 X19.484 Y-6.554 Z-3.400 I1.896 J0.616 F180.000
G2 X21.510 Y-7.040 Z-3.400 I0.616 J-1.896 F180.000
G1 X21.510 Y-7.040 Z-3.600 F18.000
G2 X20.716 Y-10.346 Z-3.600 I-1.410 J-1.410 F180.000
G2 X18.204 Y-9.066 Z-3.600 I-0.616 J1.896 F180.000
G2 X19.484 Y-6.554 Z-3.600 I1.896 J0.616 F180.000
G2 X21.510 Y-7.040 Z-3.600 I0.616 J-1.896 F180.000
G1 X21.510 Y-7.040 Z-3.800 F18.000
G2 X20.716 Y-10.346 Z-3.800 I-1.410 J-1.410 F180.000
G2 X18.204 Y-9.066 Z-3.800 I-0.616 J1.896 F180.000
G2 X19.484 Y-6.554 Z-3.800 I1.896 J0.616 F180.000
G2 X21.510 Y-7.040 Z-3.800 I0.616 J-1.896 F180.000
G1 X21.510 Y-7.040 Z-4.000 F18.000
G2 X20.716 Y-10.346 Z-4.000 I-1.410 J-1.410 F180.000
G2 X18.204 Y-9.066 Z-4.000 I-0.616 J1.896 F180.000
G2 X19.484 Y-6.554 Z-4.000 I1.896 J0.616 F180.000
G2 X21.510 Y-7.040 Z-4.000 I0.616 J-1.896 F180.000
G1 X21.510 Y-7.040 Z-4.200 F18.000
G2 X20.716 Y-10.346 Z-4.200 I-1.410 J-1.410 F180.000
G2 X18.204 Y-9.066 Z-4.200 I-0.616 J1.896 F180.000
G2 X19.484 Y-6.554 Z-4.200 I1.896 J0.616 F180.000
G2 X21.510 Y-7.040 Z-4.200 I0.616 J-1.896 F180.000
G1 X21.510 Y-7.040 Z-4.400 F18.000
G2 X20.716 Y-10.346 Z-4.400 I-1.410 J-1.410 F180.000
G2 X18.204 Y-9.066 Z-4.400 I-0.616 J1.896 F180.000
G2 X19.484 Y-6.554 Z-4.400 I1.896 J0.616 F180.000
G2 X21.510 Y-7.040 Z-4.400 I0.616 J-1.896 F180.000
G1 X21.510 Y-7.040 Z-4.600 F18.000
G2 X20.716 Y-10.346 Z-4.600 I-1.410 J-1.410 F180.000
G2 X18.204 Y-9.066 Z-4.600 I-0.616 J1.896 F180.000
G2 X19.484 Y-6.554 Z-4.600 I1.896 J0.616 F180.000
G2 X21.510 Y-7.040 Z-4.600 I0.616 J-1.896 F180.000
G1 X21.510 Y-7.040 Z-4.800 F18.000
G2 X20.716 Y-10.346 Z-4.800 I-1.410 J-1.410 F180.000
G2 X18.204 Y-9.066 Z-4.800 I-0.616 J1.896 F180.000
G2 X19.484 Y-6.554 Z-4.800 I1.896 J0.616 F180.000
G2 X21.510 Y-7.040 Z-4.800 I0.616 J-1.896 F180.000
G1 X21.510 Y-7.040 Z-5.000 F18.000
G2 X20.716 Y-10.346 Z-5.000 I-1.410 J-1.410 F180.000
G2 X18.204 Y-9.066 Z-5.000 I-0.616 J1.896 F180.000
G2 X19.484 Y-6.554 Z-5.000 I1.896 J0.616 F180.000
G2 X21.510 Y-7.040 Z-5.000 I0.616 J-1.896 F180.000
G0 Z5.000
(finish operation: Profile_Edges)
(begin postamble)
M05
G17 G54 G90 G80 G40
M2
