(Exported by FreeCAD)
(Post Processor: linuxcnc_post)
(Output Time:2019-04-25 13:05:42.642897)
(begin preamble)
G17 G54 G40 G49 G80 G90
G21
M8
(begin operation: T4: 12mm Endmill)
(machine: not set, mm/min)
(T4: 12mm Endmill)
M6 T4 G43 H4
M3 S3000
(finish operation: T4: 12mm Endmill)
(begin operation: Profile_Edges)
(machine: not set, mm/min)
(Profile_Edges)
(Compensated Tool Path. Diameter: 12.0)
G0 Z5.000
G0 X31.469 Y2.369
G0 Z3.000
G1 X31.469 Y2.369 Z-0.500 F30.000
G2 X34.097 Y-3.962 Z-0.500 I-6.346 J-6.346 F720.000
G1 X34.097 Y-14.898 Z-0.500 F720.000
G2 X25.138 Y-23.857 Z-0.500 I-8.974 J0.015 F720.000
G1 X1.000 Y-23.857 Z-0.500 F720.000
G2 X-5.000 Y-17.857 Z-0.500 I0.000 J6.000 F720.000
G1 X-5.000 Y-1.003 Z-0.500 F720.000
G2 X1.000 Y4.997 Z-0.500 I6.000 J-0.000 F720.000
G1 X25.138 Y4.997 Z-0.500 F720.000
G2 X31.469 Y2.369 Z-0.500 I-0.015 J-8.974 F720.000
G1 X31.469 Y2.369 Z-1.000 F30.000
G2 X34.097 Y-3.962 Z-1.000 I-6.346 J-6.346 F720.000
G1 X34.097 Y-14.898 Z-1.000 F720.000
G2 X25.138 Y-23.857 Z-1.000 I-8.974 J0.015 F720.000
G1 X1.000 Y-23.857 Z-1.000 F720.000
G2 X-5.000 Y-17.857 Z-1.000 I0.000 J6.000 F720.000
G1 X-5.000 Y-1.003 Z-1.000 F720.000
G2 X1.000 Y4.997 Z-1.000 I6.000 J-0.000 F720.000
G1 X25.138 Y4.997 Z-1.000 F720.000
G2 X31.469 Y2.369 Z-1.000 I-0.015 J-8.974 F720.000
G1 X31.469 Y2.369 Z-1.500 F30.000
G2 X34.097 Y-3.962 Z-1.500 I-6.346 J-6.346 F720.000
G1 X34.097 Y-14.898 Z-1.500 F720.000
G2 X25.138 Y-23.857 Z-1.500 I-8.974 J0.015 F720.000
G1 X1.000 Y-23.857 Z-1.500 F720.000
G2 X-5.000 Y-17.857 Z-1.500 I0.000 J6.000 F720.000
G1 X-5.000 Y-1.003 Z-1.500 F720.000
G2 X1.000 Y4.997 Z-1.500 I6.000 J-0.000 F720.000
G1 X25.138 Y4.997 Z-1.500 F720.000
G2 X31.469 Y2.369 Z-1.500 I-0.015 J-8.974 F720.000
G1 X31.469 Y2.369 Z-2.000 F30.000
G2 X34.097 Y-3.962 Z-2.000 I-6.346 J-6.346 F720.000
G1 X34.097 Y-14.898 Z-2.000 F720.000
G2 X25.138 Y-23.857 Z-2.000 I-8.974 J0.015 F720.000
G1 X1.000 Y-23.857 Z-2.000 F720.000
G2 X-5.000 Y-17.857 Z-2.000 I0.000 J6.000 F720.000
G1 X-5.000 Y-1.003 Z-2.000 F720.000
G2 X1.000 Y4.997 Z-2.000 I6.000 J-0.000 F720.000
G1 X25.138 Y4.997 Z-2.000 F720.000
G2 X31.469 Y2.369 Z-2.000 I-0.015 J-8.974 F720.000
G1 X31.469 Y2.369 Z-2.500 F30.000
G2 X34.097 Y-3.962 Z-2.500 I-6.346 J-6.346 F720.000
G1 X34.097 Y-14.898 Z-2.500 F720.000
G2 X25.138 Y-23.857 Z-2.500 I-8.974 J0.015 F720.000
G1 X1.000 Y-23.857 Z-2.500 F720.000
G2 X-5.000 Y-17.857 Z-2.500 I0.000 J6.000 F720.000
G1 X-5.000 Y-1.003 Z-2.500 F720.000
G2 X1.000 Y4.997 Z-2.500 I6.000 J-0.000 F720.000
G1 X25.138 Y4.997 Z-2.500 F720.000
G2 X31.469 Y2.369 Z-2.500 I-0.015 J-8.974 F720.000
G1 X31.469 Y2.369 Z-3.000 F30.000
G2 X34.097 Y-3.962 Z-3.000 I-6.346 J-6.346 F720.000
G1 X34.097 Y-14.898 Z-3.000 F720.000
G2 X25.138 Y-23.857 Z-3.000 I-8.974 J0.015 F720.000
G1 X1.000 Y-23.857 Z-3.000 F720.000
G2 X-5.000 Y-17.857 Z-3.000 I0.000 J6.000 F720.000
G1 X-5.000 Y-1.003 Z-3.000 F720.000
G2 X1.000 Y4.997 Z-3.000 I6.000 J-0.000 F720.000
G1 X25.138 Y4.997 Z-3.000 F720.000
G2 X31.469 Y2.369 Z-3.000 I-0.015 J-8.974 F720.000
G1 X31.469 Y2.369 Z-3.500 F30.000
G2 X34.097 Y-3.962 Z-3.500 I-6.346 J-6.346 F720.000
G1 X34.097 Y-14.898 Z-3.500 F720.000
G2 X25.138 Y-23.857 Z-3.500 I-8.974 J0.015 F720.000
G1 X1.000 Y-23.857 Z-3.500 F720.000
G2 X-5.000 Y-17.857 Z-3.500 I0.000 J6.000 F720.000
G1 X-5.000 Y-1.003 Z-3.500 F720.000
G2 X1.000 Y4.997 Z-3.500 I6.000 J-0.000 F720.000
G1 X25.138 Y4.997 Z-3.500 F720.000
G2 X31.469 Y2.369 Z-3.500 I-0.015 J-8.974 F720.000
G1 X31.469 Y2.369 Z-4.000 F30.000
G2 X34.097 Y-3.962 Z-4.000 I-6.346 J-6.346 F720.000
G1 X34.097 Y-14.898 Z-4.000 F720.000
G2 X25.138 Y-23.857 Z-4.000 I-8.974 J0.015 F720.000
G1 X1.000 Y-23.857 Z-4.000 F720.000
G2 X-5.000 Y-17.857 Z-4.000 I0.000 J6.000 F720.000
G1 X-5.000 Y-1.003 Z-4.000 F720.000
G2 X1.000 Y4.997 Z-4.000 I6.000 J-0.000 F720.000
G1 X25.138 Y4.997 Z-4.000 F720.000
G2 X31.469 Y2.369 Z-4.000 I-0.015 J-8.974 F720.000
G1 X31.469 Y2.369 Z-4.500 F30.000
G2 X34.097 Y-3.962 Z-4.500 I-6.346 J-6.346 F720.000
G1 X34.097 Y-14.898 Z-4.500 F720.000
G2 X25.138 Y-23.857 Z-4.500 I-8.974 J0.015 F720.000
G1 X1.000 Y-23.857 Z-4.500 F720.000
G2 X-5.000 Y-17.857 Z-4.500 I0.000 J6.000 F720.000
G1 X-5.000 Y-1.003 Z-4.500 F720.000
G2 X1.000 Y4.997 Z-4.500 I6.000 J-0.000 F720.000
G1 X25.138 Y4.997 Z-4.500 F720.000
G2 X31.469 Y2.369 Z-4.500 I-0.015 J-8.974 F720.000
G1 X31.469 Y2.369 Z-5.000 F30.000
G2 X34.097 Y-3.962 Z-5.000 I-6.346 J-6.346 F720.000
G1 X34.097 Y-14.898 Z-5.000 F720.000
G2 X25.138 Y-23.857 Z-5.000 I-8.974 J0.015 F720.000
G1 X1.000 Y-23.857 Z-5.000 F720.000
G2 X-5.000 Y-17.857 Z-5.000 I0.000 J6.000 F720.000
G1 X-5.000 Y-1.003 Z-5.000 F720.000
G2 X1.000 Y4.997 Z-5.000 I6.000 J-0.000 F720.000
G1 X25.138 Y4.997 Z-5.000 F720.000
G2 X31.469 Y2.369 Z-5.000 I-0.015 J-8.974 F720.000
G1 X31.469 Y2.369 Z-5.500 F30.000
G2 X34.097 Y-3.962 Z-5.500 I-6.346 J-6.346 F720.000
G1 X34.097 Y-14.898 Z-5.500 F720.000
G2 X25.138 Y-23.857 Z-5.500 I-8.974 J0.015 F720.000
G1 X1.000 Y-23.857 Z-5.500 F720.000
G2 X-5.000 Y-17.857 Z-5.500 I0.000 J6.000 F720.000
G1 X-5.000 Y-1.003 Z-5.500 F720.000
G2 X1.000 Y4.997 Z-5.500 I6.000 J-0.000 F720.000
G1 X25.138 Y4.997 Z-5.500 F720.000
G2 X31.469 Y2.369 Z-5.500 I-0.015 J-8.974 F720.000
G0 Z5.000
(finish operation: Profile_Edges)
(begin operation: T6: 4mm Endmill)
(machine: not set, mm/min)
(T6: 4mm Endmill)
M6 T6 G43 H6
M3 S3000
(finish operation: T6: 4mm Endmill)
(begin operation: Profile_Edges001)
(machine: not set, mm/min)
(Profile_Edges001)
(Compensated Tool Path. Diameter: 4.0)
G0 Z5.000
G0 X7.218 Y-8.692
G0 Z3.000
G1 X7.218 Y-8.692 Z-0.200 F12.000
G2 X6.803 Y-10.423 Z-0.200 I-0.738 J-0.738 F180.000
G2 X6.157 Y-8.437 Z-0.200 I-0.323 J0.993 F180.000
G2 X7.218 Y-8.692 Z-0.200 I0.323 J-0.993 F180.000
G1 X7.218 Y-8.692 Z-0.400 F12.000
G2 X6.803 Y-10.423 Z-0.400 I-0.738 J-0.738 F180.000
G2 X6.157 Y-8.437 Z-0.400 I-0.323 J0.993 F180.000
G2 X7.218 Y-8.692 Z-0.400 I0.323 J-0.993 F180.000
G1 X7.218 Y-8.692 Z-0.600 F12.000
G2 X6.803 Y-10.423 Z-0.600 I-0.738 J-0.738 F180.000
G2 X6.157 Y-8.437 Z-0.600 I-0.323 J0.993 F180.000
G2 X7.218 Y-8.692 Z-0.600 I0.323 J-0.993 F180.000
G1 X7.218 Y-8.692 Z-0.800 F12.000
G2 X6.803 Y-10.423 Z-0.800 I-0.738 J-0.738 F180.000
G2 X6.157 Y-8.437 Z-0.800 I-0.323 J0.993 F180.000
G2 X7.218 Y-8.692 Z-0.800 I0.323 J-0.993 F180.000
G1 X7.218 Y-8.692 Z-1.000 F12.000
G2 X6.803 Y-10.423 Z-1.000 I-0.738 J-0.738 F180.000
G2 X6.157 Y-8.437 Z-1.000 I-0.323 J0.993 F180.000
G2 X7.218 Y-8.692 Z-1.000 I0.323 J-0.993 F180.000
G1 X7.218 Y-8.692 Z-1.200 F12.000
G2 X6.803 Y-10.423 Z-1.200 I-0.738 J-0.738 F180.000
G2 X6.157 Y-8.437 Z-1.200 I-0.323 J0.993 F180.000
G2 X7.218 Y-8.692 Z-1.200 I0.323 J-0.993 F180.000
G1 X7.218 Y-8.692 Z-1.400 F12.000
G2 X6.803 Y-10.423 Z-1.400 I-0.738 J-0.738 F180.000
G2 X6.157 Y-8.437 Z-1.400 I-0.323 J0.993 F180.000
G2 X7.218 Y-8.692 Z-1.400 I0.323 J-0.993 F180.000
G1 X7.218 Y-8.692 Z-1.600 F12.000
G2 X6.803 Y-10.423 Z-1.600 I-0.738 J-0.738 F180.000
G2 X6.157 Y-8.437 Z-1.600 I-0.323 J0.993 F180.000
G2 X7.218 Y-8.692 Z-1.600 I0.323 J-0.993 F180.000
G1 X7.218 Y-8.692 Z-1.800 F12.000
G2 X6.803 Y-10.423 Z-1.800 I-0.738 J-0.738 F180.000
G2 X6.157 Y-8.437 Z-1.800 I-0.323 J0.993 F180.000
G2 X7.218 Y-8.692 Z-1.800 I0.323 J-0.993 F180.000
G1 X7.218 Y-8.692 Z-2.000 F12.000
G2 X6.803 Y-10.423 Z-2.000 I-0.738 J-0.738 F180.000
G2 X6.157 Y-8.437 Z-2.000 I-0.323 J0.993 F180.000
G2 X7.218 Y-8.692 Z-2.000 I0.323 J-0.993 F180.000
G0 Z5.000
(finish operation: Profile_Edges001)
(begin operation: T5: 6mm Endmill)
(machine: not set, mm/min)
(T5: 6mm Endmill)
M6 T5 G43 H5
M3 S3000
(finish operation: T5: 6mm Endmill)
(begin operation: Profile_Edges002)
(machine: not set, mm/min)
(Profile_Edges002)
(Compensated Tool Path. Diameter: 6.0)
G0 Z5.000
G0 X22.490 Y-8.020
G0 Z3.000
G1 X22.490 Y-8.020 Z-0.250 F15.000
G2 X21.696 Y-11.326 Z-0.250 I-1.410 J-1.410 F240.000
G2 X19.184 Y-10.046 Z-0.250 I-0.616 J1.896 F240.000
G2 X20.464 Y-7.534 Z-0.250 I1.896 J0.616 F240.000
G2 X22.490 Y-8.020 Z-0.250 I0.616 J-1.896 F240.000
G1 X22.490 Y-8.020 Z-0.500 F15.000
G2 X21.696 Y-11.326 Z-0.500 I-1.410 J-1.410 F240.000
G2 X19.184 Y-10.046 Z-0.500 I-0.616 J1.896 F240.000
G2 X20.464 Y-7.534 Z-0.500 I1.896 J0.616 F240.000
G2 X22.490 Y-8.020 Z-0.500 I0.616 J-1.896 F240.000
G1 X22.490 Y-8.020 Z-0.750 F15.000
G2 X21.696 Y-11.326 Z-0.750 I-1.410 J-1.410 F240.000
G2 X19.184 Y-10.046 Z-0.750 I-0.616 J1.896 F240.000
G2 X20.464 Y-7.534 Z-0.750 I1.896 J0.616 F240.000
G2 X22.490 Y-8.020 Z-0.750 I0.616 J-1.896 F240.000
G1 X22.490 Y-8.020 Z-1.000 F15.000
G2 X21.696 Y-11.326 Z-1.000 I-1.410 J-1.410 F240.000
G2 X19.184 Y-10.046 Z-1.000 I-0.616 J1.896 F240.000
G2 X20.464 Y-7.534 Z-1.000 I1.896 J0.616 F240.000
G2 X22.490 Y-8.020 Z-1.000 I0.616 J-1.896 F240.000
G1 X22.490 Y-8.020 Z-1.250 F15.000
G2 X21.696 Y-11.326 Z-1.250 I-1.410 J-1.410 F240.000
G2 X19.184 Y-10.046 Z-1.250 I-0.616 J1.896 F240.000
G2 X20.464 Y-7.534 Z-1.250 I1.896 J0.616 F240.000
G2 X22.490 Y-8.020 Z-1.250 I0.616 J-1.896 F240.000
G1 X22.490 Y-8.020 Z-1.500 F15.000
G2 X21.696 Y-11.326 Z-1.500 I-1.410 J-1.410 F240.000
G2 X19.184 Y-10.046 Z-1.500 I-0.616 J1.896 F240.000
G2 X20.464 Y-7.534 Z-1.500 I1.896 J0.616 F240.000
G2 X22.490 Y-8.020 Z-1.500 I0.616 J-1.896 F240.000
G1 X22.490 Y-8.020 Z-1.750 F15.000
G2 X21.696 Y-11.326 Z-1.750 I-1.410 J-1.410 F240.000
G2 X19.184 Y-10.046 Z-1.750 I-0.616 J1.896 F240.000
G2 X20.464 Y-7.534 Z-1.750 I1.896 J0.616 F240.000
G2 X22.490 Y-8.020 Z-1.750 I0.616 J-1.896 F240.000
G1 X22.490 Y-8.020 Z-2.000 F15.000
G2 X21.696 Y-11.326 Z-2.000 I-1.410 J-1.410 F240.000
G2 X19.184 Y-10.046 Z-2.000 I-0.616 J1.896 F240.000
G2 X20.464 Y-7.534 Z-2.000 I1.896 J0.616 F240.000
G2 X22.490 Y-8.020 Z-2.000 I0.616 J-1.896 F240.000
G1 X22.490 Y-8.020 Z-2.250 F15.000
G2 X21.696 Y-11.326 Z-2.250 I-1.410 J-1.410 F240.000
G2 X19.184 Y-10.046 Z-2.250 I-0.616 J1.896 F240.000
G2 X20.464 Y-7.534 Z-2.250 I1.896 J0.616 F240.000
G2 X22.490 Y-8.020 Z-2.250 I0.616 J-1.896 F240.000
G1 X22.490 Y-8.020 Z-2.500 F15.000
G2 X21.696 Y-11.326 Z-2.500 I-1.410 J-1.410 F240.000
G2 X19.184 Y-10.046 Z-2.500 I-0.616 J1.896 F240.000
G2 X20.464 Y-7.534 Z-2.500 I1.896 J0.616 F240.000
G2 X22.490 Y-8.020 Z-2.500 I0.616 J-1.896 F240.000
G1 X22.490 Y-8.020 Z-2.750 F15.000
G2 X21.696 Y-11.326 Z-2.750 I-1.410 J-1.410 F240.000
G2 X19.184 Y-10.046 Z-2.750 I-0.616 J1.896 F240.000
G2 X20.464 Y-7.534 Z-2.750 I1.896 J0.616 F240.000
G2 X22.490 Y-8.020 Z-2.750 I0.616 J-1.896 F240.000
G1 X22.490 Y-8.020 Z-3.000 F15.000
G2 X21.696 Y-11.326 Z-3.000 I-1.410 J-1.410 F240.000
G2 X19.184 Y-10.046 Z-3.000 I-0.616 J1.896 F240.000
G2 X20.464 Y-7.534 Z-3.000 I1.896 J0.616 F240.000
G2 X22.490 Y-8.020 Z-3.000 I0.616 J-1.896 F240.000
G1 X22.490 Y-8.020 Z-3.250 F15.000
G2 X21.696 Y-11.326 Z-3.250 I-1.410 J-1.410 F240.000
G2 X19.184 Y-10.046 Z-3.250 I-0.616 J1.896 F240.000
G2 X20.464 Y-7.534 Z-3.250 I1.896 J0.616 F240.000
G2 X22.490 Y-8.020 Z-3.250 I0.616 J-1.896 F240.000
G1 X22.490 Y-8.020 Z-3.500 F15.000
G2 X21.696 Y-11.326 Z-3.500 I-1.410 J-1.410 F240.000
G2 X19.184 Y-10.046 Z-3.500 I-0.616 J1.896 F240.000
G2 X20.464 Y-7.534 Z-3.500 I1.896 J0.616 F240.000
G2 X22.490 Y-8.020 Z-3.500 I0.616 J-1.896 F240.000
G1 X22.490 Y-8.020 Z-3.750 F15.000
G2 X21.696 Y-11.326 Z-3.750 I-1.410 J-1.410 F240.000
G2 X19.184 Y-10.046 Z-3.750 I-0.616 J1.896 F240.000
G2 X20.464 Y-7.534 Z-3.750 I1.896 J0.616 F240.000
G2 X22.490 Y-8.020 Z-3.750 I0.616 J-1.896 F240.000
G1 X22.490 Y-8.020 Z-4.000 F15.000
G2 X21.696 Y-11.326 Z-4.000 I-1.410 J-1.410 F240.000
G2 X19.184 Y-10.046 Z-4.000 I-0.616 J1.896 F240.000
G2 X20.464 Y-7.534 Z-4.000 I1.896 J0.616 F240.000
G2 X22.490 Y-8.020 Z-4.000 I0.616 J-1.896 F240.000
G1 X22.490 Y-8.020 Z-4.250 F15.000
G2 X21.696 Y-11.326 Z-4.250 I-1.410 J-1.410 F240.000
G2 X19.184 Y-10.046 Z-4.250 I-0.616 J1.896 F240.000
G2 X20.464 Y-7.534 Z-4.250 I1.896 J0.616 F240.000
G2 X22.490 Y-8.020 Z-4.250 I0.616 J-1.896 F240.000
G1 X22.490 Y-8.020 Z-4.500 F15.000
G2 X21.696 Y-11.326 Z-4.500 I-1.410 J-1.410 F240.000
G2 X19.184 Y-10.046 Z-4.500 I-0.616 J1.896 F240.000
G2 X20.464 Y-7.534 Z-4.500 I1.896 J0.616 F240.000
G2 X22.490 Y-8.020 Z-4.500 I0.616 J-1.896 F240.000
G1 X22.490 Y-8.020 Z-4.750 F15.000
G2 X21.696 Y-11.326 Z-4.750 I-1.410 J-1.410 F240.000
G2 X19.184 Y-10.046 Z-4.750 I-0.616 J1.896 F240.000
G2 X20.464 Y-7.534 Z-4.750 I1.896 J0.616 F240.000
G2 X22.490 Y-8.020 Z-4.750 I0.616 J-1.896 F240.000
G1 X22.490 Y-8.020 Z-5.000 F15.000
G2 X21.696 Y-11.326 Z-5.000 I-1.410 J-1.410 F240.000
G2 X19.184 Y-10.046 Z-5.000 I-0.616 J1.896 F240.000
G2 X20.464 Y-7.534 Z-5.000 I1.896 J0.616 F240.000
G2 X22.490 Y-8.020 Z-5.000 I0.616 J-1.896 F240.000
G0 Z5.000
(finish operation: Profile_Edges002)
(begin postamble)
M05
G17 G54 G90 G80 G40
M2
