(Exported by FreeCAD)
(Post Processor: linuxcnc_post)
(Output Time:2019-04-25 07:27:41.965866)
(begin preamble)
G17 G54 G40 G49 G80 G90
G21
M8
(begin operation: T4: 12mm Endmill)
(machine: not set, mm/min)
(T4: 12mm Endmill)
M6 T4 G43 H4
M3 S3000
(finish operation: T4: 12mm Endmill)
(begin operation: Profile_Edges)
(machine: not set, mm/min)
(Profile_Edges)
(Compensated Tool Path. Diameter: 12.0)
G0 Z5.000
G0 X31.689 Y2.799
G0 Z3.000
G1 X31.689 Y2.799 Z-0.500 F30.000
G2 X34.317 Y-3.532 Z-0.500 I-6.346 J-6.346 F720.000
G1 X34.317 Y-14.468 Z-0.500 F720.000
G2 X25.358 Y-23.427 Z-0.500 I-8.974 J0.015 F720.000
G1 X1.220 Y-23.427 Z-0.500 F720.000
G2 X-4.780 Y-17.427 Z-0.500 I0.000 J6.000 F720.000
G1 X-4.780 Y-0.573 Z-0.500 F720.000
G2 X1.220 Y5.427 Z-0.500 I6.000 J0.000 F720.000
G1 X25.358 Y5.427 Z-0.500 F720.000
G2 X31.689 Y2.799 Z-0.500 I-0.015 J-8.974 F720.000
G1 X31.689 Y2.799 Z-1.000 F30.000
G2 X34.317 Y-3.532 Z-1.000 I-6.346 J-6.346 F720.000
G1 X34.317 Y-14.468 Z-1.000 F720.000
G2 X25.358 Y-23.427 Z-1.000 I-8.974 J0.015 F720.000
G1 X1.220 Y-23.427 Z-1.000 F720.000
G2 X-4.780 Y-17.427 Z-1.000 I0.000 J6.000 F720.000
G1 X-4.780 Y-0.573 Z-1.000 F720.000
G2 X1.220 Y5.427 Z-1.000 I6.000 J0.000 F720.000
G1 X25.358 Y5.427 Z-1.000 F720.000
G2 X31.689 Y2.799 Z-1.000 I-0.015 J-8.974 F720.000
G1 X31.689 Y2.799 Z-1.500 F30.000
G2 X34.317 Y-3.532 Z-1.500 I-6.346 J-6.346 F720.000
G1 X34.317 Y-14.468 Z-1.500 F720.000
G2 X25.358 Y-23.427 Z-1.500 I-8.974 J0.015 F720.000
G1 X1.220 Y-23.427 Z-1.500 F720.000
G2 X-4.780 Y-17.427 Z-1.500 I0.000 J6.000 F720.000
G1 X-4.780 Y-0.573 Z-1.500 F720.000
G2 X1.220 Y5.427 Z-1.500 I6.000 J0.000 F720.000
G1 X25.358 Y5.427 Z-1.500 F720.000
G2 X31.689 Y2.799 Z-1.500 I-0.015 J-8.974 F720.000
G1 X31.689 Y2.799 Z-2.000 F30.000
G2 X34.317 Y-3.532 Z-2.000 I-6.346 J-6.346 F720.000
G1 X34.317 Y-14.468 Z-2.000 F720.000
G2 X25.358 Y-23.427 Z-2.000 I-8.974 J0.015 F720.000
G1 X1.220 Y-23.427 Z-2.000 F720.000
G2 X-4.780 Y-17.427 Z-2.000 I0.000 J6.000 F720.000
G1 X-4.780 Y-0.573 Z-2.000 F720.000
G2 X1.220 Y5.427 Z-2.000 I6.000 J0.000 F720.000
G1 X25.358 Y5.427 Z-2.000 F720.000
G2 X31.689 Y2.799 Z-2.000 I-0.015 J-8.974 F720.000
G1 X31.689 Y2.799 Z-2.500 F30.000
G2 X34.317 Y-3.532 Z-2.500 I-6.346 J-6.346 F720.000
G1 X34.317 Y-14.468 Z-2.500 F720.000
G2 X25.358 Y-23.427 Z-2.500 I-8.974 J0.015 F720.000
G1 X1.220 Y-23.427 Z-2.500 F720.000
G2 X-4.780 Y-17.427 Z-2.500 I0.000 J6.000 F720.000
G1 X-4.780 Y-0.573 Z-2.500 F720.000
G2 X1.220 Y5.427 Z-2.500 I6.000 J0.000 F720.000
G1 X25.358 Y5.427 Z-2.500 F720.000
G2 X31.689 Y2.799 Z-2.500 I-0.015 J-8.974 F720.000
G1 X31.689 Y2.799 Z-3.000 F30.000
G2 X34.317 Y-3.532 Z-3.000 I-6.346 J-6.346 F720.000
G1 X34.317 Y-14.468 Z-3.000 F720.000
G2 X25.358 Y-23.427 Z-3.000 I-8.974 J0.015 F720.000
G1 X1.220 Y-23.427 Z-3.000 F720.000
G2 X-4.780 Y-17.427 Z-3.000 I0.000 J6.000 F720.000
G1 X-4.780 Y-0.573 Z-3.000 F720.000
G2 X1.220 Y5.427 Z-3.000 I6.000 J0.000 F720.000
G1 X25.358 Y5.427 Z-3.000 F720.000
G2 X31.689 Y2.799 Z-3.000 I-0.015 J-8.974 F720.000
G1 X31.689 Y2.799 Z-3.500 F30.000
G2 X34.317 Y-3.532 Z-3.500 I-6.346 J-6.346 F720.000
G1 X34.317 Y-14.468 Z-3.500 F720.000
G2 X25.358 Y-23.427 Z-3.500 I-8.974 J0.015 F720.000
G1 X1.220 Y-23.427 Z-3.500 F720.000
G2 X-4.780 Y-17.427 Z-3.500 I0.000 J6.000 F720.000
G1 X-4.780 Y-0.573 Z-3.500 F720.000
G2 X1.220 Y5.427 Z-3.500 I6.000 J0.000 F720.000
G1 X25.358 Y5.427 Z-3.500 F720.000
G2 X31.689 Y2.799 Z-3.500 I-0.015 J-8.974 F720.000
G1 X31.689 Y2.799 Z-4.000 F30.000
G2 X34.317 Y-3.532 Z-4.000 I-6.346 J-6.346 F720.000
G1 X34.317 Y-14.468 Z-4.000 F720.000
G2 X25.358 Y-23.427 Z-4.000 I-8.974 J0.015 F720.000
G1 X1.220 Y-23.427 Z-4.000 F720.000
G2 X-4.780 Y-17.427 Z-4.000 I0.000 J6.000 F720.000
G1 X-4.780 Y-0.573 Z-4.000 F720.000
G2 X1.220 Y5.427 Z-4.000 I6.000 J0.000 F720.000
G1 X25.358 Y5.427 Z-4.000 F720.000
G2 X31.689 Y2.799 Z-4.000 I-0.015 J-8.974 F720.000
G1 X31.689 Y2.799 Z-4.500 F30.000
G2 X34.317 Y-3.532 Z-4.500 I-6.346 J-6.346 F720.000
G1 X34.317 Y-14.468 Z-4.500 F720.000
G2 X25.358 Y-23.427 Z-4.500 I-8.974 J0.015 F720.000
G1 X1.220 Y-23.427 Z-4.500 F720.000
G2 X-4.780 Y-17.427 Z-4.500 I0.000 J6.000 F720.000
G1 X-4.780 Y-0.573 Z-4.500 F720.000
G2 X1.220 Y5.427 Z-4.500 I6.000 J0.000 F720.000
G1 X25.358 Y5.427 Z-4.500 F720.000
G2 X31.689 Y2.799 Z-4.500 I-0.015 J-8.974 F720.000
G1 X31.689 Y2.799 Z-5.000 F30.000
G2 X34.317 Y-3.532 Z-5.000 I-6.346 J-6.346 F720.000
G1 X34.317 Y-14.468 Z-5.000 F720.000
G2 X25.358 Y-23.427 Z-5.000 I-8.974 J0.015 F720.000
G1 X1.220 Y-23.427 Z-5.000 F720.000
G2 X-4.780 Y-17.427 Z-5.000 I0.000 J6.000 F720.000
G1 X-4.780 Y-0.573 Z-5.000 F720.000
G2 X1.220 Y5.427 Z-5.000 I6.000 J0.000 F720.000
G1 X25.358 Y5.427 Z-5.000 F720.000
G2 X31.689 Y2.799 Z-5.000 I-0.015 J-8.974 F720.000
G0 Z5.000
(finish operation: Profile_Edges)
(begin operation: T6: 4mm Endmill)
(machine: not set, mm/min)
(T6: 4mm Endmill)
M6 T6 G43 H6
M3 S3000
(finish operation: T6: 4mm Endmill)
(begin operation: Profile_Edges001)
(machine: not set, mm/min)
(Profile_Edges001)
(Compensated Tool Path. Diameter: 4.0)
G0 Z5.000
G0 X22.002 Y-8.298
G0 Z3.000
G1 X22.002 Y-8.298 Z-0.250 F12.000
G2 X21.547 Y-9.961 Z-0.250 I-0.702 J-0.702 F240.000
G2 X21.053 Y-8.039 Z-0.250 I-0.247 J0.961 F240.000
G2 X22.002 Y-8.298 Z-0.250 I0.247 J-0.961 F240.000
G1 X22.002 Y-8.298 Z-0.500 F12.000
G2 X21.547 Y-9.961 Z-0.500 I-0.702 J-0.702 F240.000
G2 X21.053 Y-8.039 Z-0.500 I-0.247 J0.961 F240.000
G2 X22.002 Y-8.298 Z-0.500 I0.247 J-0.961 F240.000
G1 X22.002 Y-8.298 Z-0.750 F12.000
G2 X21.547 Y-9.961 Z-0.750 I-0.702 J-0.702 F240.000
G2 X21.053 Y-8.039 Z-0.750 I-0.247 J0.961 F240.000
G2 X22.002 Y-8.298 Z-0.750 I0.247 J-0.961 F240.000
G1 X22.002 Y-8.298 Z-1.000 F12.000
G2 X21.547 Y-9.961 Z-1.000 I-0.702 J-0.702 F240.000
G2 X21.053 Y-8.039 Z-1.000 I-0.247 J0.961 F240.000
G2 X22.002 Y-8.298 Z-1.000 I0.247 J-0.961 F240.000
G1 X22.002 Y-8.298 Z-1.250 F12.000
G2 X21.547 Y-9.961 Z-1.250 I-0.702 J-0.702 F240.000
G2 X21.053 Y-8.039 Z-1.250 I-0.247 J0.961 F240.000
G2 X22.002 Y-8.298 Z-1.250 I0.247 J-0.961 F240.000
G1 X22.002 Y-8.298 Z-1.500 F12.000
G2 X21.547 Y-9.961 Z-1.500 I-0.702 J-0.702 F240.000
G2 X21.053 Y-8.039 Z-1.500 I-0.247 J0.961 F240.000
G2 X22.002 Y-8.298 Z-1.500 I0.247 J-0.961 F240.000
G1 X22.002 Y-8.298 Z-1.750 F12.000
G2 X21.547 Y-9.961 Z-1.750 I-0.702 J-0.702 F240.000
G2 X21.053 Y-8.039 Z-1.750 I-0.247 J0.961 F240.000
G2 X22.002 Y-8.298 Z-1.750 I0.247 J-0.961 F240.000
G1 X22.002 Y-8.298 Z-2.000 F12.000
G2 X21.547 Y-9.961 Z-2.000 I-0.702 J-0.702 F240.000
G2 X21.053 Y-8.039 Z-2.000 I-0.247 J0.961 F240.000
G2 X22.002 Y-8.298 Z-2.000 I0.247 J-0.961 F240.000
G1 X22.002 Y-8.298 Z-2.250 F12.000
G2 X21.547 Y-9.961 Z-2.250 I-0.702 J-0.702 F240.000
G2 X21.053 Y-8.039 Z-2.250 I-0.247 J0.961 F240.000
G2 X22.002 Y-8.298 Z-2.250 I0.247 J-0.961 F240.000
G1 X22.002 Y-8.298 Z-2.500 F12.000
G2 X21.547 Y-9.961 Z-2.500 I-0.702 J-0.702 F240.000
G2 X21.053 Y-8.039 Z-2.500 I-0.247 J0.961 F240.000
G2 X22.002 Y-8.298 Z-2.500 I0.247 J-0.961 F240.000
G1 X22.002 Y-8.298 Z-2.750 F12.000
G2 X21.547 Y-9.961 Z-2.750 I-0.702 J-0.702 F240.000
G2 X21.053 Y-8.039 Z-2.750 I-0.247 J0.961 F240.000
G2 X22.002 Y-8.298 Z-2.750 I0.247 J-0.961 F240.000
G1 X22.002 Y-8.298 Z-3.000 F12.000
G2 X21.547 Y-9.961 Z-3.000 I-0.702 J-0.702 F240.000
G2 X21.053 Y-8.039 Z-3.000 I-0.247 J0.961 F240.000
G2 X22.002 Y-8.298 Z-3.000 I0.247 J-0.961 F240.000
G1 X22.002 Y-8.298 Z-3.250 F12.000
G2 X21.547 Y-9.961 Z-3.250 I-0.702 J-0.702 F240.000
G2 X21.053 Y-8.039 Z-3.250 I-0.247 J0.961 F240.000
G2 X22.002 Y-8.298 Z-3.250 I0.247 J-0.961 F240.000
G1 X22.002 Y-8.298 Z-3.500 F12.000
G2 X21.547 Y-9.961 Z-3.500 I-0.702 J-0.702 F240.000
G2 X21.053 Y-8.039 Z-3.500 I-0.247 J0.961 F240.000
G2 X22.002 Y-8.298 Z-3.500 I0.247 J-0.961 F240.000
G1 X22.002 Y-8.298 Z-3.750 F12.000
G2 X21.547 Y-9.961 Z-3.750 I-0.702 J-0.702 F240.000
G2 X21.053 Y-8.039 Z-3.750 I-0.247 J0.961 F240.000
G2 X22.002 Y-8.298 Z-3.750 I0.247 J-0.961 F240.000
G1 X22.002 Y-8.298 Z-4.000 F12.000
G2 X21.547 Y-9.961 Z-4.000 I-0.702 J-0.702 F240.000
G2 X21.053 Y-8.039 Z-4.000 I-0.247 J0.961 F240.000
G2 X22.002 Y-8.298 Z-4.000 I0.247 J-0.961 F240.000
G1 X22.002 Y-8.298 Z-4.250 F12.000
G2 X21.547 Y-9.961 Z-4.250 I-0.702 J-0.702 F240.000
G2 X21.053 Y-8.039 Z-4.250 I-0.247 J0.961 F240.000
G2 X22.002 Y-8.298 Z-4.250 I0.247 J-0.961 F240.000
G1 X22.002 Y-8.298 Z-4.500 F12.000
G2 X21.547 Y-9.961 Z-4.500 I-0.702 J-0.702 F240.000
G2 X21.053 Y-8.039 Z-4.500 I-0.247 J0.961 F240.000
G2 X22.002 Y-8.298 Z-4.500 I0.247 J-0.961 F240.000
G1 X22.002 Y-8.298 Z-4.750 F12.000
G2 X21.547 Y-9.961 Z-4.750 I-0.702 J-0.702 F240.000
G2 X21.053 Y-8.039 Z-4.750 I-0.247 J0.961 F240.000
G2 X22.002 Y-8.298 Z-4.750 I0.247 J-0.961 F240.000
G0 Z5.000
(finish operation: Profile_Edges001)
(begin operation: T6: 4mm Endmill)
(machine: not set, mm/min)
(T6: 4mm Endmill)
M6 T6 G43 H6
M3 S3000
(finish operation: T6: 4mm Endmill)
(begin operation: Profile_Edges002)
(machine: not set, mm/min)
(Profile_Edges002)
(Compensated Tool Path. Diameter: 4.0)
G0 Z5.000
G0 X23.419 Y-6.881
G0 Z3.000
G1 X23.419 Y-6.881 Z-0.250 F12.000
G2 X22.045 Y-11.902 Z-0.250 I-2.119 J-2.119 F240.000
G2 X20.555 Y-6.098 Z-0.250 I-0.745 J2.902 F240.000
G2 X23.419 Y-6.881 Z-0.250 I0.745 J-2.902 F240.000
G1 X23.419 Y-6.881 Z-0.500 F12.000
G2 X22.045 Y-11.902 Z-0.500 I-2.119 J-2.119 F240.000
G2 X20.555 Y-6.098 Z-0.500 I-0.745 J2.902 F240.000
G2 X23.419 Y-6.881 Z-0.500 I0.745 J-2.902 F240.000
G1 X23.419 Y-6.881 Z-0.750 F12.000
G2 X22.045 Y-11.902 Z-0.750 I-2.119 J-2.119 F240.000
G2 X20.555 Y-6.098 Z-0.750 I-0.745 J2.902 F240.000
G2 X23.419 Y-6.881 Z-0.750 I0.745 J-2.902 F240.000
G1 X23.419 Y-6.881 Z-1.000 F12.000
G2 X22.045 Y-11.902 Z-1.000 I-2.119 J-2.119 F240.000
G2 X20.555 Y-6.098 Z-1.000 I-0.745 J2.902 F240.000
G2 X23.419 Y-6.881 Z-1.000 I0.745 J-2.902 F240.000
G1 X23.419 Y-6.881 Z-1.250 F12.000
G2 X22.045 Y-11.902 Z-1.250 I-2.119 J-2.119 F240.000
G2 X20.555 Y-6.098 Z-1.250 I-0.745 J2.902 F240.000
G2 X23.419 Y-6.881 Z-1.250 I0.745 J-2.902 F240.000
G1 X23.419 Y-6.881 Z-1.500 F12.000
G2 X22.045 Y-11.902 Z-1.500 I-2.119 J-2.119 F240.000
G2 X20.555 Y-6.098 Z-1.500 I-0.745 J2.902 F240.000
G2 X23.419 Y-6.881 Z-1.500 I0.745 J-2.902 F240.000
G1 X23.419 Y-6.881 Z-1.750 F12.000
G2 X22.045 Y-11.902 Z-1.750 I-2.119 J-2.119 F240.000
G2 X20.555 Y-6.098 Z-1.750 I-0.745 J2.902 F240.000
G2 X23.419 Y-6.881 Z-1.750 I0.745 J-2.902 F240.000
G1 X23.419 Y-6.881 Z-2.000 F12.000
G2 X22.045 Y-11.902 Z-2.000 I-2.119 J-2.119 F240.000
G2 X20.555 Y-6.098 Z-2.000 I-0.745 J2.902 F240.000
G2 X23.419 Y-6.881 Z-2.000 I0.745 J-2.902 F240.000
G1 X23.419 Y-6.881 Z-2.250 F12.000
G2 X22.045 Y-11.902 Z-2.250 I-2.119 J-2.119 F240.000
G2 X20.555 Y-6.098 Z-2.250 I-0.745 J2.902 F240.000
G2 X23.419 Y-6.881 Z-2.250 I0.745 J-2.902 F240.000
G1 X23.419 Y-6.881 Z-2.500 F12.000
G2 X22.045 Y-11.902 Z-2.500 I-2.119 J-2.119 F240.000
G2 X20.555 Y-6.098 Z-2.500 I-0.745 J2.902 F240.000
G2 X23.419 Y-6.881 Z-2.500 I0.745 J-2.902 F240.000
G1 X23.419 Y-6.881 Z-2.750 F12.000
G2 X22.045 Y-11.902 Z-2.750 I-2.119 J-2.119 F240.000
G2 X20.555 Y-6.098 Z-2.750 I-0.745 J2.902 F240.000
G2 X23.419 Y-6.881 Z-2.750 I0.745 J-2.902 F240.000
G1 X23.419 Y-6.881 Z-3.000 F12.000
G2 X22.045 Y-11.902 Z-3.000 I-2.119 J-2.119 F240.000
G2 X20.555 Y-6.098 Z-3.000 I-0.745 J2.902 F240.000
G2 X23.419 Y-6.881 Z-3.000 I0.745 J-2.902 F240.000
G1 X23.419 Y-6.881 Z-3.250 F12.000
G2 X22.045 Y-11.902 Z-3.250 I-2.119 J-2.119 F240.000
G2 X20.555 Y-6.098 Z-3.250 I-0.745 J2.902 F240.000
G2 X23.419 Y-6.881 Z-3.250 I0.745 J-2.902 F240.000
G1 X23.419 Y-6.881 Z-3.500 F12.000
G2 X22.045 Y-11.902 Z-3.500 I-2.119 J-2.119 F240.000
G2 X20.555 Y-6.098 Z-3.500 I-0.745 J2.902 F240.000
G2 X23.419 Y-6.881 Z-3.500 I0.745 J-2.902 F240.000
G1 X23.419 Y-6.881 Z-3.750 F12.000
G2 X22.045 Y-11.902 Z-3.750 I-2.119 J-2.119 F240.000
G2 X20.555 Y-6.098 Z-3.750 I-0.745 J2.902 F240.000
G2 X23.419 Y-6.881 Z-3.750 I0.745 J-2.902 F240.000
G1 X23.419 Y-6.881 Z-4.000 F12.000
G2 X22.045 Y-11.902 Z-4.000 I-2.119 J-2.119 F240.000
G2 X20.555 Y-6.098 Z-4.000 I-0.745 J2.902 F240.000
G2 X23.419 Y-6.881 Z-4.000 I0.745 J-2.902 F240.000
G1 X23.419 Y-6.881 Z-4.250 F12.000
G2 X22.045 Y-11.902 Z-4.250 I-2.119 J-2.119 F240.000
G2 X20.555 Y-6.098 Z-4.250 I-0.745 J2.902 F240.000
G2 X23.419 Y-6.881 Z-4.250 I0.745 J-2.902 F240.000
G1 X23.419 Y-6.881 Z-4.500 F12.000
G2 X22.045 Y-11.902 Z-4.500 I-2.119 J-2.119 F240.000
G2 X20.555 Y-6.098 Z-4.500 I-0.745 J2.902 F240.000
G2 X23.419 Y-6.881 Z-4.500 I0.745 J-2.902 F240.000
G1 X23.419 Y-6.881 Z-4.750 F12.000
G2 X22.045 Y-11.902 Z-4.750 I-2.119 J-2.119 F240.000
G2 X20.555 Y-6.098 Z-4.750 I-0.745 J2.902 F240.000
G2 X23.419 Y-6.881 Z-4.750 I0.745 J-2.902 F240.000
G0 Z5.000
(finish operation: Profile_Edges002)
(begin operation: T6: 4mm Endmill)
(machine: not set, mm/min)
(T6: 4mm Endmill)
M6 T6 G43 H6
M3 S3000
(finish operation: T6: 4mm Endmill)
(begin operation: Profile_Edges003)
(machine: not set, mm/min)
(Profile_Edges003)
(Compensated Tool Path. Diameter: 4.0)
G0 Z5.000
G0 X7.438 Y-8.262
G0 Z3.000
G1 X7.438 Y-8.262 Z-0.250 F12.000
G2 X7.023 Y-9.993 Z-0.250 I-0.738 J-0.738 F240.000
G2 X6.377 Y-8.007 Z-0.250 I-0.323 J0.993 F240.000
G2 X7.438 Y-8.262 Z-0.250 I0.323 J-0.993 F240.000
G1 X7.438 Y-8.262 Z-0.500 F12.000
G2 X7.023 Y-9.993 Z-0.500 I-0.738 J-0.738 F240.000
G2 X6.377 Y-8.007 Z-0.500 I-0.323 J0.993 F240.000
G2 X7.438 Y-8.262 Z-0.500 I0.323 J-0.993 F240.000
G1 X7.438 Y-8.262 Z-0.750 F12.000
G2 X7.023 Y-9.993 Z-0.750 I-0.738 J-0.738 F240.000
G2 X6.377 Y-8.007 Z-0.750 I-0.323 J0.993 F240.000
G2 X7.438 Y-8.262 Z-0.750 I0.323 J-0.993 F240.000
G1 X7.438 Y-8.262 Z-1.000 F12.000
G2 X7.023 Y-9.993 Z-1.000 I-0.738 J-0.738 F240.000
G2 X6.377 Y-8.007 Z-1.000 I-0.323 J0.993 F240.000
G2 X7.438 Y-8.262 Z-1.000 I0.323 J-0.993 F240.000
G1 X7.438 Y-8.262 Z-1.250 F12.000
G2 X7.023 Y-9.993 Z-1.250 I-0.738 J-0.738 F240.000
G2 X6.377 Y-8.007 Z-1.250 I-0.323 J0.993 F240.000
G2 X7.438 Y-8.262 Z-1.250 I0.323 J-0.993 F240.000
G1 X7.438 Y-8.262 Z-1.500 F12.000
G2 X7.023 Y-9.993 Z-1.500 I-0.738 J-0.738 F240.000
G2 X6.377 Y-8.007 Z-1.500 I-0.323 J0.993 F240.000
G2 X7.438 Y-8.262 Z-1.500 I0.323 J-0.993 F240.000
G1 X7.438 Y-8.262 Z-1.750 F12.000
G2 X7.023 Y-9.993 Z-1.750 I-0.738 J-0.738 F240.000
G2 X6.377 Y-8.007 Z-1.750 I-0.323 J0.993 F240.000
G2 X7.438 Y-8.262 Z-1.750 I0.323 J-0.993 F240.000
G1 X7.438 Y-8.262 Z-2.000 F12.000
G2 X7.023 Y-9.993 Z-2.000 I-0.738 J-0.738 F240.000
G2 X6.377 Y-8.007 Z-2.000 I-0.323 J0.993 F240.000
G2 X7.438 Y-8.262 Z-2.000 I0.323 J-0.993 F240.000
G0 Z5.000
(finish operation: Profile_Edges003)
(begin postamble)
M05
G17 G54 G90 G80 G40
M2
