;Generated by Cura LulzBot Edition GCodeWriter Version: 3.6.18
;FLAVOR:Marlin
;TIME:9385
;Filament used: 4.71769m
;Layer height: 0.27
;Generated with Cura_SteamEngine 3.6.18
M82 ;absolute extrusion mode
;This G-Code has been generated specifically for the LulzBot Mini 2 with SE 0.5mm Tool Head
M73 P0                  ; clear GLCD progress bar
M75 					; Start GLCD Print Timer
G26 					; clear potential 'probe fail' condition
M107 					; disable fans
M420 S0                 ; disable leveling matrix
G90 					; absolute positioning
M82 					; set extruder to absolute mode
G92 E0 					; set extruder position to 0
G28                       ; Home Axis
G0 X160 F9999             ; Move toolhead to the right
G0 Z5 F6000               ; Move to bottom of printer
G91                       ; Set relative motion mode
M211 S0		  	  ; Turn off soft endstops
M400                      ; Finish moves
G0 Z-15 F500              ; Skip steppers against lower Z mounts
G90                       ; Return to absolute mode
M400                      ; Finish moves
M211 S1			  ; Turn soft endstops back on
M400                      ; Finish moves
G28                       ; Rehome
M140 S112.0 ; start bed heating up
M117 X-Axis Leveled
G0 X0 Y187 Z156 F200 			; move away from endstops
M117 Mini 2 Wiping...			; progress indicator message on LCD
M109 R170 	; soften filament before retraction
G1 E-15 F75 				; retract filament
M109 R170 	; wait for extruder to reach wiping temp
G1 X45 Y176 F11520 			; move above wiper pad
G1 Z0 F1200 				; push nozzle into wiper
G1 X45 Y178 Z-.5 F4000		; wiping
G1 X55 Y176 Z-.5 F4000		; wiping
G1 X45 Y177 Z0 F4000		; wiping
G1 X55 Y176 F4000		; wiping
G1 X45 Y178 F4000		; wiping
G1 X55 Y176 F4000		; wiping
G1 X45 Y178 F4000		; wiping
G1 X55 Y176 F4000		; wiping
G1 X60 Y178 F4000		; wiping
G1 X80 Y176 F4000		; wiping
G1 X60 Y178 F4000		; wiping
G1 X80 Y176 F4000		; wiping
G1 X60 Y178 F4000		; wiping
G1 X90 Y176 F4000		; wiping
G1 X80 Y178 F4000		; wiping
G1 X100 Y176 F4000		; wiping
G1 X80 Y178 F4000		; wiping
G1 X100 Y176 F4000		; wiping
G1 X80 Y178 F4000		; wiping
G1 X100 Y176 F4000		; wiping
G1 X110 Y178 F4000		; wiping
G1 X100 Y176 F4000		; wiping
G1 X110 Y178 F4000		; wiping
G1 X100 Y176 F4000		; wiping
G1 X110 Y178 F4000		; wiping
G1 X115 Y176 Z-0.5 F1000	; wiping
G1 Z10					; raise extruder
G28 X0 Y0				; home X and Y
M109 R170	; wait for extruder to reach probe temp
M204 S300				; set probing acceleration
G29					; start auto-leveling sequence
M420 S1                     ; enable leveling matrix
M425 Z			     		; use measured Z backlash for compensation
M425 Z F0		     		; turn off measured Z backlash compensation. (if activated in the quality settings, this command will automatically be ignored)
M204 S2000				; restore standard acceleration
G1 X5 Y15 Z10 F5000			; move up off last probe point
G4 S1					; pause
M400					; wait for moves to finish
M117 Heating...				; progress indicator message on LCD
M109 R250 ; wait for extruder to reach initial printing temp
M190 R112.0 ; wait for bed to reach printing temp
G1 Z2 E0 F75				; prime tiny bit of filment into the nozzle
M117 Mini 2 Printing...		; progress indicator message on LCD
M221 S100 T0
M83 ;relative extrusion mode
G1 F600 E-1
;LAYER_COUNT:44
;LAYER:0
M107
M204 S2000
M205 X20 Y20
G0 F2250 X27.805 Y40.334 Z0.4
M204 S800
M205 X10 Y10
;TYPE:SKIRT
G1 F600 E1
G1 F900 X28.243 Y40.064 E0.02016
G1 X28.717 Y39.865 E0.02015
G1 X29.217 Y39.742 E0.02018
G1 X29.758 Y39.697 E0.02127
G1 X72.502 Y39.697 E1.67508
G1 X72.679 Y39.702 E0.00694
G1 X74.95 Y39.824 E0.08913
G1 X80.479 Y39.901 E0.2167
G1 X85.66 Y39.695 E0.2032
G1 X85.792 Y39.692 E0.00517
G1 X128.38 Y39.697 E1.66897
G1 X128.893 Y39.737 E0.02016
G1 X129.394 Y39.856 E0.02018
G1 X129.87 Y40.051 E0.02016
G1 X130.31 Y40.317 E0.02015
G1 X130.73 Y40.675 E0.02163
G1 X134.718 Y44.689 E0.22174
G1 X135.051 Y45.081 E0.02016
G1 X135.32 Y45.52 E0.02018
G1 X135.517 Y45.995 E0.02015
G1 X135.638 Y46.495 E0.02016
G1 X135.681 Y47.023 E0.02076
G1 X135.692 Y114.995 E2.66373
G1 X135.652 Y115.508 E0.02016
G1 X135.533 Y116.009 E0.02018
G1 X135.339 Y116.485 E0.02014
G1 X135.109 Y116.874 E0.01771
G1 X132.361 Y120.869 E0.19002
G1 X132.037 Y121.269 E0.02017
G1 X131.655 Y121.614 E0.02017
G1 X131.225 Y121.895 E0.02013
G1 X130.756 Y122.107 E0.02017
G1 X130.26 Y122.244 E0.02017
G1 X129.632 Y122.304 E0.02472
G1 X85.097 Y122.313 E1.74527
G1 X85.035 Y122.312 E0.00243
G1 X77.655 Y122.176 E0.28926
G1 X74.018 Y122.297 E0.14261
G1 X73.908 Y122.299 E0.00431
G1 X28.509 Y122.303 E1.77913
G1 X27.996 Y122.263 E0.02016
G1 X27.496 Y122.144 E0.02014
G1 X27.02 Y121.949 E0.02016
G1 X26.58 Y121.683 E0.02015
G1 X26.186 Y121.352 E0.02017
G1 X25.779 Y120.867 E0.02481
G1 X23.033 Y116.873 E0.18994
G1 X22.775 Y116.428 E0.02016
G1 X22.59 Y115.948 E0.02016
G1 X22.481 Y115.445 E0.02017
G1 X22.45 Y114.996 E0.01764
G1 X22.45 Y47.009 E2.66432
G1 X22.49 Y46.496 E0.02016
G1 X22.609 Y45.996 E0.02014
G1 X22.804 Y45.52 E0.02016
G1 X23.07 Y45.079 E0.02018
G1 X23.419 Y44.668 E0.02113
G1 X27.414 Y40.669 E0.22152
G1 X27.805 Y40.334 E0.02018
M204 S2000
M205 X20 Y20
G1 F600 E-1
;MESH:
G0 F2250 X75.567 Y47.388
M204 S800
M205 X10 Y10
;TYPE:WALL-INNER
G1 F600 E1
G1 F900 X75.567 Y114.064 E2.61294
G1 X72.817 Y114.064 E0.10777
G1 X72.817 Y118.064 E0.15675
G1 X29.439 Y118.064 E1.69993
G1 X29.439 Y114.064 E0.15675
G1 X26.689 Y114.064 E0.10777
G1 X26.689 Y47.388 E2.61294
G1 X30.141 Y43.936 E0.19131
G1 X50.108 Y43.936 E0.78248
G1 X50.108 Y46.064 E0.08339
G1 X38.817 Y46.064 E0.44248
G1 X38.817 Y61.387 E0.60049
G1 X38.601 Y61.432 E0.00865
G1 X38.177 Y61.567 E0.01744
G1 X37.768 Y61.744 E0.01746
G1 X37.377 Y61.965 E0.0176
G1 X37.016 Y62.223 E0.01739
G1 X36.681 Y62.515 E0.01742
G1 X36.378 Y62.841 E0.01744
G1 X36.113 Y63.194 E0.0173
G1 X35.908 Y63.526 E0.01529
G1 X35.715 Y63.923 E0.0173
G1 X35.561 Y64.339 E0.01738
G1 X35.451 Y64.772 E0.01751
G1 X35.386 Y65.212 E0.01743
G1 X35.367 Y65.659 E0.01753
G1 X35.394 Y66.103 E0.01743
G1 X35.465 Y66.541 E0.01739
G1 X35.582 Y66.973 E0.01754
G1 X35.741 Y67.383 E0.01723
G1 X35.911 Y67.728 E0.01507
G1 X36.147 Y68.107 E0.0175
G1 X36.421 Y68.458 E0.01745
G1 X36.728 Y68.781 E0.01746
G1 X37.069 Y69.069 E0.01749
G1 X37.434 Y69.32 E0.01736
G1 X37.826 Y69.534 E0.0175
G1 X38.238 Y69.705 E0.01748
G1 X38.664 Y69.834 E0.01744
G1 X39.101 Y69.918 E0.01744
G1 X39.539 Y69.957 E0.01723
G1 X39.927 Y69.956 E0.01521
G1 X40.365 Y69.91 E0.01726
G1 X40.744 Y69.834 E0.01515
G1 X41.166 Y69.706 E0.01728
G1 X41.577 Y69.536 E0.01743
G1 X41.973 Y69.321 E0.01766
G1 X42.337 Y69.068 E0.01737
G1 X42.677 Y68.781 E0.01744
G1 X42.984 Y68.458 E0.01746
G1 X43.258 Y68.107 E0.01745
G1 X43.495 Y67.726 E0.01758
G1 X43.689 Y67.328 E0.01735
G1 X43.844 Y66.911 E0.01743
G1 X43.953 Y66.483 E0.01731
G1 X44.013 Y66.098 E0.01527
G1 X44.04 Y65.607 E0.01927
G1 X44.023 Y65.263 E0.0135
G1 X43.955 Y64.775 E0.01931
G1 X43.843 Y64.339 E0.01764
G1 X43.689 Y63.922 E0.01742
G1 X43.507 Y63.55 E0.01623
G1 X43.495 Y63.524 E0.00112
G1 X43.258 Y63.143 E0.01758
G1 X43.096 Y62.936 E0.0103
G1 X43.258 Y62.936 E0.00007
G1 X43.495 Y62.936 E0.00384
G1 X43.524 Y62.936 E0.00111
G1 X50.108 Y62.936 E0.25802
G1 X50.108 Y78.833 E0.62298
G1 X49.963 Y78.864 E0.00581
G1 X49.539 Y79.003 E0.01749
G1 X49.137 Y79.182 E0.01725
G1 X48.799 Y79.37 E0.01516
G1 X48.435 Y79.625 E0.01742
G1 X48.097 Y79.916 E0.01748
G1 X47.792 Y80.241 E0.01747
G1 X47.521 Y80.594 E0.01744
G1 X47.288 Y80.972 E0.0174
G1 X47.095 Y81.374 E0.01748
G1 X46.944 Y81.793 E0.01745
G1 X46.836 Y82.227 E0.01753
G1 X46.776 Y82.664 E0.01729
G1 X46.758 Y83.051 E0.01518
G1 X46.78 Y83.491 E0.01726
G1 X46.848 Y83.93 E0.01741
G1 X46.961 Y84.365 E0.01761
G1 X47.119 Y84.782 E0.01748
G1 X47.317 Y85.181 E0.01746
G1 X47.557 Y85.558 E0.01751
G1 X47.833 Y85.907 E0.01744
G1 X48.141 Y86.226 E0.01738
G1 X48.482 Y86.51 E0.01739
G1 X48.847 Y86.759 E0.01732
G1 X49.192 Y86.947 E0.0154
G1 X49.598 Y87.118 E0.01726
G1 X50.021 Y87.251 E0.01738
G1 X50.457 Y87.339 E0.01743
G1 X50.901 Y87.382 E0.01748
G1 X51.345 Y87.379 E0.0174
G1 X51.729 Y87.339 E0.01513
G1 X52.132 Y87.259 E0.0161
G1 X52.555 Y87.132 E0.01731
G1 X52.968 Y86.962 E0.0175
G1 X53.363 Y86.746 E0.01764
G1 X53.729 Y86.494 E0.01741
G1 X54.068 Y86.205 E0.01746
G1 X54.376 Y85.883 E0.01746
G1 X54.648 Y85.532 E0.0174
G1 X54.885 Y85.154 E0.01748
G1 X55.081 Y84.753 E0.01749
G1 X55.235 Y84.336 E0.01742
G1 X55.344 Y83.909 E0.01727
G1 X55.404 Y83.523 E0.01531
G1 X55.431 Y83.032 E0.01927
G1 X55.414 Y82.687 E0.01354
G1 X55.345 Y82.194 E0.01951
G1 X55.232 Y81.758 E0.01765
G1 X55.077 Y81.34 E0.01747
G1 X54.88 Y80.937 E0.01758
G1 X54.642 Y80.56 E0.01747
G1 X54.404 Y80.25 E0.01532
G1 X54.055 Y79.883 E0.01985
G1 X53.71 Y79.593 E0.01766
G1 X53.344 Y79.344 E0.01735
G1 X53.002 Y79.156 E0.01529
G1 X52.592 Y78.982 E0.01745
G1 X52.164 Y78.849 E0.01756
G1 X52.08 Y78.832 E0.00336
G1 X52.08 Y62.936 E0.62294
G1 X58.631 Y62.936 E0.25672
G1 X58.658 Y62.936 E0.00106
G1 X58.863 Y62.936 E0.00803
G1 X59.057 Y62.936 E0.0076
G1 X58.863 Y63.194 E0.0054
G1 X58.658 Y63.526 E0.01197
G1 X58.647 Y63.55 E0.00101
G1 X58.465 Y63.923 E0.01626
G1 X58.311 Y64.339 E0.01738
G1 X58.201 Y64.772 E0.01751
G1 X58.136 Y65.212 E0.01743
G1 X58.117 Y65.659 E0.01753
G1 X58.144 Y66.103 E0.01743
G1 X58.215 Y66.541 E0.01739
G1 X58.332 Y66.973 E0.01754
G1 X58.491 Y67.383 E0.01723
G1 X58.661 Y67.728 E0.01507
G1 X58.897 Y68.107 E0.0175
G1 X59.171 Y68.458 E0.01745
G1 X59.478 Y68.781 E0.01746
G1 X59.819 Y69.069 E0.01749
G1 X60.184 Y69.32 E0.01736
G1 X60.576 Y69.534 E0.0175
G1 X60.988 Y69.705 E0.01748
G1 X61.414 Y69.834 E0.01744
G1 X61.851 Y69.918 E0.01744
G1 X62.289 Y69.957 E0.01723
G1 X62.677 Y69.956 E0.01521
G1 X63.115 Y69.91 E0.01726
G1 X63.494 Y69.834 E0.01515
G1 X63.916 Y69.706 E0.01728
G1 X64.327 Y69.536 E0.01743
G1 X64.723 Y69.321 E0.01766
G1 X65.087 Y69.068 E0.01737
G1 X65.427 Y68.781 E0.01744
G1 X65.734 Y68.458 E0.01746
G1 X66.008 Y68.107 E0.01745
G1 X66.245 Y67.726 E0.01758
G1 X66.439 Y67.328 E0.01735
G1 X66.594 Y66.911 E0.01743
G1 X66.703 Y66.483 E0.01731
G1 X66.763 Y66.098 E0.01527
G1 X66.79 Y65.607 E0.01927
G1 X66.773 Y65.263 E0.0135
G1 X66.705 Y64.775 E0.01931
G1 X66.593 Y64.339 E0.01764
G1 X66.439 Y63.922 E0.01742
G1 X66.245 Y63.524 E0.01735
G1 X66.008 Y63.143 E0.01758
G1 X65.734 Y62.792 E0.01745
G1 X65.427 Y62.469 E0.01746
G1 X65.087 Y62.182 E0.01744
G1 X64.722 Y61.93 E0.01738
G1 X64.329 Y61.715 E0.01756
G1 X63.917 Y61.545 E0.01747
G1 X63.491 Y61.416 E0.01744
G1 X63.439 Y61.406 E0.00208
G1 X63.439 Y46.064 E0.60123
G1 X52.08 Y46.064 E0.44514
G1 X52.08 Y43.936 E0.08339
G1 X72.115 Y43.936 E0.78514
G1 X75.567 Y47.388 E0.19131
M204 S2000
M205 X20 Y20
G0 F2250 X76.191 Y47.13
M204 S800
M205 X10 Y10
;TYPE:WALL-OUTER
G1 F900 X76.191 Y114.688 E2.64751
G1 X73.441 Y114.688 E0.10777
G1 X73.441 Y118.688 E0.15675
G1 X28.815 Y118.688 E1.74883
G1 X28.815 Y114.688 E0.15675
G1 X26.065 Y114.688 E0.10777
G1 X26.065 Y47.13 E2.64751
G1 X29.883 Y43.312 E0.2116
G1 X50.732 Y43.312 E0.81704
G1 X50.732 Y46.688 E0.1323
G1 X39.441 Y46.688 E0.44248
G1 X39.441 Y61.925 E0.59712
G1 X39.133 Y61.958 E0.01214
G1 X38.76 Y62.036 E0.01493
G1 X38.396 Y62.152 E0.01497
G1 X38.046 Y62.303 E0.01494
G1 X37.713 Y62.492 E0.01501
G1 X37.403 Y62.713 E0.01492
G1 X37.116 Y62.964 E0.01494
G1 X36.857 Y63.242 E0.01489
G1 X36.629 Y63.546 E0.01489
G1 X36.456 Y63.827 E0.01293
G1 X36.29 Y64.168 E0.01486
G1 X36.158 Y64.525 E0.01492
G1 X36.064 Y64.895 E0.01496
G1 X36.008 Y65.271 E0.0149
G1 X35.992 Y65.653 E0.01498
G1 X36.015 Y66.034 E0.01496
G1 X36.076 Y66.409 E0.01489
G1 X36.176 Y66.778 E0.01498
G1 X36.313 Y67.132 E0.01488
G1 X36.457 Y67.425 E0.01279
G1 X36.659 Y67.749 E0.01496
G1 X36.894 Y68.05 E0.01497
G1 X37.157 Y68.326 E0.01494
G1 X37.448 Y68.572 E0.01493
G1 X37.762 Y68.788 E0.01494
G1 X38.096 Y68.971 E0.01492
G1 X38.448 Y69.117 E0.01493
G1 X38.813 Y69.227 E0.01494
G1 X39.188 Y69.299 E0.01496
G1 X39.566 Y69.333 E0.01487
G1 X39.893 Y69.332 E0.01281
G1 X40.271 Y69.292 E0.0149
G1 X40.592 Y69.228 E0.01283
G1 X40.956 Y69.118 E0.0149
G1 X41.308 Y68.972 E0.01493
G1 X41.645 Y68.789 E0.01503
G1 X41.957 Y68.572 E0.01489
G1 X42.248 Y68.326 E0.01493
G1 X42.511 Y68.05 E0.01494
G1 X42.746 Y67.749 E0.01497
G1 X42.948 Y67.424 E0.015
G1 X43.115 Y67.082 E0.01492
G1 X43.247 Y66.725 E0.01492
G1 X43.341 Y66.357 E0.01488
G1 X43.392 Y66.033 E0.01285
G1 X43.415 Y65.606 E0.01676
G1 X43.401 Y65.321 E0.01118
G1 X43.342 Y64.896 E0.01681
G1 X43.247 Y64.525 E0.01501
G1 X43.115 Y64.168 E0.01492
G1 X42.948 Y63.826 E0.01492
G1 X42.746 Y63.501 E0.015
G1 X42.511 Y63.2 E0.01497
G1 X42.258 Y62.934 E0.01439
G1 X42.248 Y62.924 E0.00055
G1 X41.957 Y62.678 E0.01493
G1 X41.644 Y62.462 E0.0149
G1 X41.369 Y62.312 E0.01228
G1 X41.644 Y62.312 E0.00095
G1 X41.957 Y62.312 E0.00465
G1 X42.248 Y62.312 E0.00871
G1 X42.263 Y62.312 E0.00058
G1 X50.732 Y62.312 E0.33189
G1 X50.732 Y79.362 E0.66817
G1 X50.499 Y79.388 E0.00919
G1 X50.126 Y79.467 E0.01494
G1 X49.764 Y79.586 E0.01493
G1 X49.416 Y79.741 E0.01493
G1 X49.13 Y79.9 E0.01282
G1 X48.818 Y80.118 E0.01492
G1 X48.529 Y80.367 E0.01495
G1 X48.268 Y80.645 E0.01494
G1 X48.036 Y80.948 E0.01496
G1 X47.836 Y81.272 E0.01492
G1 X47.671 Y81.615 E0.01492
G1 X47.542 Y81.974 E0.01495
G1 X47.45 Y82.345 E0.01498
G1 X47.398 Y82.721 E0.01488
G1 X47.383 Y83.05 E0.01291
G1 X47.402 Y83.428 E0.01483
G1 X47.46 Y83.804 E0.01491
G1 X47.556 Y84.175 E0.01502
G1 X47.692 Y84.532 E0.01497
G1 X47.861 Y84.874 E0.01495
G1 X48.066 Y85.196 E0.01496
G1 X48.303 Y85.495 E0.01495
G1 X48.567 Y85.768 E0.01488
G1 X48.859 Y86.012 E0.01491
G1 X49.173 Y86.226 E0.01489
G1 X49.463 Y86.384 E0.01294
G1 X49.813 Y86.532 E0.01489
G1 X50.176 Y86.646 E0.01491
G1 X50.549 Y86.721 E0.01491
G1 X50.929 Y86.758 E0.01496
G1 X51.31 Y86.755 E0.01493
G1 X51.636 Y86.721 E0.01284
G1 X51.981 Y86.653 E0.01378
G1 X52.346 Y86.543 E0.01494
G1 X52.699 Y86.398 E0.01496
G1 X53.035 Y86.214 E0.01501
G1 X53.348 Y85.998 E0.0149
G1 X53.639 Y85.75 E0.01498
G1 X53.903 Y85.475 E0.01494
G1 X54.136 Y85.174 E0.01492
G1 X54.339 Y84.851 E0.01495
G1 X54.506 Y84.508 E0.01495
G1 X54.638 Y84.15 E0.01495
G1 X54.732 Y83.783 E0.01485
G1 X54.783 Y83.458 E0.01289
G1 X54.806 Y83.031 E0.01676
G1 X54.792 Y82.746 E0.01118
G1 X54.732 Y82.316 E0.01701
G1 X54.636 Y81.945 E0.01502
G1 X54.503 Y81.586 E0.015
G1 X54.334 Y81.241 E0.01506
G1 X54.13 Y80.917 E0.015
G1 X53.929 Y80.656 E0.01291
G1 X53.627 Y80.338 E0.01719
G1 X53.333 Y80.091 E0.01505
G1 X53.018 Y79.877 E0.01492
G1 X52.729 Y79.718 E0.01293
G1 X52.377 Y79.568 E0.01499
G1 X52.01 Y79.454 E0.01506
G1 X51.636 Y79.379 E0.01495
G1 X51.456 Y79.362 E0.00709
G1 X51.456 Y62.312 E0.66817
G1 X59.855 Y62.312 E0.32915
G1 X60.153 Y62.312 E0.01168
G1 X60.463 Y62.312 E0.01215
G1 X60.78 Y62.312 E0.01242
G1 X60.463 Y62.492 E0.00322
G1 X60.153 Y62.713 E0.00801
G1 X59.929 Y62.909 E0.0097
G1 X59.866 Y62.964 E0.00328
G1 X59.607 Y63.242 E0.01489
G1 X59.379 Y63.546 E0.01489
G1 X59.206 Y63.827 E0.01293
G1 X59.04 Y64.168 E0.01486
G1 X58.908 Y64.525 E0.01492
G1 X58.814 Y64.895 E0.01496
G1 X58.758 Y65.271 E0.0149
G1 X58.742 Y65.653 E0.01498
G1 X58.765 Y66.034 E0.01496
G1 X58.826 Y66.409 E0.01489
G1 X58.926 Y66.778 E0.01498
G1 X59.063 Y67.132 E0.01488
G1 X59.207 Y67.425 E0.01279
G1 X59.409 Y67.749 E0.01496
G1 X59.644 Y68.05 E0.01497
G1 X59.907 Y68.326 E0.01494
G1 X60.198 Y68.572 E0.01493
G1 X60.512 Y68.788 E0.01494
G1 X60.846 Y68.971 E0.01492
G1 X61.198 Y69.117 E0.01493
G1 X61.563 Y69.227 E0.01494
G1 X61.938 Y69.299 E0.01496
G1 X62.316 Y69.333 E0.01487
G1 X62.643 Y69.332 E0.01281
G1 X63.021 Y69.292 E0.0149
G1 X63.342 Y69.228 E0.01283
G1 X63.706 Y69.118 E0.0149
G1 X64.058 Y68.972 E0.01493
G1 X64.395 Y68.789 E0.01503
G1 X64.707 Y68.572 E0.01489
G1 X64.998 Y68.326 E0.01493
G1 X65.261 Y68.05 E0.01494
G1 X65.496 Y67.749 E0.01497
G1 X65.698 Y67.424 E0.015
G1 X65.865 Y67.082 E0.01492
G1 X65.997 Y66.725 E0.01492
G1 X66.091 Y66.357 E0.01488
G1 X66.142 Y66.033 E0.01285
G1 X66.165 Y65.606 E0.01676
G1 X66.151 Y65.321 E0.01118
G1 X66.092 Y64.896 E0.01681
G1 X65.997 Y64.525 E0.01501
G1 X65.865 Y64.168 E0.01492
G1 X65.698 Y63.826 E0.01492
G1 X65.496 Y63.501 E0.015
G1 X65.261 Y63.2 E0.01497
G1 X64.998 Y62.924 E0.01494
