;Generated by Cura LulzBot Edition GCodeWriter Version: 3.6.14
;FLAVOR:Marlin
;TIME:6888
;Filament used: 5.48769m
;Layer height: 0.36
;Generated with Cura_SteamEngine 3.6.14
M82 ;absolute extrusion mode
;This G-Code has been generated specifically for the LulzBot Mini 2 with SE 0.5mm Tool Head
M73 P0                  ; clear GLCD progress bar
M75 					; Start GLCD Print Timer
G26 					; clear potential 'probe fail' condition
M107 					; disable fans
M420 S0                 ; disable leveling matrix
G90 					; absolute positioning
M82 					; set extruder to absolute mode
G92 E0 					; set extruder position to 0
M140 S115.0 	; start bed heating up
G28 					; home all axes
G28                       ; Home Axis
G0 X160 F9999             ; Move toolhead to the right
G0 Z5 F6000               ; Move to bottom of printer
G91                       ; Set relative motion mode
M211 S0		  	  ; Turn off soft endstops
M400                      ; Finish moves
G0 Z-15 F500              ; Skip steppers against lower Z mounts
G90                       ; Return to absolute mode
M400                      ; Finish moves
M211 S1			  ; Turn soft endstops back on
M400                      ; Finish moves
G28                       ; Rehome
M117 X-Axis Leveled
G0 X0 Y187 Z156 F200 			; move away from endstops
M117 Mini 2 Wiping...			; progress indicator message on LCD
M109 R170 	; soften filament before retraction
G1 E-15 F75 				; retract filament
M109 R170 	; wait for extruder to reach wiping temp
G1 X45 Y176 F11520 			; move above wiper pad
G1 Z0 F1200 				; push nozzle into wiper
G1 X45 Y178 Z-.5 F4000		; wiping
G1 X55 Y176 Z-.5 F4000		; wiping
G1 X45 Y177 Z0 F4000		; wiping
G1 X55 Y176 F4000		; wiping
G1 X45 Y178 F4000		; wiping
G1 X55 Y176 F4000		; wiping
G1 X45 Y178 F4000		; wiping
G1 X55 Y176 F4000		; wiping
G1 X60 Y178 F4000		; wiping
G1 X80 Y176 F4000		; wiping
G1 X60 Y178 F4000		; wiping
G1 X80 Y176 F4000		; wiping
G1 X60 Y178 F4000		; wiping
G1 X90 Y176 F4000		; wiping
G1 X80 Y178 F4000		; wiping
G1 X100 Y176 F4000		; wiping
G1 X80 Y178 F4000		; wiping
G1 X100 Y176 F4000		; wiping
G1 X80 Y178 F4000		; wiping
G1 X100 Y176 F4000		; wiping
G1 X110 Y178 F4000		; wiping
G1 X100 Y176 F4000		; wiping
G1 X110 Y178 F4000		; wiping
G1 X100 Y176 F4000		; wiping
G1 X110 Y178 F4000		; wiping
G1 X115 Y176 Z-0.5 F1000	; wiping
G1 Z10					; raise extruder
G28 X0 Y0				; home X and Y
M109 R170	; wait for extruder to reach probe temp
M204 S300				; set probing acceleration
G29					; start auto-leveling sequence
M420 S1                     ; enable leveling matrix
M425 Z			     		; use measured Z backlash for compensation
M425 Z F0		     		; turn off measured Z backlash compensation. (if activated in the quality settings, this command will automatically be ignored)
M204 S2000				; restore standard acceleration
G1 X5 Y15 Z10 F5000			; move up off last probe point
G4 S1					; pause
M400					; wait for moves to finish
M117 Heating...				; progress indicator message on LCD
M109 R250	; wait for extruder to reach initial printing temp
M190 S116.0 ; wait for bed to reach printing temp
G1 Z2 E0 F75				; prime tiny bit of filment into the nozzle
M117 Mini 2 Printing...		; progress indicator message on LCD
M221 S100 T0
M83 ;relative extrusion mode
G1 F600 E-1
;LAYER_COUNT:34
;LAYER:0
M107
M204 S800
M205 X10 Y10
G0 F2625 X29.737 Y40.334 Z0.4
;TYPE:SKIRT
G1 F600 E1
G1 F900 X30.175 Y40.064 E0.02016
G1 X30.649 Y39.865 E0.02015
G1 X31.149 Y39.742 E0.02018
G1 X31.69 Y39.697 E0.02127
G1 X74.434 Y39.697 E1.67508
G1 X74.611 Y39.702 E0.00694
G1 X76.865 Y39.823 E0.08846
G1 X82.395 Y39.901 E0.21673
G1 X87.587 Y39.695 E0.20363
G1 X87.718 Y39.692 E0.00514
G1 X130.309 Y39.697 E1.66908
G1 X130.822 Y39.737 E0.02016
G1 X131.323 Y39.856 E0.02018
G1 X131.799 Y40.051 E0.02016
G1 X132.239 Y40.317 E0.02015
G1 X132.66 Y40.676 E0.02168
G1 X136.645 Y44.69 E0.22166
G1 X136.978 Y45.082 E0.02016
G1 X137.246 Y45.521 E0.02016
G1 X137.444 Y45.996 E0.02017
G1 X137.565 Y46.496 E0.02016
G1 X137.607 Y47.023 E0.02072
G1 X137.618 Y114.995 E2.66373
G1 X137.578 Y115.508 E0.02016
G1 X137.459 Y116.009 E0.02018
G1 X137.265 Y116.485 E0.02014
G1 X137.035 Y116.874 E0.01771
G1 X134.287 Y120.869 E0.19002
G1 X133.963 Y121.269 E0.02017
G1 X133.581 Y121.614 E0.02017
G1 X133.151 Y121.895 E0.02013
G1 X132.682 Y122.107 E0.02017
G1 X132.186 Y122.244 E0.02017
G1 X131.558 Y122.304 E0.02472
G1 X87.023 Y122.313 E1.74527
G1 X86.961 Y122.312 E0.00243
G1 X79.591 Y122.176 E0.28887
G1 X75.963 Y122.296 E0.14225
G1 X75.853 Y122.298 E0.00431
G1 X30.441 Y122.303 E1.77964
G1 X29.928 Y122.263 E0.02016
G1 X29.428 Y122.144 E0.02014
G1 X28.952 Y121.949 E0.02016
G1 X28.512 Y121.683 E0.02015
G1 X28.118 Y121.352 E0.02017
G1 X27.711 Y120.867 E0.02481
G1 X24.965 Y116.873 E0.18994
G1 X24.707 Y116.428 E0.02016
G1 X24.522 Y115.948 E0.02016
G1 X24.413 Y115.445 E0.02017
G1 X24.382 Y114.996 E0.01764
G1 X24.382 Y47.009 E2.66432
G1 X24.422 Y46.496 E0.02016
G1 X24.541 Y45.996 E0.02014
G1 X24.736 Y45.52 E0.02016
G1 X25.002 Y45.079 E0.02018
G1 X25.351 Y44.668 E0.02113
G1 X29.346 Y40.669 E0.22152
G1 X29.737 Y40.334 E0.02018
G1 F600 E-1
;MESH:
G0 F2625 X32.08 Y43.954
G0 X32.111 Y44.028
G0 X32.073 Y43.936
;TYPE:WALL-INNER
G1 F600 E1
G1 F900 X74.047 Y43.936 E1.6449
G1 X77.499 Y47.388 E0.19131
G1 X77.499 Y114.064 E2.61294
G1 X74.749 Y114.064 E0.10777
G1 X74.749 Y118.064 E0.15675
G1 X31.371 Y118.064 E1.69993
G1 X31.371 Y114.064 E0.15675
G1 X28.621 Y114.064 E0.10777
G1 X28.621 Y47.388 E2.61294
G1 X32.073 Y43.936 E0.19131
G0 F2625 X32.111 Y44.028
G0 X40.679 Y45.994
G0 X40.749 Y46.064
G1 F900 X40.749 Y61.387 E0.60049
G1 X40.533 Y61.432 E0.00865
G1 X40.11 Y61.567 E0.0174
G1 X39.701 Y61.744 E0.01746
G1 X39.31 Y61.965 E0.0176
G1 X38.947 Y62.223 E0.01745
G1 X38.615 Y62.516 E0.01735
G1 X38.312 Y62.84 E0.01738
G1 X38.044 Y63.195 E0.01743
G1 X37.841 Y63.527 E0.01525
G1 X37.648 Y63.923 E0.01726
G1 X37.494 Y64.339 E0.01738
G1 X37.385 Y64.77 E0.01742
G1 X37.318 Y65.211 E0.01748
G1 X37.299 Y65.659 E0.01757
G1 X37.326 Y66.104 E0.01747
G1 X37.398 Y66.543 E0.01743
G1 X37.515 Y66.972 E0.01743
G1 X37.673 Y67.383 E0.01726
G1 X37.844 Y67.729 E0.01512
G1 X38.078 Y68.107 E0.01742
G1 X38.353 Y68.459 E0.01751
G1 X38.662 Y68.781 E0.01749
G1 X39 Y69.068 E0.01738
G1 X39.367 Y69.32 E0.01745
G1 X39.759 Y69.535 E0.01752
G1 X40.171 Y69.705 E0.01747
G1 X40.596 Y69.834 E0.01741
G1 X41.033 Y69.918 E0.01744
G1 X41.471 Y69.957 E0.01723
G1 X41.86 Y69.956 E0.01524
G1 X42.297 Y69.91 E0.01722
G1 X42.677 Y69.834 E0.01519
G1 X43.099 Y69.706 E0.01728
G1 X43.509 Y69.536 E0.01739
G1 X43.905 Y69.321 E0.01766
G1 X44.27 Y69.068 E0.0174
G1 X44.608 Y68.781 E0.01738
G1 X44.917 Y68.459 E0.01749
G1 X45.192 Y68.106 E0.01754
G1 X45.427 Y67.726 E0.01751
G1 X45.623 Y67.327 E0.01742
G1 X45.776 Y66.909 E0.01744
G1 X45.885 Y66.484 E0.01719
G1 X45.946 Y66.099 E0.01528
G1 X45.972 Y65.608 E0.01927
G1 X45.956 Y65.264 E0.0135
G1 X45.887 Y64.773 E0.01943
G1 X45.776 Y64.341 E0.01748
G1 X45.623 Y63.923 E0.01744
G1 X45.439 Y63.55 E0.0163
G1 X45.427 Y63.524 E0.00112
G1 X45.192 Y63.144 E0.01751
G1 X45.03 Y62.936 E0.01033
G1 X45.192 Y62.936 E0.00006
G1 X45.427 Y62.936 E0.00377
G1 X45.456 Y62.936 E0.00111
G1 X60.563 Y62.936 E0.59202
G1 X60.591 Y62.936 E0.0011
G1 X60.794 Y62.936 E0.00796
G1 X60.99 Y62.936 E0.00768
G1 X60.794 Y63.195 E0.00542
G1 X60.591 Y63.526 E0.01193
G1 X60.579 Y63.551 E0.00106
G1 X60.397 Y63.923 E0.01623
G1 X60.244 Y64.341 E0.01744
G1 X60.135 Y64.77 E0.01735
G1 X60.068 Y65.211 E0.01748
G1 X60.049 Y65.659 E0.01757
G1 X60.076 Y66.104 E0.01747
G1 X60.148 Y66.543 E0.01743
G1 X60.265 Y66.972 E0.01743
G1 X60.423 Y67.383 E0.01726
G1 X60.594 Y67.729 E0.01512
G1 X60.828 Y68.107 E0.01742
G1 X61.103 Y68.459 E0.01751
G1 X61.412 Y68.781 E0.01749
G1 X61.75 Y69.068 E0.01738
G1 X62.117 Y69.32 E0.01745
G1 X62.509 Y69.535 E0.01752
G1 X62.921 Y69.705 E0.01747
G1 X63.346 Y69.834 E0.01741
G1 X63.783 Y69.918 E0.01744
G1 X64.221 Y69.957 E0.01723
G1 X64.61 Y69.956 E0.01524
G1 X65.047 Y69.91 E0.01722
G1 X65.427 Y69.834 E0.01519
G1 X65.849 Y69.706 E0.01728
G1 X66.259 Y69.536 E0.01739
G1 X66.655 Y69.321 E0.01766
G1 X67.02 Y69.068 E0.0174
G1 X67.358 Y68.781 E0.01738
G1 X67.667 Y68.459 E0.01749
G1 X67.942 Y68.106 E0.01754
G1 X68.177 Y67.726 E0.01751
G1 X68.373 Y67.327 E0.01742
G1 X68.526 Y66.909 E0.01744
G1 X68.635 Y66.484 E0.01719
G1 X68.696 Y66.099 E0.01528
G1 X68.722 Y65.608 E0.01927
G1 X68.706 Y65.264 E0.0135
G1 X68.637 Y64.773 E0.01943
G1 X68.526 Y64.341 E0.01748
G1 X68.373 Y63.923 E0.01744
G1 X68.177 Y63.524 E0.01742
G1 X67.942 Y63.144 E0.01751
G1 X67.667 Y62.791 E0.01754
G1 X67.358 Y62.469 E0.01749
G1 X67.02 Y62.182 E0.01738
G1 X66.653 Y61.93 E0.01745
G1 X66.261 Y61.715 E0.01752
G1 X65.849 Y61.545 E0.01747
G1 X65.424 Y61.416 E0.01741
G1 X65.371 Y61.406 E0.00211
G1 X65.371 Y46.064 E0.60123
G1 X40.749 Y46.064 E0.9649
G0 F2625 X40.679 Y45.994
G0 X37.28 Y65.205
G0 X37.285 Y65.937
G0 X40.953 Y95.619
G0 X40.969 Y95.716
G1 F900 X40.533 Y95.807 E0.01745
G1 X40.11 Y95.942 E0.0174
G1 X39.701 Y96.119 E0.01746
G1 X39.31 Y96.34 E0.0176
G1 X38.947 Y96.598 E0.01745
G1 X38.615 Y96.891 E0.01735
G1 X38.312 Y97.215 E0.01738
G1 X38.044 Y97.57 E0.01743
G1 X37.841 Y97.902 E0.01525
G1 X37.648 Y98.298 E0.01726
G1 X37.494 Y98.714 E0.01738
G1 X37.385 Y99.145 E0.01742
G1 X37.318 Y99.586 E0.01748
G1 X37.299 Y100.034 E0.01757
G1 X37.326 Y100.479 E0.01747
G1 X37.398 Y100.918 E0.01743
G1 X37.515 Y101.347 E0.01743
G1 X37.673 Y101.758 E0.01726
G1 X37.844 Y102.104 E0.01512
G1 X38.078 Y102.482 E0.01742
G1 X38.353 Y102.834 E0.01751
G1 X38.662 Y103.156 E0.01749
G1 X39 Y103.443 E0.01738
G1 X39.367 Y103.695 E0.01745
G1 X39.759 Y103.91 E0.01752
G1 X40.171 Y104.08 E0.01747
G1 X40.596 Y104.209 E0.01741
G1 X41.033 Y104.293 E0.01744
G1 X41.471 Y104.332 E0.01723
G1 X41.86 Y104.331 E0.01524
G1 X42.297 Y104.285 E0.01722
G1 X42.676 Y104.209 E0.01515
G1 X43.1 Y104.081 E0.01736
G1 X43.509 Y103.911 E0.01736
G1 X43.905 Y103.696 E0.01766
G1 X44.27 Y103.443 E0.0174
G1 X44.608 Y103.156 E0.01738
G1 X44.917 Y102.834 E0.01749
G1 X45.192 Y102.481 E0.01754
G1 X45.427 Y102.101 E0.01751
G1 X45.623 Y101.702 E0.01742
G1 X45.776 Y101.284 E0.01744
G1 X45.885 Y100.859 E0.01719
G1 X45.946 Y100.474 E0.01528
G1 X45.972 Y99.983 E0.01927
G1 X45.956 Y99.639 E0.0135
G1 X45.887 Y99.148 E0.01943
G1 X45.776 Y98.716 E0.01748
G1 X45.623 Y98.298 E0.01744
G1 X45.427 Y97.899 E0.01742
G1 X45.192 Y97.519 E0.01751
G1 X44.917 Y97.166 E0.01754
G1 X44.608 Y96.844 E0.01749
G1 X44.27 Y96.557 E0.01738
G1 X43.903 Y96.305 E0.01745
G1 X43.511 Y96.091 E0.0175
G1 X43.1 Y95.92 E0.01744
G1 X42.674 Y95.791 E0.01744
G1 X42.237 Y95.707 E0.01744
G1 X41.799 Y95.668 E0.01723
G1 X41.41 Y95.669 E0.01524
G1 X40.969 Y95.716 E0.01738
G0 F2625 X40.953 Y95.619
G0 X62.007 Y96.257
G0 X62.06 Y96.34
G1 F900 X61.697 Y96.598 E0.01745
G1 X61.365 Y96.891 E0.01735
G1 X61.062 Y97.215 E0.01738
G1 X60.794 Y97.57 E0.01743
G1 X60.591 Y97.902 E0.01525
G1 X60.398 Y98.298 E0.01726
G1 X60.244 Y98.714 E0.01738
G1 X60.135 Y99.145 E0.01742
G1 X60.068 Y99.586 E0.01748
G1 X60.049 Y100.034 E0.01757
G1 X60.076 Y100.479 E0.01747
G1 X60.148 Y100.918 E0.01743
G1 X60.265 Y101.347 E0.01743
G1 X60.423 Y101.758 E0.01726
G1 X60.594 Y102.104 E0.01512
G1 X60.828 Y102.482 E0.01742
G1 X61.103 Y102.834 E0.01751
G1 X61.412 Y103.156 E0.01749
G1 X61.75 Y103.443 E0.01738
G1 X62.117 Y103.695 E0.01745
G1 X62.509 Y103.91 E0.01752
G1 X62.921 Y104.08 E0.01747
G1 X63.346 Y104.209 E0.01741
G1 X63.783 Y104.293 E0.01744
G1 X64.221 Y104.332 E0.01723
G1 X64.61 Y104.331 E0.01524
G1 X65.047 Y104.285 E0.01722
G1 X65.427 Y104.209 E0.01519
G1 X65.849 Y104.081 E0.01728
G1 X66.259 Y103.911 E0.01739
G1 X66.655 Y103.696 E0.01766
G1 X67.02 Y103.443 E0.0174
G1 X67.358 Y103.156 E0.01738
G1 X67.667 Y102.834 E0.01749
G1 X67.942 Y102.481 E0.01754
G1 X68.177 Y102.101 E0.01751
G1 X68.373 Y101.702 E0.01742
G1 X68.526 Y101.284 E0.01744
G1 X68.635 Y100.859 E0.01719
G1 X68.696 Y100.474 E0.01528
G1 X68.722 Y99.983 E0.01927
G1 X68.706 Y99.639 E0.0135
G1 X68.637 Y99.148 E0.01943
G1 X68.526 Y98.716 E0.01748
G1 X68.373 Y98.298 E0.01744
G1 X68.177 Y97.899 E0.01742
G1 X67.942 Y97.519 E0.01751
G1 X67.667 Y97.166 E0.01754
G1 X67.358 Y96.844 E0.01749
G1 X67.02 Y96.557 E0.01738
G1 X66.653 Y96.305 E0.01745
G1 X66.261 Y96.09 E0.01752
G1 X65.849 Y95.92 E0.01747
G1 X65.424 Y95.791 E0.01741
G1 X64.987 Y95.707 E0.01744
G1 X64.549 Y95.668 E0.01723
G1 X64.16 Y95.669 E0.01524
G1 X63.719 Y95.716 E0.01738
G1 X63.283 Y95.807 E0.01745
G1 X62.86 Y95.942 E0.0174
G1 X62.451 Y96.119 E0.01746
G1 X62.06 Y96.34 E0.0176
G0 F2625 X62.396 Y96.867
;TYPE:WALL-OUTER
G1 F900 X62.085 Y97.088 E0.01495
G1 X61.8 Y97.339 E0.01488
G1 X61.54 Y97.617 E0.01492
G1 X61.311 Y97.921 E0.01492
G1 X61.139 Y98.202 E0.01291
G1 X60.973 Y98.543 E0.01486
G1 X60.841 Y98.9 E0.01492
G1 X60.747 Y99.269 E0.01492
G1 X60.69 Y99.646 E0.01494
G1 X60.674 Y100.028 E0.01498
G1 X60.697 Y100.409 E0.01496
G1 X60.759 Y100.785 E0.01493
G1 X60.859 Y101.153 E0.01494
G1 X60.995 Y101.507 E0.01486
G1 X61.14 Y101.8 E0.01281
G1 X61.341 Y102.124 E0.01494
G1 X61.576 Y102.425 E0.01497
G1 X61.84 Y102.701 E0.01497
G1 X62.13 Y102.947 E0.0149
G1 X62.444 Y103.163 E0.01494
G1 X62.779 Y103.346 E0.01496
G1 X63.131 Y103.492 E0.01493
G1 X63.495 Y103.602 E0.0149
G1 X63.87 Y103.674 E0.01496
G1 X64.248 Y103.708 E0.01487
G1 X64.576 Y103.707 E0.01285
G1 X64.953 Y103.667 E0.01486
G1 X65.275 Y103.603 E0.01287
G1 X65.638 Y103.493 E0.01486
G1 X65.99 Y103.347 E0.01493
G1 X66.327 Y103.164 E0.01503
G1 X66.64 Y102.947 E0.01493
G1 X66.93 Y102.701 E0.0149
G1 X67.194 Y102.425 E0.01497
G1 X67.429 Y102.124 E0.01497
G1 X67.63 Y101.799 E0.01498
G1 X67.798 Y101.457 E0.01493
G1 X67.929 Y101.099 E0.01494
G1 X68.023 Y100.732 E0.01485
G1 X68.075 Y100.408 E0.01286
G1 X68.097 Y99.981 E0.01676
G1 X68.084 Y99.697 E0.01114
G1 X68.024 Y99.27 E0.0169
G1 X67.929 Y98.901 E0.01493
G1 X67.798 Y98.543 E0.01494
G1 X67.63 Y98.201 E0.01493
G1 X67.429 Y97.876 E0.01498
G1 X67.194 Y97.575 E0.01497
G1 X66.93 Y97.299 E0.01497
G1 X66.64 Y97.053 E0.0149
G1 X66.326 Y96.837 E0.01494
G1 X65.991 Y96.654 E0.01496
G1 X65.639 Y96.508 E0.01493
G1 X65.275 Y96.398 E0.0149
G1 X64.9 Y96.326 E0.01496
G1 X64.522 Y96.292 E0.01487
G1 X64.194 Y96.293 E0.01285
G1 X63.816 Y96.333 E0.0149
G1 X63.442 Y96.411 E0.01497
G1 X63.079 Y96.527 E0.01493
G1 X62.729 Y96.678 E0.01494
G1 X62.396 Y96.867 E0.01501
G0 F2625 X61.979 Y96.277
G0 X45.991 Y99.17
G0 X45.274 Y99.27
G1 F900 X45.179 Y98.901 E0.01493
G1 X45.048 Y98.543 E0.01494
G1 X44.88 Y98.201 E0.01493
G1 X44.679 Y97.876 E0.01498
G1 X44.444 Y97.575 E0.01497
G1 X44.18 Y97.299 E0.01497
G1 X43.89 Y97.053 E0.0149
G1 X43.576 Y96.837 E0.01494
G1 X43.241 Y96.654 E0.01496
G1 X42.89 Y96.508 E0.0149
G1 X42.525 Y96.398 E0.01494
G1 X42.15 Y96.326 E0.01496
G1 X41.772 Y96.292 E0.01487
G1 X41.444 Y96.293 E0.01285
G1 X41.066 Y96.333 E0.0149
G1 X40.692 Y96.411 E0.01497
G1 X40.329 Y96.527 E0.01493
G1 X39.979 Y96.678 E0.01494
G1 X39.646 Y96.867 E0.01501
G1 X39.335 Y97.088 E0.01495
G1 X39.05 Y97.339 E0.01488
G1 X38.79 Y97.617 E0.01492
G1 X38.561 Y97.921 E0.01492
G1 X38.389 Y98.202 E0.01291
G1 X38.223 Y98.543 E0.01486
G1 X38.091 Y98.9 E0.01492
G1 X37.997 Y99.269 E0.01492
G1 X37.94 Y99.646 E0.01494
G1 X37.924 Y100.028 E0.01498
G1 X37.947 Y100.409 E0.01496
G1 X38.009 Y100.785 E0.01493
G1 X38.109 Y101.153 E0.01494
G1 X38.245 Y101.507 E0.01486
G1 X38.39 Y101.8 E0.01281
G1 X38.591 Y102.124 E0.01494
G1 X38.826 Y102.425 E0.01497
G1 X39.09 Y102.701 E0.01497
G1 X39.38 Y102.947 E0.0149
G1 X39.694 Y103.163 E0.01494
G1 X40.029 Y103.346 E0.01496
G1 X40.381 Y103.492 E0.01493
G1 X40.745 Y103.602 E0.0149
G1 X41.12 Y103.674 E0.01496
G1 X41.498 Y103.708 E0.01487
G1 X41.826 Y103.707 E0.01285
G1 X42.203 Y103.667 E0.01486
G1 X42.525 Y103.603 E0.01287
G1 X42.889 Y103.493 E0.0149
G1 X43.24 Y103.347 E0.0149
G1 X43.577 Y103.164 E0.01503
G1 X43.89 Y102.947 E0.01493
G1 X44.18 Y102.701 E0.0149
G1 X44.444 Y102.425 E0.01497
G1 X44.679 Y102.124 E0.01497
G1 X44.88 Y101.799 E0.01498
G1 X45.048 Y101.457 E0.01493
G1 X45.179 Y101.099 E0.01494
G1 X45.273 Y100.732 E0.01485
G1 X45.325 Y100.408 E0.01286
G1 X45.347 Y99.981 E0.01676
G1 X45.334 Y99.697 E0.01114
