;Generated by Cura LulzBot Edition GCodeWriter Version: 3.6.18
;FLAVOR:Marlin(Volumetric)
;TIME:9970
;Generated with Cura_SteamEngine 3.6.18
M82 ;absolute extrusion mode
;This G-Code has been generated specifically for the LulzBot Mini 2 with SE 0.5mm Tool Head
M73 P0                  ; clear GLCD progress bar
M75 					; Start GLCD Print Timer
G26 					; clear potential 'probe fail' condition
M107 					; disable fans
M420 S0                 ; disable leveling matrix
G90 					; absolute positioning
M82 					; set extruder to absolute mode
G92 E0 					; set extruder position to 0
M140 S112 ; start bed heating up
G28         ; Home Axis
G0 X160 F9999 ;move toolhead to right
G0 Z5 F6000 ; Move to bottom of printer
G91         ; Set relative motion mode
M211 S0	; Turn off soft endstops
M400 ; Finish moves
M906 Z600 ; Lower current to 600mA
G0 Z-15 F500 ; Skip steppers against lower Z mounts
G90 ; Return to absolute mode
M400 ; Finish moves
M906 Z960 ; Restore default current
M211 S1	; Turn soft endstops back on
M400 ; Finish moves
G28 ; Rehome
M117 X-Axis Leveled
G0 X0 Y187 Z156 F200 			; move away from endstops
M117 Mini 2 Wiping...			; progress indicator message on LCD
M109 R170 	; soften filament before retraction
G1 E-15 F75 				; retract filament
M109 R170 	; wait for extruder to reach wiping temp
G1 X45 Y176 F11520 			; move above wiper pad
G1 Z0 F1200 				; push nozzle into wiper
G1 X45 Y178 Z-.5 F4000		; wiping
G1 X55 Y176 Z-.5 F4000		; wiping
G1 X45 Y177 Z0 F4000		; wiping
G1 X55 Y176 F4000		; wiping
G1 X45 Y178 F4000		; wiping
G1 X55 Y176 F4000		; wiping
G1 X45 Y178 F4000		; wiping
G1 X55 Y176 F4000		; wiping
G1 X60 Y178 F4000		; wiping
G1 X80 Y176 F4000		; wiping
G1 X60 Y178 F4000		; wiping
G1 X80 Y176 F4000		; wiping
G1 X60 Y178 F4000		; wiping
G1 X90 Y176 F4000		; wiping
G1 X80 Y178 F4000		; wiping
G1 X100 Y176 F4000		; wiping
G1 X80 Y178 F4000		; wiping
G1 X100 Y176 F4000		; wiping
G1 X80 Y178 F4000		; wiping
G1 X100 Y176 F4000		; wiping
G1 X110 Y178 F4000		; wiping
G1 X100 Y176 F4000		; wiping
G1 X110 Y178 F4000		; wiping
G1 X100 Y176 F4000		; wiping
G1 X110 Y178 F4000		; wiping
G1 X115 Y176 Z-0.5 F1000	; wiping
G1 Z10					; raise extruder
G28 X0 Y0				; home X and Y
M109 R170	; wait for extruder to reach probe temp
M204 S300				; set probing acceleration
G29					; start auto-leveling sequence
M420 S1                     ; enable leveling matrix
M425 Z			     		; use measured Z backlash for compensation
M425 Z F0		     		; turn off measured Z backlash compensation. (if activated in the quality settings, this command will automatically be ignored)
M204 S2000				; restore standard acceleration
G1 X5 Y15 Z10 F5000			; move up off last probe point
G4 S1					; pause
M400					; wait for moves to finish
M117 Heating...				; progress indicator message on LCD
M109 R250 ; wait for extruder to reach initial printing temp
M190 R112 ; wait for bed to reach printing temp
G1 Z2 E0 F75				; prime tiny bit of filment into the nozzle
M117 Mini 2 Printing...		; progress indicator message on LCD

M221 S100 T0
G92 E0
G10
;LAYER_COUNT:34
;LAYER:0
M107
M204 S800
M205 X10 Y10
G0 F2625 X13.354 Y30.171 Z0.4
;TYPE:SKIRT
G11
G1 F900 X13.827 Y29.969 E0.12858
G1 X14.148 Y29.878 E0.21199
G1 X14.483 Y29.801 E0.29793
G1 X15.224 Y29.717 E0.48436
G1 X128.424 Y29.671 E28.78437
G1 X128.439 Y29.671 E28.78812
G1 X146.959 Y29.747 E33.41816
G1 X147.471 Y29.789 E33.54659
G1 X148.177 Y29.985 E33.72976
G1 X148.721 Y30.203 E33.87628
G1 X149.183 Y30.431 E34.00507
G1 X149.692 Y30.803 E34.16269
G1 X150.292 Y31.337 E34.36349
G1 X150.648 Y31.708 E34.49203
G1 X150.943 Y32.13 E34.62076
G1 X151.107 Y32.445 E34.70954
G1 X151.468 Y33.242 E34.92828
G1 X151.643 Y33.726 E35.05694
G1 X151.741 Y34.231 E35.18555
G1 X151.763 Y34.607 E35.27971
G1 X151.803 Y89.495 E49.00171
G1 X151.763 Y90.007 E49.1301
G1 X151.645 Y90.508 E49.25878
G1 X151.45 Y90.984 E49.38738
G1 X151.281 Y91.282 E49.47302
G1 X149.361 Y94.285 E50.36411
G1 X146.623 Y99.032 E51.73411
G1 X144.154 Y103.932 E53.10583
G1 X141.973 Y108.949 E54.47347
G1 X140.981 Y111.519 E55.16218
G1 X140.196 Y113.703 E55.74237
G1 X140.083 Y113.977 E55.81647
G1 X139.529 Y115.17 E56.14531
G1 X139.327 Y115.54 E56.2507
G1 X138.633 Y116.642 E56.57628
G1 X138.35 Y117.028 E56.69594
G1 X137.365 Y118.182 E57.07524
G1 X137.085 Y118.472 E57.17602
G1 X136.378 Y119.121 E57.41595
G1 X136.101 Y119.349 E57.50564
G1 X135.14 Y120.056 E57.8039
G1 X134.827 Y120.26 E57.8973
G1 X133.899 Y120.793 E58.16485
G1 X133.573 Y120.957 E58.25608
G1 X132.543 Y121.406 E58.53698
G1 X132.27 Y121.511 E58.6101
G1 X131.663 Y121.714 E58.77012
G1 X131.469 Y121.772 E58.82074
G1 X130.636 Y121.995 E59.03632
G1 X128.533 Y122.558 E59.58058
G1 X123.274 Y124.197 E60.95771
G1 X118.157 Y126.115 E62.32387
G1 X113.159 Y128.319 E63.68946
G1 X108.258 Y130.82 E65.06503
G1 X106.368 Y131.88 E65.60677
G1 X105.901 Y132.096 E65.7354
G1 X105.407 Y132.237 E65.86383
G1 X104.748 Y132.303 E66.02941
G1 X15.357 Y132.297 E88.37716
G1 X14.686 Y132.228 E88.54579
G1 X14.178 Y132.123 E88.67548
G1 X13.684 Y131.98 E88.80405
G1 X13.188 Y131.746 E88.94115
G1 X12.527 Y131.363 E89.13214
G1 X12.103 Y131.071 E89.26084
G1 X11.73 Y130.717 E89.3894
G1 X11.526 Y130.468 E89.46988
G1 X11.026 Y129.793 E89.67988
G1 X10.753 Y129.357 E89.80849
G1 X10.479 Y128.646 E89.99898
G1 X10.307 Y127.977 E90.17167
G1 X10.218 Y127.47 E90.30036
G1 X10.203 Y127.152 E90.37994
G1 X10.197 Y70.5 E104.54294
G1 X10.203 Y70.306 E104.59147
G1 X10.386 Y67.196 E105.37031
G1 X10.465 Y61.692 E106.74645
G1 X10.199 Y55.626 E108.26441
G1 X10.196 Y55.48 E108.30092
G1 X10.203 Y34.849 E113.45867
G1 X10.285 Y34.116 E113.64306
G1 X10.414 Y33.548 E113.78868
G1 X10.567 Y33.057 E113.91725
G1 X10.706 Y32.754 E114.00059
G1 X10.914 Y32.354 E114.1133
G1 X11.186 Y31.917 E114.24199
G1 X11.443 Y31.609 E114.34227
G1 X11.876 Y31.15 E114.50002
G1 X12.257 Y30.804 E114.62869
G1 X12.75 Y30.487 E114.77522
G1 X13.354 Y30.171 E114.94564
G10
;MESH:
G0 F2625 X15.023 Y34.049
;TYPE:WALL-INNER
G11
G1 F900 X15.153 Y33.996 E114.98073
G1 X15.302 Y33.956 E115.0193
G1 X15.42 Y33.94 E115.04907
G1 X15.87 Y33.94 E115.16157
G1 X15.951 Y33.94 E115.18182
G1 X16.287 Y33.939 E115.26582
G1 X16.489 Y33.938 E115.31632
G1 X16.489 Y34.264 E115.36449
G1 X16.288 Y34.337 E115.40322
G1 X15.952 Y34.514 E115.48568
G1 X15.886 Y34.56 E115.50501
G1 X15.638 Y34.732 E115.58046
G1 X15.356 Y34.99 E115.67601
G1 X15.109 Y35.284 E115.77201
G1 X15.051 Y35.375 E115.79899
G1 X14.904 Y35.604 E115.86702
G1 X14.741 Y35.949 E115.96241
G1 X14.625 Y36.314 E116.05816
G1 X14.557 Y36.687 E116.15294
G1 X14.537 Y37.069 E116.24857
G1 X14.568 Y37.451 E116.34439
G1 X14.647 Y37.827 E116.44044
G1 X14.777 Y38.185 E116.53566
G1 X14.947 Y38.524 E116.63047
G1 X15.051 Y38.676 E116.67651
G1 X15.155 Y38.828 E116.72255
G1 X15.299 Y38.999 E116.77844
G1 X15.564 Y39.256 E116.87073
G1 X15.869 Y39.485 E116.96608
G1 X16.202 Y39.671 E117.06144
G1 X16.537 Y39.808 E117.15192
G1 X16.753 Y39.873 E117.20831
G1 X17.1 Y39.937 E117.29652
G1 X17.316 Y39.957 E117.35076
G1 X17.685 Y39.957 E117.44301
G1 X18.064 Y39.904 E117.53868
G1 X18.434 Y39.804 E117.6345
G1 X18.788 Y39.653 E117.73071
G1 X19.116 Y39.462 E117.8256
G1 X19.418 Y39.229 E117.92096
G1 X19.687 Y38.958 E118.01642
G1 X19.919 Y38.654 E118.11202
G1 X20.111 Y38.322 E118.2079
G1 X20.25 Y37.983 E118.2995
G1 X20.315 Y37.772 E118.3547
G1 X20.384 Y37.427 E118.44266
G1 X20.404 Y37.222 E118.49415
G1 X20.412 Y37.008 E118.54769
G1 X20.388 Y36.643 E118.63913
G1 X20.314 Y36.272 E118.73371
G1 X20.195 Y35.915 E118.82779
G1 X20.03 Y35.573 E118.92272
G1 X19.821 Y35.257 E119.01743
G1 X19.577 Y34.973 E119.11104
G1 X19.295 Y34.717 E119.20626
G1 X19.057 Y34.555 E119.27823
G1 X18.981 Y34.504 E119.30111
G1 X18.649 Y34.332 E119.39459
G1 X18.461 Y34.263 E119.44466
G1 X18.461 Y33.936 E119.52641
G1 X18.649 Y33.936 E119.55101
G1 X18.981 Y33.936 E119.61318
G1 X19.073 Y33.936 E119.63518
G1 X71.376 Y33.936 E132.71093
G1 X71.452 Y33.936 E132.72993
G1 X71.789 Y33.936 E132.81418
G1 X71.989 Y33.936 E132.86418
G1 X71.989 Y34.264 E132.92433
G1 X71.789 Y34.337 E132.95632
G1 X71.452 Y34.513 E133.03242
G1 X71.39 Y34.556 E133.05059
G1 X71.138 Y34.732 E133.12744
G1 X70.856 Y34.99 E133.22299
G1 X70.609 Y35.284 E133.31899
G1 X70.405 Y35.604 E133.41386
G1 X70.241 Y35.947 E133.50891
G1 X70.125 Y36.314 E133.60513
G1 X70.057 Y36.687 E133.69992
G1 X70.037 Y37.069 E133.79555
G1 X70.068 Y37.451 E133.89136
G1 X70.147 Y37.827 E133.98742
G1 X70.277 Y38.185 E134.08263
G1 X70.448 Y38.524 E134.17756
G1 X70.658 Y38.831 E134.27054
G1 X70.811 Y39.01 E134.32941
G1 X71.061 Y39.253 E134.41657
G1 X71.366 Y39.484 E134.51222
G1 X71.687 Y39.663 E134.60411
G1 X71.887 Y39.753 E134.65894
G1 X72.223 Y39.864 E134.7474
G1 X72.441 Y39.913 E134.80326
G1 X72.804 Y39.957 E134.89468
G1 X73.168 Y39.956 E134.98568
G1 X73.394 Y39.934 E135.04244
G1 X73.757 Y39.856 E135.13526
G1 X74.118 Y39.732 E135.23069
G1 X74.461 Y39.559 E135.32673
G1 X74.762 Y39.356 E135.41749
G1 X74.933 Y39.215 E135.4729
G1 X75.193 Y38.952 E135.56536
G1 X75.414 Y38.661 E135.65671
G1 X75.531 Y38.472 E135.71228
G1 X75.692 Y38.142 E135.80408
G1 X75.816 Y37.778 E135.90021
G1 X75.885 Y37.417 E135.9921
G1 X75.907 Y37.199 E136.04687
G1 X75.907 Y36.831 E136.13887
G1 X75.857 Y36.455 E136.2337
G1 X75.764 Y36.106 E136.32399
G1 X75.689 Y35.902 E136.37833
G1 X75.536 Y35.588 E136.46565
G1 X75.422 Y35.4 E136.52062
G1 X75.203 Y35.11 E136.61147
G1 X74.951 Y34.852 E136.70163
G1 X74.781 Y34.709 E136.75717
G1 X74.557 Y34.555 E136.82513
G1 X74.482 Y34.504 E136.8478
G1 X74.149 Y34.332 E136.9415
G1 X73.961 Y34.263 E136.99157
G1 X73.961 Y33.936 E137.07332
G1 X74.149 Y33.936 E137.09792
G1 X74.482 Y33.936 E137.16034
G1 X74.573 Y33.936 E137.1821
G1 X118.689 Y33.936 E148.2111
G1 X118.689 Y45.542 E151.1126
G1 X118.288 Y45.657 E151.21689
G1 X117.773 Y45.884 E151.3576
G1 X117.348 Y46.138 E151.48137
G1 X116.907 Y46.494 E151.62306
G1 X116.516 Y46.907 E151.76525
G1 X116.185 Y47.373 E151.90814
G1 X115.924 Y47.879 E152.05048
G1 X115.734 Y48.415 E152.19265
G1 X115.623 Y48.968 E152.33366
G1 X115.588 Y49.461 E152.45722
G1 X115.623 Y50.027 E152.59899
G1 X115.734 Y50.585 E152.74122
G1 X115.924 Y51.121 E152.88339
G1 X116.185 Y51.627 E153.02573
G1 X116.512 Y52.088 E153.16703
G1 X116.845 Y52.449 E153.28981
G1 X117.281 Y52.815 E153.43213
G1 X117.767 Y53.114 E153.57478
G1 X118.288 Y53.343 E153.71705
G1 X118.689 Y53.458 E153.82135
G1 X118.689 Y73.542 E158.84235
G1 X118.288 Y73.656 E158.94657
G1 X117.773 Y73.884 E159.08737
G1 X117.35 Y74.138 E159.21072
G1 X116.908 Y74.492 E159.35229
G1 X116.517 Y74.905 E159.49448
G1 X116.187 Y75.369 E159.63682
G1 X115.925 Y75.876 E159.77949
G1 X115.736 Y76.412 E159.92158
G1 X115.624 Y76.961 E160.06166
G1 X115.588 Y77.456 E160.18573
G1 X115.621 Y78.02 E160.32698
G1 X115.733 Y78.58 E160.46975
G1 X115.922 Y79.114 E160.61136
G1 X116.181 Y79.62 E160.75347
G1 X116.51 Y80.086 E160.89608
G1 X116.9 Y80.501 E161.03845
G1 X117.346 Y80.858 E161.18128
G1 X117.832 Y81.148 E161.32276
G1 X118.352 Y81.366 E161.46372
G1 X118.828 Y81.498 E161.58722
G1 X119.388 Y81.577 E161.7286
G1 X119.956 Y81.578 E161.8706
G1 X120.521 Y81.499 E162.01323
G1 X121.069 Y81.342 E162.15574
G1 X121.582 Y81.113 E162.29619
G1 X122.005 Y80.859 E162.41954
G1 X122.446 Y80.504 E162.56107
G1 X122.837 Y80.089 E162.70361
G1 X123.165 Y79.626 E162.84547
G1 X123.427 Y79.12 E162.98792
G1 X123.614 Y78.588 E163.12889
G1 X123.715 Y78.115 E163.24981
G1 X123.752 Y77.736 E163.34501
G1 X123.762 Y77.491 E163.40631
G1 X123.737 Y77.069 E163.512
G1 X123.709 Y76.866 E163.56323
G1 X123.613 Y76.407 E163.68046
G1 X123.422 Y75.868 E163.82342
G1 X123.156 Y75.358 E163.96722
G1 X122.821 Y74.892 E164.1107
G1 X122.429 Y74.481 E164.25269
G1 X122.043 Y74.169 E164.37677
G1 X121.557 Y73.872 E164.51916
G1 X121.031 Y73.645 E164.66239
G1 X120.661 Y73.543 E164.75834
G1 X120.661 Y53.459 E169.77934
G1 X121.068 Y53.342 E169.88521
G1 X121.521 Y53.146 E170.0086
G1 X122.012 Y52.854 E170.15142
G1 X122.459 Y52.493 E170.29506
G1 X122.846 Y52.077 E170.43711
G1 X123.135 Y51.676 E170.56068
G1 X123.404 Y51.173 E170.70328
G1 X123.601 Y50.633 E170.84699
G1 X123.718 Y50.091 E170.98561
G1 X123.753 Y49.778 E171.06435
G1 X123.76 Y49.436 E171.14986
G1 X123.751 Y49.217 E171.20466
G1 X123.719 Y48.913 E171.28108
G1 X123.603 Y48.372 E171.4194
G1 X123.438 Y47.905 E171.54323
G1 X123.179 Y47.397 E171.68578
G1 X122.85 Y46.927 E171.82921
G1 X122.459 Y46.507 E171.97266
G1 X122.012 Y46.146 E172.11631
G1 X121.518 Y45.852 E172.26002
G1 X120.995 Y45.633 E172.40177
G1 X120.661 Y45.541 E172.48838
G1 X120.661 Y33.936 E175.38963
G1 X126.877 Y33.936 E176.94363
G1 X126.952 Y33.936 E176.96238
G1 X127.288 Y33.936 E177.04638
G1 X127.489 Y33.936 E177.09663
G1 X127.489 Y34.264 E177.15682
G1 X127.288 Y34.337 E177.18894
G1 X126.952 Y34.514 E177.26504
G1 X126.891 Y34.556 E177.28289
G1 X126.638 Y34.732 E177.35994
G1 X126.356 Y34.99 E177.45549
G1 X126.109 Y35.284 E177.55149
G1 X125.904 Y35.604 E177.64649
G1 X125.741 Y35.949 E177.74189
G1 X125.625 Y36.314 E177.83763
G1 X125.557 Y36.687 E177.93242
G1 X125.537 Y37.069 E178.02805
G1 X125.568 Y37.451 E178.12386
G1 X125.647 Y37.827 E178.21992
G1 X125.777 Y38.185 E178.31514
G1 X125.947 Y38.524 E178.40994
G1 X126.155 Y38.828 E178.50203
G1 X126.299 Y38.999 E178.55792
G1 X126.564 Y39.256 E178.65021
G1 X126.869 Y39.485 E178.74556
G1 X127.202 Y39.671 E178.84092
G1 X127.537 Y39.808 E178.9314
G1 X127.753 Y39.873 E178.98779
G1 X128.1 Y39.937 E179.076
G1 X128.316 Y39.957 E179.13023
G1 X128.685 Y39.957 E179.22248
G1 X129.064 Y39.904 E179.31816
G1 X129.434 Y39.804 E179.41397
G1 X129.788 Y39.653 E179.51019
G1 X130.116 Y39.462 E179.60508
G1 X130.418 Y39.229 E179.70044
G1 X130.687 Y38.958 E179.7959
G1 X130.919 Y38.654 E179.8915
G1 X131.111 Y38.322 E179.98738
G1 X131.25 Y37.983 E180.07898
G1 X131.315 Y37.772 E180.13418
G1 X131.384 Y37.427 E180.22213
G1 X131.404 Y37.222 E180.27363
G1 X131.412 Y37.008 E180.32716
G1 X131.388 Y36.643 E180.41861
G1 X131.314 Y36.272 E180.51319
G1 X131.195 Y35.915 E180.60727
G1 X131.03 Y35.573 E180.7022
G1 X130.821 Y35.257 E180.79691
G1 X130.577 Y34.973 E180.89052
G1 X130.295 Y34.717 E180.98574
G1 X130.057 Y34.555 E181.05771
G1 X129.981 Y34.504 E181.08059
G1 X129.649 Y34.332 E181.17407
G1 X129.461 Y34.263 E181.22414
G1 X129.461 Y33.936 E181.30589
G1 X129.649 Y33.936 E181.31997
G1 X129.981 Y33.936 E181.38214
G1 X130.073 Y33.936 E181.40414
G1 X146.571 Y33.939 E185.52864
G1 X146.699 Y33.955 E185.56089
G1 X146.839 Y33.993 E185.59716
G1 X146.967 Y34.045 E185.6317
G1 X147.09 Y34.117 E185.66733
G1 X147.193 Y34.194 E185.69948
G1 X147.298 Y34.299 E185.7366
G1 X147.382 Y34.408 E185.77101
G1 X147.449 Y34.524 E185.8045
G1 X147.507 Y34.663 E185.84215
G1 X147.54 Y34.784 E185.8735
G1 X147.559 Y34.929 E185.91006
G1 X147.564 Y36.745 E186.36407
G1 X147.564 Y88.564 E199.31882
G1 X136.814 Y88.564 E202.00632
G1 X136.81 Y109.271 E207.18307
G1 X136.781 Y109.771 E207.30828
G1 X136.715 Y110.333 E207.44974
G1 X136.629 Y110.819 E207.57313
G1 X136.503 Y111.347 E207.70884
G1 X136.357 Y111.839 E207.83714
G1 X136.265 Y112.105 E207.9075
G1 X136.074 Y112.586 E208.03689
G1 X135.857 Y113.051 E208.16517
G1 X135.595 Y113.539 E208.30364
G1 X135.322 Y113.982 E208.43373
G1 X135.184 Y114.187 E208.49551
G1 X134.856 Y114.626 E208.63251
G1 X134.534 Y115.01 E208.7578
G1 X134.15 Y115.417 E208.89769
G1 X133.771 Y115.775 E209.02803
G1 X133.384 Y116.099 E209.15421
G1 X132.942 Y116.43 E209.29226
G1 X132.507 Y116.714 E209.42213
G1 X132.062 Y116.972 E209.55073
G1 X131.572 Y117.218 E209.6878
G1 X131.348 Y117.319 E209.74923
G1 X130.836 Y117.523 E209.88701
G1 X130.353 Y117.682 E210.01414
G1 X129.84 Y117.82 E210.14695
G1 X129.326 Y117.926 E210.27815
G1 X129.085 Y117.964 E210.33915
G1 X128.527 Y118.03 E210.47962
G1 X128.02 Y118.06 E210.60659
G1 X114.362 Y118.064 E214.02109
G1 X104.362 Y128.064 E217.55662
G1 X15.428 Y128.06 E239.79012
G1 X15.29 Y128.042 E239.82492
G1 X15.159 Y128.006 E239.85888
G1 X15.034 Y127.955 E239.89263
G1 X14.905 Y127.88 E239.92994
G1 X14.804 Y127.803 E239.96169
G1 X14.668 Y127.663 E240.01048
G1 X14.549 Y127.477 E240.06568
G1 X14.496 Y127.347 E240.10078
G1 X14.456 Y127.198 E240.13935
