;Generated by Cura LulzBot Edition GCodeWriter Version: 3.6.18
;FLAVOR:Marlin
;TIME:8151
;Filament used: 6.54422m
;Layer height: 0.38
;Generated with Cura_SteamEngine 3.6.18
M82 ;absolute extrusion mode
;This G-Code has been generated specifically for the LulzBot Mini 2 with SE 0.5mm Tool Head
M73 P0                  ; clear GLCD progress bar
M75 					; Start GLCD Print Timer
G26 					; clear potential 'probe fail' condition
M107 					; disable fans
M420 S0                 ; disable leveling matrix
G90 					; absolute positioning
M82 					; set extruder to absolute mode
G92 E0 					; set extruder position to 0
M140 S112.0 ; start bed heating up
G28                       ; Home Axis
G0 X160 F9999             ; Move toolhead to the right
G0 Z5 F6000               ; Move to bottom of printer
G91                       ; Set relative motion mode
M211 S0		  	  ; Turn off soft endstops
M400                      ; Finish moves
G0 Z-15 F500              ; Skip steppers against lower Z mounts
G90                       ; Return to absolute mode
M400                      ; Finish moves
M211 S1			  ; Turn soft endstops back on
M400                      ; Finish moves
G28                       ; Rehome
G0 X0 Y187 Z156 F200 			; move away from endstops
M117 Mini 2 Wiping...			; progress indicator message on LCD
M109 R170 	; soften filament before retraction
G1 E-15 F75 				; retract filament
M109 R170 	; wait for extruder to reach wiping temp
G1 X45 Y176 F11520 			; move above wiper pad
G1 Z0 F1200 				; push nozzle into wiper
G1 X45 Y178 Z-.5 F4000		; wiping
G1 X55 Y176 Z-.5 F4000		; wiping
G1 X45 Y177 Z0 F4000		; wiping
G1 X55 Y176 F4000		; wiping
G1 X45 Y178 F4000		; wiping
G1 X55 Y176 F4000		; wiping
G1 X45 Y178 F4000		; wiping
G1 X55 Y176 F4000		; wiping
G1 X60 Y178 F4000		; wiping
G1 X80 Y176 F4000		; wiping
G1 X60 Y178 F4000		; wiping
G1 X80 Y176 F4000		; wiping
G1 X60 Y178 F4000		; wiping
G1 X90 Y176 F4000		; wiping
G1 X80 Y178 F4000		; wiping
G1 X100 Y176 F4000		; wiping
G1 X80 Y178 F4000		; wiping
G1 X100 Y176 F4000		; wiping
G1 X80 Y178 F4000		; wiping
G1 X100 Y176 F4000		; wiping
G1 X110 Y178 F4000		; wiping
G1 X100 Y176 F4000		; wiping
G1 X110 Y178 F4000		; wiping
G1 X100 Y176 F4000		; wiping
G1 X110 Y178 F4000		; wiping
G1 X115 Y176 Z-0.5 F1000	; wiping
G1 Z10					; raise extruder
G28 X0 Y0				; home X and Y
M109 R170	; wait for extruder to reach probe temp
M204 S300				; set probing acceleration
G29					; start auto-leveling sequence
M420 S1                     ; enable leveling matrix
M425 Z			     		; use measured Z backlash for compensation
M425 Z F0		     		; turn off measured Z backlash compensation. (if activated in the quality settings, this command will automatically be ignored)
M204 S2000				; restore standard acceleration
G1 X5 Y15 Z10 F5000			; move up off last probe point
G4 S1					; pause
M400					; wait for moves to finish
M117 Heating...				; progress indicator message on LCD
M109 R245 ; wait for extruder to reach initial printing temp
M190 R112 ; wait for bed to reach printing temp
G1 Z2 E0 F75				; prime tiny bit of filment into the nozzle
M117 Mini 2 Printing...		; progress indicator message on LCD

M221 S100 T0
G92 E0
M92 X100.6
M92 Y100.6
G1 F600 E-1
;LAYER_COUNT:28
;LAYER:0
M107
G0 F2625 X13.661 Y30.097 Z0.425
;TYPE:SKIRT
G1 F600 E0
G1 F900 X13.994 Y29.996 E0.01159
G1 X14.51 Y29.869 E0.02929
G1 X15.013 Y29.787 E0.04627
G1 X15.288 Y29.775 E0.05544
G1 X146.888 Y29.802 E4.43908
G1 X147.396 Y29.842 E4.45606
G1 X147.935 Y29.976 E4.47456
G1 X148.437 Y30.147 E4.49222
G1 X148.905 Y30.348 E4.50919
G1 X149.346 Y30.628 E4.52659
G1 X149.915 Y31.057 E4.55033
G1 X150.296 Y31.395 E4.56729
G1 X150.706 Y31.917 E4.5894
G1 X151.095 Y32.533 E4.61367
G1 X151.332 Y32.983 E4.63061
G1 X151.502 Y33.487 E4.64833
G1 X151.63 Y34.004 E4.66607
G1 X151.713 Y34.507 E4.68305
G1 X151.725 Y34.784 E4.69229
G1 X151.74 Y89.49 E6.51456
G1 X151.7 Y89.998 E6.53154
G1 X151.582 Y90.494 E6.54852
G1 X151.387 Y90.964 E6.56547
G1 X151.23 Y91.239 E6.57602
G1 X149.31 Y94.248 E6.69492
G1 X146.564 Y99.007 E6.87794
G1 X144.106 Y103.885 E7.05989
G1 X141.916 Y108.921 E7.24281
G1 X140.919 Y111.503 E7.33501
G1 X140.019 Y113.97 E7.42249
G1 X139.892 Y114.271 E7.43337
G1 X139.418 Y115.251 E7.46963
G1 X139.19 Y115.648 E7.48488
G1 X138.236 Y117.068 E7.54186
G1 X137.961 Y117.422 E7.5568
G1 X137.271 Y118.194 E7.59129
G1 X137.017 Y118.448 E7.60325
G1 X136.111 Y119.26 E7.64378
G1 X135.81 Y119.5 E7.6566
G1 X134.883 Y120.151 E7.69433
G1 X134.46 Y120.402 E7.71072
G1 X132.784 Y121.234 E7.77305
G1 X132.232 Y121.448 E7.79277
G1 X126.651 Y123.042 E7.98611
G1 X124.022 Y123.877 E8.07799
G1 X118.899 Y125.75 E8.25969
G1 X116.388 Y126.789 E8.35021
G1 X111.405 Y129.105 E8.53324
G1 X106.295 Y131.849 E8.72645
G1 X105.828 Y132.054 E8.74344
G1 X105.335 Y132.184 E8.76042
G1 X104.756 Y132.236 E8.77979
G1 X15.112 Y132.198 E11.76586
G1 X14.604 Y132.158 E11.78283
G1 X14.063 Y132.024 E11.8014
G1 X13.559 Y131.852 E11.81914
G1 X13.091 Y131.65 E11.83612
G1 X12.651 Y131.37 E11.85349
G1 X12.084 Y130.942 E11.87715
G1 X11.703 Y130.604 E11.89412
G1 X11.292 Y130.08 E11.9163
G1 X10.902 Y129.461 E11.94067
G1 X10.665 Y129.01 E11.95764
G1 X10.496 Y128.506 E11.97535
G1 X10.369 Y127.99 E11.99305
G1 X10.287 Y127.487 E12.01003
G1 X10.275 Y127.214 E12.01913
G1 X10.26 Y70.501 E13.90826
G1 X10.266 Y70.309 E13.91466
G1 X10.449 Y67.2 E14.0184
G1 X10.528 Y61.69 E14.20196
G1 X10.262 Y55.632 E14.40395
G1 X10.259 Y55.488 E14.40875
G1 X10.274 Y34.779 E15.09857
G1 X10.314 Y34.271 E15.11555
G1 X10.369 Y34 E15.12476
G1 X10.49 Y33.511 E15.14154
G1 X10.75 Y32.814 E15.16632
G1 X10.945 Y32.432 E15.1806
G1 X11.212 Y31.998 E15.19758
G1 X11.497 Y31.657 E15.21238
G1 X11.996 Y31.138 E15.23636
G1 X12.377 Y30.8 E15.25333
G1 X12.766 Y30.547 E15.26879
G1 X13.198 Y30.308 E15.28523
G1 X13.661 Y30.097 E15.30218
G1 F600 E14.30218
;MESH:
G0 F2625 X15.056 Y33.833
;TYPE:WALL-INNER
G1 F600 E15.30218
G1 F900 X15.205 Y33.786 E15.30738
G1 X15.344 Y33.761 E15.31209
G1 X15.529 Y33.75 E15.31826
G1 X146.471 Y33.75 E19.67999
G1 X146.656 Y33.761 E19.68616
G1 X146.795 Y33.786 E19.69086
G1 X146.944 Y33.833 E19.69607
G1 X147.078 Y33.893 E19.70096
G1 X147.213 Y33.975 E19.70622
G1 X147.321 Y34.06 E19.7108
G1 X147.44 Y34.179 E19.71641
G1 X147.525 Y34.287 E19.72098
G1 X147.607 Y34.422 E19.72624
G1 X147.667 Y34.556 E19.73114
G1 X147.714 Y34.706 E19.73637
G1 X147.738 Y34.838 E19.74084
G1 X147.75 Y35.032 E19.74731
G1 X147.75 Y88.75 E21.53668
G1 X137 Y88.75 E21.89477
G1 X137 Y108.979 E22.5686
G1 X136.984 Y109.531 E22.587
G1 X136.942 Y110.026 E22.60355
G1 X136.867 Y110.56 E22.62151
G1 X136.769 Y111.053 E22.63825
G1 X136.641 Y111.553 E22.65544
G1 X136.484 Y112.047 E22.67271
G1 X136.298 Y112.534 E22.69007
G1 X136.084 Y113.014 E22.70758
G1 X135.838 Y113.488 E22.72537
G1 X135.593 Y113.904 E22.74145
G1 X135.298 Y114.346 E22.75915
G1 X134.986 Y114.761 E22.77645
G1 X134.649 Y115.159 E22.79382
G1 X134.29 Y115.54 E22.81126
G1 X133.909 Y115.899 E22.82869
G1 X133.515 Y116.232 E22.84588
G1 X133.096 Y116.548 E22.86336
G1 X132.677 Y116.828 E22.88015
G1 X132.226 Y117.095 E22.8976
G1 X131.766 Y117.333 E22.91486
G1 X131.285 Y117.547 E22.93239
G1 X130.797 Y117.734 E22.9498
G1 X130.31 Y117.889 E22.96683
G1 X129.81 Y118.017 E22.98402
G1 X129.31 Y118.117 E23.001
G1 X128.776 Y118.192 E23.01896
G1 X128.281 Y118.234 E23.03551
G1 X127.729 Y118.25 E23.05391
G1 X114.439 Y118.25 E23.4966
G1 X104.438 Y128.25 E23.96771
G1 X15.529 Y128.25 E26.9293
G1 X15.344 Y128.239 E26.93547
G1 X15.205 Y128.214 E26.94017
G1 X15.056 Y128.167 E26.94538
G1 X14.922 Y128.107 E26.95027
G1 X14.787 Y128.025 E26.95553
G1 X14.679 Y127.94 E26.96011
G1 X14.56 Y127.821 E26.96571
G1 X14.475 Y127.713 E26.97029
G1 X14.393 Y127.578 E26.97555
G1 X14.333 Y127.444 E26.98044
G1 X14.286 Y127.295 E26.98565
G1 X14.261 Y127.156 E26.99035
G1 X14.25 Y126.971 E26.99653
G1 X14.25 Y109.825 E27.56767
G1 X14.847 Y109.825 E27.58755
G1 X14.936 Y110.082 E27.59661
G1 X15.084 Y110.387 E27.6079
G1 X15.272 Y110.674 E27.61933
G1 X15.494 Y110.934 E27.63072
G1 X15.744 Y111.164 E27.64204
G1 X16.021 Y111.36 E27.65334
G1 X16.319 Y111.522 E27.66464
G1 X16.636 Y111.645 E27.67597
G1 X16.965 Y111.728 E27.68727
G1 X17.302 Y111.771 E27.69858
G1 X17.646 Y111.771 E27.71004
G1 X17.982 Y111.729 E27.72132
G1 X18.312 Y111.646 E27.73266
G1 X18.63 Y111.523 E27.74401
G1 X18.928 Y111.361 E27.75531
G1 X19.205 Y111.165 E27.76662
G1 X19.455 Y110.935 E27.77793
G1 X19.677 Y110.675 E27.78932
G1 X19.865 Y110.388 E27.80075
G1 X20.013 Y110.084 E27.81201
G1 X20.103 Y109.825 E27.82114
G1 X55.25 Y109.825 E28.9919
G1 X55.25 Y116.25 E29.20592
G1 X112.75 Y116.25 E31.12127
G1 X112.75 Y109.825 E31.33529
G1 X125.846 Y109.825 E31.77152
G1 X125.938 Y110.091 E31.7809
G1 X126.091 Y110.398 E31.79232
G1 X126.28 Y110.683 E31.80371
G1 X126.501 Y110.943 E31.81508
G1 X126.757 Y111.175 E31.82659
G1 X127.04 Y111.373 E31.83809
G1 X127.343 Y111.532 E31.84949
G1 X127.661 Y111.652 E31.86081
G1 X127.994 Y111.734 E31.87224
G1 X128.334 Y111.772 E31.88363
G1 X128.678 Y111.77 E31.89509
G1 X129.017 Y111.723 E31.90649
G1 X129.35 Y111.635 E31.91797
G1 X129.669 Y111.505 E31.92944
G1 X129.967 Y111.337 E31.94083
G1 X130.243 Y111.134 E31.95225
G1 X130.491 Y110.897 E31.96367
G1 X130.709 Y110.631 E31.97513
G1 X130.89 Y110.342 E31.98649
G1 X131.035 Y110.033 E31.99786
G1 X131.14 Y109.704 E32.00936
G1 X131.204 Y109.371 E32.02066
G1 X131.227 Y109.026 E32.03218
G1 X131.205 Y108.682 E32.04366
G1 X131.142 Y108.347 E32.05501
G1 X131.036 Y108.018 E32.06653
G1 X130.891 Y107.709 E32.0779
G1 X130.71 Y107.42 E32.08925
G1 X130.492 Y107.154 E32.10071
G1 X130.244 Y106.917 E32.11214
G1 X129.968 Y106.714 E32.12355
G1 X129.67 Y106.546 E32.13495
G1 X129.351 Y106.416 E32.14642
G1 X129.018 Y106.328 E32.15789
G1 X128.682 Y106.281 E32.16919
G1 X128.338 Y106.277 E32.18065
G1 X127.995 Y106.315 E32.19215
G1 X127.662 Y106.397 E32.20357
G1 X127.344 Y106.517 E32.21489
G1 X127.041 Y106.676 E32.22629
G1 X126.758 Y106.874 E32.2378
G1 X126.502 Y107.106 E32.24931
G1 X126.281 Y107.366 E32.26067
G1 X126.092 Y107.651 E32.27206
G1 X125.939 Y107.958 E32.28349
G1 X125.846 Y108.225 E32.29291
G1 X112.75 Y108.225 E32.72914
G1 X112.75 Y104.75 E32.84489
G1 X55.25 Y104.75 E34.76024
G1 X55.25 Y108.225 E34.87599
G1 X20.103 Y108.225 E36.04675
G1 X20.014 Y107.968 E36.05581
G1 X19.866 Y107.663 E36.0671
G1 X19.678 Y107.376 E36.07853
G1 X19.456 Y107.116 E36.08992
G1 X19.206 Y106.886 E36.10124
G1 X18.929 Y106.69 E36.11254
G1 X18.631 Y106.528 E36.12384
G1 X18.314 Y106.405 E36.13517
G1 X17.985 Y106.322 E36.14647
G1 X17.648 Y106.279 E36.15778
G1 X17.304 Y106.279 E36.16924
G1 X16.968 Y106.321 E36.18052
G1 X16.638 Y106.404 E36.19186
G1 X16.32 Y106.527 E36.20321
G1 X16.022 Y106.689 E36.21451
G1 X15.745 Y106.885 E36.22582
G1 X15.495 Y107.115 E36.23713
G1 X15.273 Y107.375 E36.24852
G1 X15.085 Y107.662 E36.25995
G1 X14.937 Y107.966 E36.27121
G1 X14.847 Y108.225 E36.28034
G1 X14.25 Y108.225 E36.30023
G1 X14.25 Y78.3 E37.29704
G1 X14.881 Y78.3 E37.31806
G1 X14.934 Y78.563 E37.327
G1 X15.107 Y79.043 E37.344
G1 X15.337 Y79.497 E37.36095
G1 X15.619 Y79.903 E37.37741
G1 X15.81 Y80.129 E37.38727
G1 X16.018 Y80.338 E37.39709
G1 X16.399 Y80.654 E37.41358
G1 X16.815 Y80.912 E37.42989
G1 X16.952 Y80.983 E37.43503
G1 X17.4 Y81.174 E37.45125
G1 X17.89 Y81.307 E37.46816
G1 X18.39 Y81.38 E37.48499
G1 X18.901 Y81.382 E37.50202
G1 X19.384 Y81.32 E37.51824
G1 X19.536 Y81.289 E37.5234
G1 X20.002 Y81.154 E37.53956
G1 X20.466 Y80.951 E37.55644
G1 X20.901 Y80.69 E37.57333
G1 X21.29 Y80.377 E37.58997
G1 X21.539 Y80.132 E37.6016
G1 X21.696 Y79.946 E37.60971
G1 X21.981 Y79.549 E37.62599
G1 X22.21 Y79.113 E37.64239
G1 X22.269 Y78.976 E37.64736
G1 X22.415 Y78.569 E37.66176
G1 X22.472 Y78.3 E37.67092
G1 X45.25 Y78.3 E38.42967
G1 X45.25 Y91.25 E38.86104
G1 X51.75 Y91.25 E39.07755
G1 X51.75 Y78.3 E39.50892
G1 X115.882 Y78.3 E41.64518
G1 X115.936 Y78.563 E41.65413
G1 X116.107 Y79.044 E41.67113
G1 X116.338 Y79.498 E41.6881
G1 X116.62 Y79.904 E41.70457
G1 X116.813 Y80.132 E41.71452
G1 X117.021 Y80.34 E41.72431
G1 X117.401 Y80.655 E41.74076
G1 X117.817 Y80.913 E41.75706
G1 X117.954 Y80.984 E41.7622
G1 X118.403 Y81.175 E41.77845
G1 X118.879 Y81.305 E41.79489
G1 X119.12 Y81.348 E41.80305
G1 X119.408 Y81.379 E41.81269
G1 X119.904 Y81.382 E41.82922
G1 X120.408 Y81.318 E41.84614
G1 X120.95 Y81.174 E41.86482
G1 X121.407 Y80.98 E41.88136
G1 X121.672 Y80.838 E41.89137
G1 X121.916 Y80.676 E41.90113
G1 X122.302 Y80.368 E41.91758
G1 X122.64 Y80.012 E41.93393
G1 X122.738 Y79.891 E41.93912
G1 X123.015 Y79.491 E41.95532
G1 X123.24 Y79.051 E41.97179
G1 X123.331 Y78.824 E41.97993
G1 X123.419 Y78.548 E41.98958
G1 X123.521 Y78.074 E42.00573
G1 X123.555 Y77.732 E42.01718
G1 X123.563 Y77.502 E42.02485
G1 X123.556 Y77.269 E42.03261
G1 X123.519 Y76.927 E42.04407
G1 X123.42 Y76.458 E42.06004
G1 X123.347 Y76.221 E42.0683
G1 X123.24 Y75.953 E42.07791
G1 X123.018 Y75.511 E42.09439
G1 X122.74 Y75.112 E42.11058
G1 X122.643 Y74.991 E42.11575
G1 X122.304 Y74.635 E42.13213
G1 X121.921 Y74.326 E42.14852
G1 X121.717 Y74.191 E42.15667
G1 X121.464 Y74.049 E42.16633
G1 X121.013 Y73.85 E42.18275
G1 X120.545 Y73.712 E42.199
G1 X120.475 Y73.698 E42.20138
G1 X120.475 Y53.305 E42.88068
G1 X120.957 Y53.171 E42.89734
G1 X121.413 Y52.977 E42.91385
G1 X121.716 Y52.809 E42.92539
G1 X121.919 Y52.674 E42.93351
G1 X122.305 Y52.366 E42.94996
G1 X122.643 Y52.009 E42.96634
G1 X122.739 Y51.889 E42.97146
G1 X123.016 Y51.49 E42.98764
G1 X123.24 Y51.048 E43.00414
G1 X123.347 Y50.779 E43.01379
G1 X123.419 Y50.543 E43.022
G1 X123.521 Y50.073 E43.03803
G1 X123.555 Y49.732 E43.04944
G1 X123.563 Y49.502 E43.05711
G1 X123.556 Y49.269 E43.06487
G1 X123.519 Y48.926 E43.07636
G1 X123.419 Y48.453 E43.09247
G1 X123.331 Y48.176 E43.10215
G1 X123.24 Y47.949 E43.11029
G1 X123.016 Y47.51 E43.12671
G1 X122.739 Y47.11 E43.14292
G1 X122.643 Y46.992 E43.14799
G1 X122.346 Y46.673 E43.1625
G1 X121.964 Y46.357 E43.17902
G1 X121.675 Y46.165 E43.19058
G1 X121.457 Y46.046 E43.19885
G1 X121.011 Y45.848 E43.2151
G1 X120.54 Y45.711 E43.23144
G1 X120.391 Y45.681 E43.23651
G1 X119.962 Y45.621 E43.25094
G1 X119.465 Y45.618 E43.26749
G1 X119.123 Y45.651 E43.27894
G1 X118.879 Y45.695 E43.28719
G1 X118.405 Y45.823 E43.30355
G1 X117.936 Y46.023 E43.32053
G1 X117.454 Y46.307 E43.33917
G1 X117.062 Y46.62 E43.35588
G1 X116.813 Y46.866 E43.36754
G1 X116.656 Y47.053 E43.37567
G1 X116.37 Y47.45 E43.39197
G1 X116.14 Y47.885 E43.40836
G1 X116.079 Y48.029 E43.41357
G1 X115.922 Y48.486 E43.42967
G1 X115.878 Y48.7 E43.43694
G1 X22.469 Y48.7 E46.54843
G1 X22.416 Y48.437 E46.55737
G1 X22.243 Y47.957 E46.57436
G1 X22.013 Y47.503 E46.59132
G1 X21.731 Y47.097 E46.60778
G1 X21.54 Y46.871 E46.61764
G1 X21.332 Y46.662 E46.62746
G1 X20.951 Y46.346 E46.64395
G1 X20.535 Y46.088 E46.66025
G1 X20.398 Y46.017 E46.66539
G1 X19.95 Y45.826 E46.68162
G1 X19.46 Y45.693 E46.69853
G1 X18.96 Y45.62 E46.71536
G1 X18.449 Y45.618 E46.73238
G1 X17.966 Y45.68 E46.7486
G1 X17.814 Y45.711 E46.75377
G1 X17.348 Y45.846 E46.76993
G1 X16.884 Y46.049 E46.7868
G1 X16.449 Y46.31 E46.8037
G1 X16.06 Y46.623 E46.82033
G1 X15.811 Y46.868 E46.83197
G1 X15.654 Y47.054 E46.84008
G1 X15.369 Y47.451 E46.85636
G1 X15.14 Y47.887 E46.87276
G1 X15.081 Y48.024 E46.87773
G1 X14.935 Y48.431 E46.89213
G1 X14.878 Y48.7 E46.90129
G1 X14.25 Y48.7 E46.92221
G1 X14.25 Y35.032 E47.3775
G1 X14.262 Y34.838 E47.38397
G1 X14.286 Y34.706 E47.38844
G1 X14.333 Y34.556 E47.39368
G1 X14.393 Y34.422 E47.39857
G1 X14.475 Y34.287 E47.40383
G1 X14.56 Y34.179 E47.40841
G1 X14.679 Y34.06 E47.41401
G1 X14.787 Y33.975 E47.41859
G1 X14.922 Y33.893 E47.42385
G1 X15.056 Y33.833 E47.42874
G1 F600 E46.42874
G0 F2625 X16.281 Y34.545
G1 F600 E47.42874
G1 F900 X15.983 Y34.713 E47.44014
G1 X15.707 Y34.916 E47.45155
G1 X15.459 Y35.153 E47.46298
G1 X15.241 Y35.419 E47.47443
G1 X15.06 Y35.708 E47.48579
G1 X14.915 Y36.017 E47.49716
G1 X14.81 Y36.344 E47.5086
G1 X14.746 Y36.68 E47.52
G1 X14.723 Y37.024 E47.53148
G1 X14.745 Y37.368 E47.54296
G1 X14.808 Y37.703 E47.55432
G1 X14.914 Y38.032 E47.56583
G1 X15.059 Y38.341 E47.5772
G1 X15.24 Y38.63 E47.58856
