;Generated by Cura LulzBot Edition GCodeWriter Version: 3.6.14
;FLAVOR:Marlin
;TIME:10072
;Filament used: 7.57973m
;Layer height: 0.27
;Generated with Cura_SteamEngine 3.6.14
M82 ;absolute extrusion mode
;This G-Code has been generated specifically for the LulzBot Mini 2 with SE 0.5mm Tool Head
M73 P0                  ; clear GLCD progress bar
M75 					; Start GLCD Print Timer
G26 					; clear potential 'probe fail' condition
M107 					; disable fans
M420 S0                 ; disable leveling matrix
G90 					; absolute positioning
M82 					; set extruder to absolute mode
G92 E0 					; set extruder position to 0
M140 S115.0 	; start bed heating up
G28 					; home all axes
G28                       ; Home Axis
G0 X160 F9999             ; Move toolhead to the right
G0 Z5 F6000               ; Move to bottom of printer
G91                       ; Set relative motion mode
M211 S0		  	  ; Turn off soft endstops
M400                      ; Finish moves
G0 Z-15 F500              ; Skip steppers against lower Z mounts
G90                       ; Return to absolute mode
M400                      ; Finish moves
M211 S1			  ; Turn soft endstops back on
M400                      ; Finish moves
G28                       ; Rehome
M117 X-Axis Leveled
G0 X0 Y187 Z156 F200 			; move away from endstops
M117 Mini 2 Wiping...			; progress indicator message on LCD
M109 R170 	; soften filament before retraction
G1 E-15 F75 				; retract filament
M109 R170 	; wait for extruder to reach wiping temp
G1 X45 Y176 F11520 			; move above wiper pad
G1 Z0 F1200 				; push nozzle into wiper
G1 X45 Y178 Z-.5 F4000		; wiping
G1 X55 Y176 Z-.5 F4000		; wiping
G1 X45 Y177 Z0 F4000		; wiping
G1 X55 Y176 F4000		; wiping
G1 X45 Y178 F4000		; wiping
G1 X55 Y176 F4000		; wiping
G1 X45 Y178 F4000		; wiping
G1 X55 Y176 F4000		; wiping
G1 X60 Y178 F4000		; wiping
G1 X80 Y176 F4000		; wiping
G1 X60 Y178 F4000		; wiping
G1 X80 Y176 F4000		; wiping
G1 X60 Y178 F4000		; wiping
G1 X90 Y176 F4000		; wiping
G1 X80 Y178 F4000		; wiping
G1 X100 Y176 F4000		; wiping
G1 X80 Y178 F4000		; wiping
G1 X100 Y176 F4000		; wiping
G1 X80 Y178 F4000		; wiping
G1 X100 Y176 F4000		; wiping
G1 X110 Y178 F4000		; wiping
G1 X100 Y176 F4000		; wiping
G1 X110 Y178 F4000		; wiping
G1 X100 Y176 F4000		; wiping
G1 X110 Y178 F4000		; wiping
G1 X115 Y176 Z-0.5 F1000	; wiping
G1 Z10					; raise extruder
G28 X0 Y0				; home X and Y
M109 R170	; wait for extruder to reach probe temp
M204 S300				; set probing acceleration
G29					; start auto-leveling sequence
M420 S1                     ; enable leveling matrix
M425 Z			     		; use measured Z backlash for compensation
M425 Z F0		     		; turn off measured Z backlash compensation. (if activated in the quality settings, this command will automatically be ignored)
M204 S2000				; restore standard acceleration
G1 X5 Y15 Z10 F5000			; move up off last probe point
G4 S1					; pause
M400					; wait for moves to finish
M117 Heating...				; progress indicator message on LCD
M109 R250	; wait for extruder to reach initial printing temp
M190 S116.0 ; wait for bed to reach printing temp
G1 Z2 E0 F75				; prime tiny bit of filment into the nozzle
M117 Mini 2 Printing...		; progress indicator message on LCD
M221 S100 T0
M83 ;relative extrusion mode
G1 F600 E-1
;LAYER_COUNT:34
;LAYER:0
M107
M204 S800
M205 X10 Y10
G0 F2625 X27.173 Y41.74 Z0.4
;TYPE:SKIRT
G1 F600 E1
G1 F900 X28.101 Y41.207 E0.04194
G1 X28.429 Y41.042 E0.01439
G1 X29.465 Y40.591 E0.04428
G1 X29.736 Y40.487 E0.01138
G1 X30.337 Y40.286 E0.02483
G1 X30.531 Y40.228 E0.00794
G1 X31.364 Y40.005 E0.03379
G1 X33.467 Y39.442 E0.08532
G1 X38.726 Y37.803 E0.21587
G1 X43.843 Y35.885 E0.21415
G1 X48.841 Y33.681 E0.21406
G1 X53.742 Y31.18 E0.21563
G1 X55.632 Y30.12 E0.08492
G1 X56.099 Y29.904 E0.02016
G1 X56.593 Y29.763 E0.02013
G1 X57.253 Y29.697 E0.02599
G1 X146.889 Y29.735 E3.51271
G1 X147.402 Y29.775 E0.02016
G1 X147.737 Y29.846 E0.01342
G1 X147.986 Y29.912 E0.01009
G1 X148.644 Y30.164 E0.02761
G1 X149.155 Y30.425 E0.02249
G1 X149.594 Y30.693 E0.02016
G1 X149.975 Y31.017 E0.0196
G1 X150.429 Y31.465 E0.025
G1 X150.766 Y31.853 E0.02014
G1 X151.046 Y32.304 E0.0208
G1 X151.336 Y32.866 E0.02478
G1 X151.536 Y33.34 E0.02016
G1 X151.631 Y33.688 E0.01414
G1 X151.718 Y34.092 E0.0162
G1 X151.792 Y34.788 E0.02743
G1 X151.813 Y90.789 E2.1946
G1 X151.81 Y90.926 E0.00537
G1 X151.535 Y97.593 E0.26149
G1 X151.613 Y103.107 E0.21611
G1 X151.808 Y106.645 E0.13886
G1 X151.813 Y106.829 E0.00721
G1 X151.798 Y127.147 E0.79624
G1 X151.729 Y127.818 E0.02643
G1 X151.624 Y128.324 E0.02025
G1 X151.481 Y128.818 E0.02015
G1 X151.188 Y129.409 E0.02585
G1 X150.724 Y130.15 E0.03426
G1 X150.418 Y130.564 E0.02017
G1 X150.052 Y130.925 E0.02015
G1 X149.693 Y131.188 E0.01744
G1 X148.919 Y131.68 E0.03594
G1 X148.465 Y131.921 E0.02014
G1 X147.81 Y132.129 E0.02693
G1 X147.324 Y132.229 E0.01944
G1 X146.655 Y132.297 E0.02635
G1 X15.053 Y132.252 E5.15731
G1 X14.54 Y132.212 E0.02016
G1 X13.825 Y132.015 E0.02906
G1 X13.282 Y131.798 E0.02292
G1 X12.82 Y131.571 E0.02017
G1 X12.555 Y131.396 E0.01245
G1 X12.212 Y131.145 E0.01666
G1 X11.821 Y130.809 E0.0202
G1 X11.53 Y130.475 E0.01736
G1 X11.085 Y129.889 E0.02884
G1 X10.806 Y129.456 E0.02019
G1 X10.529 Y128.765 E0.02917
G1 X10.321 Y128.01 E0.03069
G1 X10.223 Y127.505 E0.02016
G1 X10.202 Y127.13 E0.01472
G1 X10.199 Y72.5 E2.14088
G1 X10.239 Y71.987 E0.02016
G1 X10.358 Y71.487 E0.02014
G1 X10.553 Y71.011 E0.02016
G1 X10.721 Y70.715 E0.01334
G1 X12.639 Y67.715 E0.13954
G1 X15.377 Y62.968 E0.21475
G1 X17.846 Y58.067 E0.21506
G1 X20.014 Y53.084 E0.21296
G1 X21.819 Y48.257 E0.20196
G1 X21.917 Y48.023 E0.00994
G1 X22.471 Y46.83 E0.05155
G1 X22.673 Y46.46 E0.01652
G1 X23.367 Y45.358 E0.05104
G1 X23.65 Y44.972 E0.01876
G1 X24.635 Y43.818 E0.05946
G1 X24.915 Y43.528 E0.0158
G1 X25.622 Y42.879 E0.03761
G1 X25.899 Y42.651 E0.01406
G1 X26.86 Y41.944 E0.04675
G1 X27.173 Y41.74 E0.01464
G1 F600 E-1
;MESH:
G0 F2625 X28.615 Y43.948
G0 X29.503 Y45.303
G0 X29.545 Y45.371
G0 X29.493 Y45.286
;TYPE:WALL-INNER
G1 F600 E1
G1 F900 X29.938 Y45.028 E0.02016
G1 X30.432 Y44.78 E0.02166
G1 X30.652 Y44.681 E0.00945
G1 X31.164 Y44.477 E0.0216
G1 X31.647 Y44.318 E0.01993
G1 X32.16 Y44.18 E0.02082
G1 X32.674 Y44.074 E0.02057
G1 X32.915 Y44.036 E0.00956
G1 X33.473 Y43.97 E0.02202
G1 X33.98 Y43.94 E0.0199
G1 X47.638 Y43.936 E0.53524
G1 X57.638 Y33.936 E0.55421
G1 X146.572 Y33.94 E3.4852
G1 X146.71 Y33.958 E0.00545
G1 X146.841 Y33.994 E0.00532
G1 X146.966 Y34.045 E0.00529
G1 X147.095 Y34.12 E0.00585
G1 X147.196 Y34.197 E0.00498
G1 X147.33 Y34.334 E0.00751
G1 X147.451 Y34.523 E0.00879
G1 X147.504 Y34.653 E0.0055
G1 X147.544 Y34.802 E0.00605
G1 X147.56 Y34.92 E0.00467
G1 X147.56 Y51.294 E0.64168
G1 X147.56 Y51.377 E0.00325
G1 X147.56 Y51.705 E0.01285
G1 X147.56 Y52.055 E0.01372
G1 X147.56 Y52.419 E0.01426
G1 X147.56 Y52.783 E0.01426
G1 X147.56 Y53.001 E0.00854
G1 X147.56 Y53.356 E0.01391
G1 X147.56 Y53.725 E0.01446
G1 X147.56 Y54.083 E0.01403
G1 X147.56 Y54.41 E0.01281
G1 X147.56 Y54.597 E0.00733
G1 X147.56 Y54.652 E0.00216
G1 X147.56 Y82.584 E1.09462
G1 X147.56 Y82.854 E0.01058
G1 X147.56 Y83.38 E0.02061
G1 X147.56 Y83.935 E0.02175
G1 X147.56 Y84.499 E0.0221
G1 X147.561 Y85.064 E0.02214
G1 X147.562 Y85.615 E0.02159
G1 X147.563 Y86.079 E0.01818
G1 X147.563 Y86.408 E0.01289
G1 X147.564 Y90.252 E0.15064
G1 X147.564 Y90.564 E0.01223
G1 X147.252 Y90.564 E0.00791
G1 X128.064 Y90.564 E0.75195
G1 X128.064 Y107.436 E0.66119
G1 X147.564 Y107.436 E0.76418
G1 X147.564 Y110.592 E0.12368
G1 X147.564 Y110.854 E0.01027
G1 X147.564 Y111.38 E0.02061
G1 X147.564 Y111.935 E0.02175
G1 X147.564 Y112.5 E0.02214
G1 X147.564 Y113.065 E0.02214
G1 X147.564 Y113.616 E0.02159
G1 X147.564 Y114.08 E0.01818
G1 X147.564 Y114.407 E0.01281
G1 X147.564 Y123.3 E0.3485
G1 X147.564 Y123.377 E0.00302
G1 X147.564 Y123.705 E0.01285
G1 X147.564 Y124.055 E0.01372
G1 X147.564 Y124.419 E0.01426
G1 X147.564 Y124.783 E0.01426
G1 X147.564 Y125.001 E0.00854
G1 X147.564 Y125.356 E0.01391
G1 X147.564 Y125.725 E0.01446
G1 X147.563 Y126.083 E0.01403
G1 X147.562 Y126.41 E0.01281
G1 X147.561 Y126.597 E0.00733
G1 X147.561 Y126.651 E0.00212
G1 X147.56 Y127.072 E0.0165
G1 X147.542 Y127.21 E0.00545
G1 X147.507 Y127.338 E0.0052
G1 X147.456 Y127.463 E0.00529
G1 X147.378 Y127.598 E0.00611
G1 X147.303 Y127.696 E0.00484
G1 X147.166 Y127.83 E0.00751
G1 X146.977 Y127.951 E0.00879
G1 X146.847 Y128.004 E0.0055
G1 X146.698 Y128.044 E0.00605
G1 X146.58 Y128.06 E0.00467
G1 X146.143 Y128.06 E0.01713
G1 X145.879 Y128.06 E0.01035
G1 X145.536 Y128.06 E0.01344
G1 X145.174 Y128.06 E0.01419
G1 X144.811 Y128.06 E0.01423
G1 X144.593 Y128.06 E0.00854
G1 X144.236 Y128.06 E0.01399
G1 X143.866 Y128.06 E0.0145
G1 X143.52 Y128.06 E0.01356
G1 X143.33 Y128.06 E0.00745
G1 X143.147 Y128.06 E0.00717
G1 X142.911 Y128.06 E0.00925
G1 X90.631 Y128.06 E2.04878
G1 X90.553 Y128.06 E0.00306
G1 X90.218 Y128.06 E0.01313
G1 X89.865 Y128.06 E0.01383
G1 X89.499 Y128.06 E0.01434
G1 X89.122 Y128.06 E0.01477
G1 X88.749 Y128.06 E0.01462
G1 X88.389 Y128.06 E0.01411
G1 X88.177 Y128.06 E0.00831
G1 X87.839 Y128.06 E0.01325
G1 X87.507 Y128.06 E0.01301
G1 X87.419 Y128.06 E0.00345
G1 X35.143 Y128.06 E2.04863
G1 X34.879 Y128.06 E0.01035
G1 X34.536 Y128.06 E0.01344
G1 X34.174 Y128.06 E0.01419
G1 X33.811 Y128.06 E0.01423
G1 X33.593 Y128.06 E0.00854
G1 X33.236 Y128.06 E0.01399
G1 X32.866 Y128.06 E0.0145
G1 X32.52 Y128.06 E0.01356
G1 X32.33 Y128.06 E0.00745
G1 X32.148 Y128.06 E0.00713
G1 X31.912 Y128.06 E0.00925
G1 X15.429 Y128.061 E0.64595
G1 X15.301 Y128.045 E0.00506
G1 X15.161 Y128.007 E0.00568
G1 X15.033 Y127.955 E0.00541
G1 X14.91 Y127.883 E0.00559
G1 X14.807 Y127.806 E0.00504
G1 X14.702 Y127.701 E0.00582
G1 X14.618 Y127.592 E0.00539
G1 X14.551 Y127.476 E0.00525
G1 X14.492 Y127.334 E0.00603
G1 X14.46 Y127.216 E0.00479
G1 X14.441 Y127.071 E0.00573
G1 X14.436 Y125.255 E0.07117
G1 X14.436 Y73.436 E2.03072
G1 X25.186 Y73.436 E0.42128
G1 X25.19 Y52.729 E0.81148
G1 X25.22 Y52.223 E0.01986
G1 X25.286 Y51.661 E0.02218
G1 X25.371 Y51.18 E0.01914
G1 X25.496 Y50.652 E0.02126
G1 X25.647 Y50.15 E0.02054
G1 X25.738 Y49.886 E0.01094
G1 X25.926 Y49.414 E0.01991
G1 X26.143 Y48.949 E0.02011
G1 X26.406 Y48.46 E0.02176
G1 X26.678 Y48.018 E0.02034
G1 X26.816 Y47.813 E0.00968
G1 X27.144 Y47.374 E0.02148
G1 X27.47 Y46.985 E0.01989
G1 X27.842 Y46.592 E0.02121
G1 X28.24 Y46.216 E0.02146
G1 X28.616 Y45.901 E0.01922
G1 X29.058 Y45.57 E0.02164
G1 X29.493 Y45.286 E0.02036
G0 F2625 X29.545 Y45.371
G0 X32.125 Y50.28
G0 X32.171 Y50.368
G1 F900 X31.851 Y50.561 E0.01464
G1 X31.552 Y50.796 E0.0149
G1 X31.29 Y51.07 E0.01486
G1 X31.078 Y51.353 E0.01386
G1 X30.963 Y51.54 E0.0086
G1 X30.804 Y51.867 E0.01425
G1 X30.685 Y52.225 E0.01478
G1 X30.612 Y52.594 E0.01474
G1 X30.59 Y52.949 E0.01394
G1 X30.593 Y53.167 E0.00854
G1 X30.64 Y53.531 E0.01438
G1 X30.734 Y53.895 E0.01473
G1 X30.876 Y54.245 E0.0148
G1 X31.06 Y54.573 E0.01474
G1 X31.282 Y54.873 E0.01463
G1 X31.547 Y55.149 E0.01499
G1 X31.841 Y55.381 E0.01468
G1 X32.147 Y55.568 E0.01405
G1 X32.33 Y55.657 E0.00797
G1 X32.52 Y55.734 E0.00803
G1 X32.866 Y55.837 E0.01415
G1 X33.236 Y55.898 E0.0147
G1 X33.593 Y55.911 E0.014
G1 X33.811 Y55.9 E0.00855
G1 X34.174 Y55.842 E0.01441
G1 X34.536 Y55.734 E0.0148
G1 X34.879 Y55.582 E0.0147
G1 X35.199 Y55.389 E0.01464
G1 X35.498 Y55.154 E0.0149
G1 X35.76 Y54.88 E0.01486
G1 X35.972 Y54.597 E0.01386
G1 X36.087 Y54.41 E0.0086
G1 X36.246 Y54.083 E0.01425
G1 X36.365 Y53.725 E0.01478
G1 X36.438 Y53.356 E0.01474
G1 X36.46 Y53.001 E0.01394
G1 X36.457 Y52.783 E0.00854
G1 X36.41 Y52.419 E0.01438
G1 X36.316 Y52.055 E0.01473
G1 X36.174 Y51.705 E0.0148
G1 X35.99 Y51.377 E0.01474
G1 X35.768 Y51.077 E0.01463
G1 X35.503 Y50.801 E0.01499
G1 X35.209 Y50.569 E0.01468
G1 X34.903 Y50.382 E0.01405
G1 X34.72 Y50.293 E0.00797
G1 X34.53 Y50.216 E0.00803
G1 X34.184 Y50.113 E0.01415
G1 X33.814 Y50.052 E0.0147
G1 X33.457 Y50.039 E0.014
G1 X33.239 Y50.05 E0.00855
G1 X32.876 Y50.108 E0.01441
G1 X32.514 Y50.216 E0.0148
G1 X32.171 Y50.368 E0.0147
G0 F2625 X32.125 Y50.28
G0 X48.994 Y45.494
G0 X49.064 Y45.564
G1 F900 X49.064 Y57.436 E0.46525
G1 X106.936 Y57.436 E2.26793
G1 X106.936 Y45.564 E0.46525
G1 X49.064 Y45.564 E2.26793
G0 F2625 X48.994 Y45.494
G0 X40.88 Y80.572
G0 X40.914 Y80.665
G1 F900 X40.404 Y80.895 E0.02192
G1 X39.983 Y81.15 E0.01929
G1 X39.544 Y81.505 E0.02212
G1 X39.157 Y81.918 E0.02218
G1 X38.829 Y82.382 E0.02227
G1 X38.572 Y82.886 E0.02217
G1 X38.385 Y83.413 E0.02191
G1 X38.284 Y83.889 E0.01907
G1 X38.248 Y84.264 E0.01476
G1 X38.238 Y84.509 E0.00961
G1 X38.263 Y84.928 E0.01645
G1 X38.288 Y85.121 E0.00763
G1 X38.385 Y85.585 E0.01858
G1 X38.571 Y86.114 E0.02197
G1 X38.829 Y86.618 E0.02219
G1 X39.157 Y87.082 E0.02227
G1 X39.544 Y87.495 E0.02218
G1 X39.983 Y87.849 E0.0221
G1 X40.402 Y88.104 E0.01922
G1 X40.914 Y88.337 E0.02204
G1 X41.46 Y88.494 E0.02226
G1 X42.02 Y88.576 E0.02218
G1 X42.589 Y88.579 E0.0223
G1 X43.149 Y88.503 E0.02215
G1 X43.695 Y88.351 E0.02221
G1 X44.214 Y88.123 E0.02221
G1 X44.697 Y87.829 E0.02216
G1 X45.133 Y87.47 E0.02213
G1 X45.472 Y87.109 E0.01941
G1 X45.84 Y86.588 E0.025
G1 X46.093 Y86.08 E0.02224
G1 X46.256 Y85.616 E0.01927
G1 X46.373 Y85.065 E0.02207
G1 X46.412 Y84.5 E0.02219
G1 X46.373 Y83.935 E0.02219
G1 X46.255 Y83.38 E0.02224
G1 X46.065 Y82.854 E0.02192
G1 X45.841 Y82.414 E0.01935
G1 X45.52 Y81.95 E0.02211
G1 X45.136 Y81.533 E0.02221
G1 X44.697 Y81.171 E0.0223
G1 X44.214 Y80.877 E0.02216
G1 X43.695 Y80.649 E0.02221
G1 X43.149 Y80.497 E0.02221
G1 X42.589 Y80.421 E0.02215
G1 X42.02 Y80.424 E0.0223
G1 X41.459 Y80.506 E0.02222
G1 X40.914 Y80.665 E0.02225
G0 F2625 X40.88 Y80.572
G0 X39.961 Y81.118
G0 X39.517 Y81.476
G0 X39.127 Y81.893
G0 X38.795 Y82.362
G0 X38.347 Y83.403
G0 X38.198 Y84.509
G0 X41.438 Y108.409
G0 X41.459 Y108.506
G1 F900 X40.914 Y108.665 E0.02225
G1 X40.404 Y108.895 E0.02192
G1 X39.983 Y109.15 E0.01929
G1 X39.544 Y109.505 E0.02212
G1 X39.157 Y109.918 E0.02218
G1 X38.829 Y110.382 E0.02227
G1 X38.572 Y110.886 E0.02217
G1 X38.385 Y111.413 E0.02191
G1 X38.284 Y111.889 E0.01907
G1 X38.248 Y112.264 E0.01476
G1 X38.238 Y112.509 E0.00961
G1 X38.263 Y112.928 E0.01645
G1 X38.288 Y113.121 E0.00763
G1 X38.385 Y113.585 E0.01858
G1 X38.571 Y114.114 E0.02197
G1 X38.829 Y114.618 E0.02219
G1 X39.157 Y115.082 E0.02227
G1 X39.544 Y115.495 E0.02218
G1 X39.983 Y115.849 E0.0221
G1 X40.402 Y116.104 E0.01922
G1 X40.914 Y116.337 E0.02204
G1 X41.46 Y116.494 E0.02226
G1 X42.02 Y116.576 E0.02218
G1 X42.589 Y116.579 E0.0223
G1 X43.149 Y116.503 E0.02215
G1 X43.695 Y116.351 E0.02221
G1 X44.214 Y116.123 E0.02221
G1 X44.697 Y115.829 E0.02216
G1 X45.133 Y115.47 E0.02213
G1 X45.472 Y115.109 E0.01941
G1 X45.84 Y114.588 E0.025
G1 X46.093 Y114.08 E0.02224
G1 X46.256 Y113.616 E0.01927
G1 X46.373 Y113.065 E0.02207
G1 X46.412 Y112.5 E0.02219
G1 X46.373 Y111.935 E0.02219
G1 X46.255 Y111.38 E0.02224
G1 X46.065 Y110.854 E0.02192
G1 X45.841 Y110.414 E0.01935
G1 X45.52 Y109.95 E0.02211
G1 X45.136 Y109.533 E0.02221
G1 X44.697 Y109.171 E0.0223
G1 X44.214 Y108.877 E0.02216
G1 X43.695 Y108.649 E0.02221
G1 X43.149 Y108.497 E0.02221
G1 X42.589 Y108.421 E0.02215
G1 X42.02 Y108.424 E0.0223
G1 X41.459 Y108.506 E0.02222
G0 F2625 X41.438 Y108.409
G0 X40.386 Y108.86
G0 X39.517 Y109.476
G0 X38.795 Y110.362
G0 X33.229 Y121.951
G0 X33.239 Y122.05
G1 F900 X32.876 Y122.108 E0.01441
G1 X32.514 Y122.216 E0.0148
G1 X32.171 Y122.368 E0.0147
G1 X31.851 Y122.561 E0.01464
G1 X31.552 Y122.796 E0.0149
G1 X31.29 Y123.07 E0.01486
G1 X31.078 Y123.353 E0.01386
G1 X30.963 Y123.54 E0.0086
G1 X30.804 Y123.867 E0.01425
G1 X30.685 Y124.225 E0.01478
G1 X30.612 Y124.594 E0.01474
G1 X30.59 Y124.949 E0.01394
G1 X30.593 Y125.167 E0.00854
G1 X30.64 Y125.531 E0.01438
G1 X30.734 Y125.895 E0.01473
G1 X30.876 Y126.245 E0.0148
G1 X31.06 Y126.573 E0.01474
G1 X31.282 Y126.873 E0.01463
G1 X31.547 Y127.149 E0.01499
G1 X31.841 Y127.381 E0.01468
G1 X31.946 Y127.445 E0.00482
G1 X32.147 Y127.568 E0.00829
G1 X32.33 Y127.657 E0.00588
G1 X32.52 Y127.734 E0.00487
G1 X32.866 Y127.837 E0.00647
G1 X33.236 Y127.898 E0.00461
G1 X33.593 Y127.911 E0.00348
