;Generated by Cura LulzBot Edition GCodeWriter Version: 3.6.19
;FLAVOR:Marlin
;TIME:11113
;Filament used: 6.63028m
;Layer height: 0.38
;Generated with Cura_SteamEngine 3.6.19
M82 ;absolute extrusion mode
;This G-Code has been generated specifically for the LulzBot Mini 2 with SE 0.5mm Tool Head
M73 P0                  ; clear GLCD progress bar
M75 					; Start GLCD Print Timer
G26 					; clear potential 'probe fail' condition
M107 					; disable fans
M420 S0                 ; disable leveling matrix
G90 					; absolute positioning
M82 					; set extruder to absolute mode
G92 E0 					; set extruder position to 0
G28                       ; Home Axis
G0 X160 F9999             ; Move toolhead to the right
G0 Z5 F6000               ; Move to bottom of printer
G91                       ; Set relative motion mode
M211 S0		  	  ; Turn off soft endstops
M400                      ; Finish moves
G0 Z-15 F500              ; Skip steppers against lower Z mounts
G90                       ; Return to absolute mode
M400                      ; Finish moves
M211 S1			  ; Turn soft endstops back on
M400                      ; Finish moves
G28                       ; Rehome
M140 S112.0 ; start bed heating up
M117 X-Axis Leveled
G0 X0 Y187 Z156 F200 			; move away from endstops
M117 Mini 2 Wiping...			; progress indicator message on LCD
M109 R170 	; soften filament before retraction
G1 E-15 F75 				; retract filament
M109 R170 	; wait for extruder to reach wiping temp
G1 X45 Y176 F11520 			; move above wiper pad
G1 Z0 F1200 				; push nozzle into wiper
G1 X45 Y178 Z-.5 F4000		; wiping
G1 X55 Y176 Z-.5 F4000		; wiping
G1 X45 Y177 Z0 F4000		; wiping
G1 X55 Y176 F4000		; wiping
G1 X45 Y178 F4000		; wiping
G1 X55 Y176 F4000		; wiping
G1 X45 Y178 F4000		; wiping
G1 X55 Y176 F4000		; wiping
G1 X60 Y178 F4000		; wiping
G1 X80 Y176 F4000		; wiping
G1 X60 Y178 F4000		; wiping
G1 X80 Y176 F4000		; wiping
G1 X60 Y178 F4000		; wiping
G1 X90 Y176 F4000		; wiping
G1 X80 Y178 F4000		; wiping
G1 X100 Y176 F4000		; wiping
G1 X80 Y178 F4000		; wiping
G1 X100 Y176 F4000		; wiping
G1 X80 Y178 F4000		; wiping
G1 X100 Y176 F4000		; wiping
G1 X110 Y178 F4000		; wiping
G1 X100 Y176 F4000		; wiping
G1 X110 Y178 F4000		; wiping
G1 X100 Y176 F4000		; wiping
G1 X110 Y178 F4000		; wiping
G1 X115 Y176 Z-0.5 F1000	; wiping
G1 Z10					; raise extruder
G28 X0 Y0				; home X and Y
M109 R170	; wait for extruder to reach probe temp
M204 S300				; set probing acceleration
G29					; start auto-leveling sequence
M420 S1                     ; enable leveling matrix
M425 Z			     		; use measured Z backlash for compensation
M425 Z F0		     		; turn off measured Z backlash compensation. (if activated in the quality settings, this command will automatically be ignored)
M204 S2000				; restore standard acceleration
G1 X5 Y15 Z10 F5000			; move up off last probe point
G4 S1					; pause
M400					; wait for moves to finish
M117 Heating...				; progress indicator message on LCD
M109 R245 ; wait for extruder to reach initial printing temp
M190 R112.0 ; wait for bed to reach printing temp
G1 Z2 E0 F75				; prime tiny bit of filment into the nozzle
M117 Mini 2 Printing...		; progress indicator message on LCD

M221 S100 T0
G92 E0
M92 X100.6
M92 Y100.6
G1 F600 E-1
;LAYER_COUNT:25
;LAYER:0
M107
M204 S1000
M205 X20 Y20
G0 F3375 X12.456 Y28.455 Z0.425
M204 S500
M205 X8 Y8
;TYPE:SKIRT
G1 F600 E0.00627
G1 F900 X13.048 Y28.191 E0.02786
G1 X13.714 Y27.99 E0.05103
G1 X14.049 Y27.913 E0.06248
G1 X14.688 Y27.808 E0.08406
G1 X15.223 Y27.78 E0.1019
G1 X128.423 Y27.734 E3.87263
G1 X128.447 Y27.734 E3.87343
G1 X146.967 Y27.81 E4.49035
G1 X147.613 Y27.853 E4.51191
G1 X148.249 Y27.975 E4.53348
G1 X148.865 Y28.174 E4.55505
G1 X149.248 Y28.342 E4.56898
G1 X150.049 Y28.733 E4.59867
G1 X150.612 Y29.053 E4.62024
G1 X151.349 Y29.632 E4.65146
G1 X151.597 Y29.866 E4.66282
G1 X152.04 Y30.339 E4.68441
G1 X152.421 Y30.863 E4.70599
G1 X152.624 Y31.21 E4.71938
G1 X153.049 Y32.005 E4.74941
G1 X153.318 Y32.594 E4.77098
G1 X153.513 Y33.212 E4.79256
G1 X153.591 Y33.579 E4.80506
G1 X153.656 Y33.952 E4.81767
G1 X153.734 Y34.852 E4.84776
G1 X153.74 Y89.496 E6.66797
G1 X153.7 Y90.143 E6.68957
G1 X153.581 Y90.78 E6.71115
G1 X153.384 Y91.397 E6.73273
G1 X153.113 Y91.985 E6.75429
G1 X152.913 Y92.325 E6.76743
G1 X151.021 Y95.284 E6.88443
G1 X148.318 Y99.97 E7.06462
G1 X145.919 Y104.732 E7.24224
G1 X143.759 Y109.7 E7.42269
G1 X142.787 Y112.22 E7.51266
G1 X142.018 Y114.358 E7.58835
G1 X141.84 Y114.793 E7.604
G1 X141.286 Y115.986 E7.64782
G1 X140.966 Y116.573 E7.67009
G1 X140.272 Y117.675 E7.71347
G1 X139.823 Y118.285 E7.7387
G1 X138.838 Y119.439 E7.78924
G1 X138.395 Y119.899 E7.81051
G1 X137.688 Y120.548 E7.84248
G1 X137.249 Y120.909 E7.86141
G1 X136.288 Y121.616 E7.90115
G1 X135.792 Y121.94 E7.92089
G1 X134.864 Y122.473 E7.95653
G1 X134.347 Y122.733 E7.97581
G1 X133.317 Y123.182 E8.01324
G1 X132.884 Y123.348 E8.02869
G1 X132.277 Y123.551 E8.05001
G1 X131.97 Y123.643 E8.06068
G1 X131.137 Y123.866 E8.08941
G1 X131.136 Y123.867 E8.08945
G1 X129.048 Y124.425 E8.16145
G1 X123.913 Y126.026 E8.34062
G1 X118.89 Y127.909 E8.5193
G1 X113.976 Y130.076 E8.6982
G1 X109.169 Y132.53 E8.87798
G1 X107.315 Y133.569 E8.94878
G1 X106.732 Y133.851 E8.97035
G1 X106.118 Y134.058 E8.99193
G1 X105.484 Y134.188 E9.01349
G1 X104.748 Y134.24 E9.03807
G1 X15.357 Y134.234 E12.01571
G1 X14.71 Y134.194 E12.03731
G1 X14.294 Y134.125 E12.05135
G1 X13.786 Y134.02 E12.06863
G1 X13.161 Y133.85 E12.09021
G1 X12.562 Y133.605 E12.11177
G1 X12.217 Y133.422 E12.12477
G1 X11.556 Y133.039 E12.15022
G1 X11.017 Y132.68 E12.17179
G1 X10.525 Y132.257 E12.19341
G1 X9.969 Y131.621 E12.22155
G1 X9.469 Y130.946 E12.24953
G1 X9.117 Y130.403 E12.27108
G1 X8.833 Y129.82 E12.29268
G1 X8.603 Y129.128 E12.31697
G1 X8.431 Y128.459 E12.33998
G1 X8.309 Y127.823 E12.36156
G1 X8.266 Y127.153 E12.38392
G1 X8.26 Y70.501 E14.27102
G1 X8.269 Y70.192 E14.28132
G1 X8.451 Y67.099 E14.38452
G1 X8.528 Y61.732 E14.56332
G1 X8.264 Y55.711 E14.76407
G1 X8.259 Y55.479 E14.7718
G1 X8.266 Y34.848 E15.45903
G1 X8.306 Y34.202 E15.48059
G1 X8.451 Y33.468 E15.50551
G1 X8.651 Y32.735 E15.53082
G1 X8.86 Y32.122 E15.55239
G1 X9.143 Y31.539 E15.57398
G1 X9.659 Y30.785 E15.60441
G1 X10.229 Y30.091 E15.63433
G1 X10.67 Y29.617 E15.6559
G1 X11.166 Y29.2 E15.67748
G1 X11.852 Y28.771 E15.70443
G1 X12.456 Y28.455 E15.72714
M204 S1000
M205 X20 Y20
G1 F600 E14.72714
;MESH:
G0 F3375 X15.42 Y128.246
M204 S500
M205 X8 Y8
;TYPE:WALL-INNER
G1 F600 E15.73341
G1 F900 X15.251 Y128.224 E15.73909
G1 X15.103 Y128.184 E15.74419
G1 X14.946 Y128.12 E15.74984
G1 X14.813 Y128.042 E15.75498
G1 X14.678 Y127.939 E15.76063
G1 X14.514 Y127.769 E15.7685
G1 X14.415 Y127.62 E15.77446
G1 X14.381 Y127.556 E15.77687
G1 X14.32 Y127.407 E15.78224
G1 X14.276 Y127.244 E15.78786
G1 X14.254 Y127.08 E15.79337
G1 X14.25 Y110.074 E16.35985
G1 X14.25 Y109.825 E16.36814
G1 X14.499 Y109.825 E16.37351
G1 X14.843 Y109.825 E16.38496
G1 X14.952 Y110.124 E16.39556
G1 X15.113 Y110.437 E16.40729
G1 X15.315 Y110.729 E16.41912
G1 X15.553 Y110.994 E16.43098
G1 X15.821 Y111.223 E16.44272
G1 X16.115 Y111.416 E16.45444
G1 X16.434 Y111.572 E16.46627
G1 X16.76 Y111.681 E16.47772
G1 X16.957 Y111.726 E16.48445
G1 X17.293 Y111.77 E16.49574
G1 X17.647 Y111.772 E16.50753
G1 X18.001 Y111.727 E16.51942
G1 X18.328 Y111.64 E16.53069
G1 X18.517 Y111.573 E16.53737
G1 X18.831 Y111.42 E16.549
G1 X19.125 Y111.227 E16.56072
G1 X19.393 Y110.998 E16.57246
G1 X19.631 Y110.734 E16.5843
G1 X19.832 Y110.443 E16.59608
G1 X19.994 Y110.13 E16.60782
G1 X20.106 Y109.825 E16.61864
G1 X55.25 Y109.825 E17.7893
G1 X55.25 Y116.25 E18.00332
G1 X112.75 Y116.25 E19.91867
G1 X112.75 Y109.825 E20.13269
G1 X125.844 Y109.825 E20.56885
G1 X125.953 Y110.13 E20.57964
G1 X126.12 Y110.449 E20.59163
G1 X126.325 Y110.743 E20.60357
G1 X126.565 Y111.004 E20.61538
G1 X126.836 Y111.234 E20.62722
G1 X127.123 Y111.419 E20.6386
G1 X127.304 Y111.515 E20.64542
G1 X127.627 Y111.641 E20.65697
G1 X127.971 Y111.73 E20.66881
G1 X128.325 Y111.771 E20.68068
G1 X128.682 Y111.77 E20.69257
G1 X129.037 Y111.718 E20.70452
G1 X129.38 Y111.624 E20.71637
G1 X129.711 Y111.484 E20.72834
G1 X130.017 Y111.303 E20.74018
G1 X130.299 Y111.086 E20.75203
G1 X130.55 Y110.83 E20.76398
G1 X130.767 Y110.547 E20.77586
G1 X130.945 Y110.237 E20.78776
G1 X131.077 Y109.919 E20.79923
G1 X131.135 Y109.724 E20.80601
G1 X131.2 Y109.4 E20.81702
G1 X131.219 Y109.209 E20.82341
G1 X131.226 Y109.009 E20.83008
G1 X131.203 Y108.665 E20.84156
G1 X131.133 Y108.314 E20.85348
G1 X131.019 Y107.977 E20.86533
G1 X130.861 Y107.655 E20.87728
G1 X130.664 Y107.358 E20.88915
G1 X130.439 Y107.1 E20.90056
G1 X130.291 Y106.958 E20.90739
G1 X130.017 Y106.748 E20.91889
G1 X129.724 Y106.575 E20.93022
G1 X129.539 Y106.487 E20.93705
G1 X129.212 Y106.374 E20.94857
G1 X128.863 Y106.301 E20.96045
G1 X128.507 Y106.273 E20.97234
G1 X128.163 Y106.292 E20.98382
G1 X127.96 Y106.322 E20.99065
G1 X127.627 Y106.409 E21.00212
G1 X127.296 Y106.539 E21.01396
G1 X126.984 Y106.713 E21.02586
G1 X126.698 Y106.925 E21.03772
G1 X126.441 Y107.172 E21.0496
G1 X126.218 Y107.451 E21.06149
G1 X126.041 Y107.743 E21.07287
G1 X125.95 Y107.929 E21.07977
G1 X125.845 Y108.225 E21.09023
G1 X112.75 Y108.225 E21.52643
G1 X112.75 Y104.75 E21.64218
G1 X55.25 Y104.75 E23.55753
G1 X55.25 Y108.225 E23.67328
G1 X20.107 Y108.225 E24.84391
G1 X19.998 Y107.926 E24.85451
G1 X19.837 Y107.613 E24.86623
G1 X19.635 Y107.321 E24.87806
G1 X19.397 Y107.056 E24.88992
G1 X19.129 Y106.827 E24.90167
G1 X18.835 Y106.634 E24.91338
G1 X18.516 Y106.478 E24.92521
G1 X18.19 Y106.369 E24.93666
G1 X17.993 Y106.324 E24.94339
G1 X17.657 Y106.28 E24.95468
G1 X17.303 Y106.278 E24.96647
G1 X16.949 Y106.323 E24.97836
G1 X16.622 Y106.41 E24.98963
G1 X16.433 Y106.477 E24.99631
G1 X16.119 Y106.63 E25.00794
G1 X15.825 Y106.823 E25.01966
G1 X15.557 Y107.052 E25.0314
G1 X15.319 Y107.316 E25.04324
G1 X15.118 Y107.607 E25.05502
G1 X14.956 Y107.92 E25.06676
G1 X14.844 Y108.225 E25.07758
G1 X14.25 Y108.225 E25.09737
G1 X14.25 Y71.25 E26.32902
G1 X17.875 Y71.25 E26.44977
G1 X17.875 Y73.695 E26.53121
G1 X17.359 Y73.84 E26.54907
G1 X16.866 Y74.058 E26.56702
G1 X16.408 Y74.341 E26.58496
G1 X15.992 Y74.686 E26.60296
G1 X15.629 Y75.082 E26.62085
G1 X15.327 Y75.524 E26.63869
G1 X15.107 Y75.955 E26.65481
G1 X14.928 Y76.462 E26.67272
G1 X14.82 Y76.987 E26.69057
G1 X14.786 Y77.527 E26.70859
G1 X14.828 Y78.066 E26.7266
G1 X14.944 Y78.592 E26.74454
G1 X15.13 Y79.092 E26.76231
G1 X15.352 Y79.519 E26.77834
G1 X15.663 Y79.958 E26.79627
G1 X16.029 Y80.349 E26.81411
G1 X16.401 Y80.656 E26.83017
G1 X16.859 Y80.94 E26.84812
G1 X17.353 Y81.156 E26.86608
G1 X17.87 Y81.304 E26.884
G1 X18.403 Y81.38 E26.90193
G1 X18.943 Y81.38 E26.91992
G1 X19.476 Y81.304 E26.93785
G1 X19.994 Y81.159 E26.95577
G1 X20.488 Y80.939 E26.97378
G1 X20.943 Y80.658 E26.9916
G1 X21.317 Y80.353 E27.00767
G1 X21.685 Y79.962 E27.02556
G1 X21.996 Y79.521 E27.04353
G1 X22.244 Y79.043 E27.06147
G1 X22.423 Y78.539 E27.07929
G1 X22.52 Y78.074 E27.09511
G1 X22.555 Y77.733 E27.10653
G1 X22.563 Y77.502 E27.11423
G1 X22.556 Y77.267 E27.12206
G1 X22.517 Y76.915 E27.13386
G1 X22.403 Y76.402 E27.15136
G1 X22.24 Y75.948 E27.16743
G1 X21.99 Y75.467 E27.18549
G1 X21.673 Y75.025 E27.2036
G1 X21.299 Y74.631 E27.2217
G1 X20.879 Y74.297 E27.23957
G1 X20.461 Y74.047 E27.2558
G1 X19.967 Y73.833 E27.27373
G1 X19.475 Y73.698 E27.29073
G1 X19.475 Y71.25 E27.37227
G1 X32.25 Y71.25 E27.79781
G1 X32.25 Y71.3 E27.79948
G1 X45.25 Y71.3 E28.23251
G1 X45.25 Y91.25 E28.89705
G1 X51.75 Y91.25 E29.11357
G1 X51.75 Y69.75 E29.82974
G1 X46.75 Y69.75 E29.99629
G1 X46.75 Y69.7 E29.99796
G1 X33.75 Y69.7 E30.43099
G1 X33.75 Y54.75 E30.92898
G1 X19.475 Y54.75 E31.40449
G1 X19.475 Y53.303 E31.45269
G1 X19.967 Y53.167 E31.46969
G1 X20.464 Y52.952 E31.48773
G1 X20.929 Y52.668 E31.50588
G1 X21.347 Y52.324 E31.52391
G1 X21.715 Y51.924 E31.54202
G1 X22.02 Y51.481 E31.55993
G1 X22.241 Y51.048 E31.57613
G1 X22.42 Y50.542 E31.59401
G1 X22.518 Y50.081 E31.6097
G1 X22.555 Y49.734 E31.62133
G1 X22.563 Y49.502 E31.62906
G1 X22.556 Y49.267 E31.63689
G1 X22.518 Y48.921 E31.64849
G1 X22.405 Y48.406 E31.66605
G1 X22.219 Y47.905 E31.68385
G1 X21.996 Y47.477 E31.69993
G1 X21.685 Y47.038 E31.71785
G1 X21.315 Y46.645 E31.73583
G1 X20.895 Y46.307 E31.75379
G1 X20.432 Y46.033 E31.77171
G1 X19.937 Y45.822 E31.78963
G1 X19.42 Y45.685 E31.80745
G1 X18.941 Y45.62 E31.82355
G1 X18.432 Y45.619 E31.8405
G1 X17.899 Y45.689 E31.85841
G1 X17.381 Y45.834 E31.87633
G1 X16.888 Y46.047 E31.89422
G1 X16.426 Y46.327 E31.91221
G1 X16.008 Y46.671 E31.93025
G1 X15.643 Y47.066 E31.94816
G1 X15.336 Y47.507 E31.96606
G1 X15.093 Y47.989 E31.98404
G1 X14.919 Y48.495 E32.00186
G1 X14.824 Y48.968 E32.01794
G1 X14.786 Y49.502 E32.03577
G1 X14.825 Y50.041 E32.05377
G1 X14.936 Y50.569 E32.07174
G1 X15.121 Y51.076 E32.08972
G1 X15.373 Y51.552 E32.10766
G1 X15.689 Y51.988 E32.1256
G1 X16.057 Y52.374 E32.14336
G1 X16.434 Y52.678 E32.15949
G1 X16.895 Y52.957 E32.17744
G1 X17.388 Y53.169 E32.19532
G1 X17.875 Y53.303 E32.21214
G1 X17.875 Y54.75 E32.26034
G1 X14.499 Y54.75 E32.3728
G1 X14.25 Y54.75 E32.38109
G1 X14.25 Y54.501 E32.38646
G1 X14.252 Y37.412 E32.9557
G1 X14.252 Y37.066 E32.96722
G1 X14.253 Y36.709 E32.97911
G1 X14.253 Y36.654 E32.98095
G1 X14.254 Y34.92 E33.03871
G1 X14.276 Y34.751 E33.04438
G1 X14.316 Y34.603 E33.04949
G1 X14.38 Y34.446 E33.05514
G1 X14.458 Y34.313 E33.06027
G1 X14.561 Y34.178 E33.06593
G1 X14.731 Y34.014 E33.0738
G1 X14.88 Y33.915 E33.07976
G1 X14.944 Y33.881 E33.08217
G1 X15.093 Y33.82 E33.08753
G1 X15.256 Y33.776 E33.09316
G1 X15.42 Y33.754 E33.09867
G1 X16.425 Y33.751 E33.13215
G1 X16.675 Y33.751 E33.14048
G1 X16.675 Y34.001 E33.14586
G1 X16.675 Y34.394 E33.15895
G1 X16.364 Y34.507 E33.16998
G1 X16.048 Y34.673 E33.18187
G1 X15.754 Y34.878 E33.19381
G1 X15.491 Y35.12 E33.20571
G1 X15.259 Y35.393 E33.21764
G1 X15.067 Y35.695 E33.22957
G1 X14.915 Y36.017 E33.24143
G1 X14.806 Y36.359 E33.25338
G1 X14.751 Y36.655 E33.26341
G1 X14.742 Y36.709 E33.26522
G1 X14.723 Y37.066 E33.27669
G1 X14.75 Y37.411 E33.28789
G1 X14.752 Y37.425 E33.28836
G1 X14.827 Y37.776 E33.30032
G1 X14.948 Y38.112 E33.31222
G1 X15.108 Y38.43 E33.32407
G1 X15.305 Y38.717 E33.33567
G1 X15.437 Y38.872 E33.34245
G1 X15.684 Y39.113 E33.35395
G1 X15.97 Y39.329 E33.36589
G1 X16.272 Y39.498 E33.37741
G1 X16.455 Y39.579 E33.38408
G1 X16.784 Y39.689 E33.39563
G1 X17.125 Y39.753 E33.40719
G1 X17.324 Y39.771 E33.41385
G1 X17.671 Y39.771 E33.42541
G1 X18.026 Y39.721 E33.43735
G1 X18.373 Y39.628 E33.44932
G1 X18.703 Y39.487 E33.46127
G1 X19.011 Y39.308 E33.47314
G1 X19.294 Y39.09 E33.48503
G1 X19.547 Y38.836 E33.49698
G1 X19.765 Y38.551 E33.50893
G1 X19.944 Y38.24 E33.52088
G1 X20.075 Y37.922 E33.53234
G1 X20.134 Y37.727 E33.53912
G1 X20.2 Y37.4 E33.55024
G1 X20.219 Y37.209 E33.55663
G1 X20.226 Y37.009 E33.5633
G1 X20.203 Y36.667 E33.57471
G1 X20.135 Y36.321 E33.58646
G1 X20.023 Y35.983 E33.59832
G1 X19.866 Y35.664 E33.61016
G1 X19.673 Y35.37 E33.62188
G1 X19.444 Y35.103 E33.6336
G1 X19.179 Y34.863 E33.64551
G1 X18.887 Y34.664 E33.65728
G1 X18.574 Y34.502 E33.66902
G1 X18.275 Y34.394 E33.67961
G1 X18.275 Y33.75 E33.70106
G1 X72.175 Y33.75 E35.49649
G1 X72.175 Y34.394 E35.51794
G1 X71.865 Y34.507 E35.52893
G1 X71.548 Y34.673 E35.54085
G1 X71.254 Y34.878 E35.55279
G1 X70.991 Y35.12 E35.56469
G1 X70.759 Y35.393 E35.57663
G1 X70.568 Y35.695 E35.58853
G1 X70.415 Y36.016 E35.60037
G1 X70.306 Y36.359 E35.61236
G1 X70.242 Y36.709 E35.62421
G1 X70.223 Y37.066 E35.63612
G1 X70.252 Y37.425 E35.64812
G1 X70.327 Y37.776 E35.66008
G1 X70.448 Y38.112 E35.67197
G1 X70.608 Y38.43 E35.68383
G1 X70.806 Y38.718 E35.69547
G1 X70.948 Y38.885 E35.70277
G1 X71.173 Y39.103 E35.71321
G1 X71.33 Y39.23 E35.71994
G1 X71.621 Y39.419 E35.73149
G1 X71.944 Y39.576 E35.74346
G1 X72.271 Y39.683 E35.75492
G1 X72.47 Y39.729 E35.76172
G1 X72.816 Y39.771 E35.77333
G1 X73.16 Y39.77 E35.78479
G1 X73.365 Y39.749 E35.79165
G1 X73.707 Y39.677 E35.8033
G1 X74.046 Y39.561 E35.81523
G1 X74.367 Y39.398 E35.82722
G1 X74.651 Y39.206 E35.83864
