;Generated by Cura LulzBot Edition GCodeWriter Version: 3.6.18
;FLAVOR:Marlin
;TIME:1679
;Filament used: 1.00115m
;Layer height: 0.38
;Generated with Cura_SteamEngine 3.6.18
M82 ;absolute extrusion mode
;This G-Code has been generated specifically for the LulzBot Mini 2 with SE 0.5mm Tool Head
M73 P0                  ; clear GLCD progress bar
M75 					; Start GLCD Print Timer
G26 					; clear potential 'probe fail' condition
M107 					; disable fans
M420 S0                 ; disable leveling matrix
G90 					; absolute positioning
M82 					; set extruder to absolute mode
G92 E0 					; set extruder position to 0
M140 S104.0 	; start bed heating up
G28 					; home all axes
G28                       ; Home Axis
G0 X160 F9999             ; Move toolhead to the right
G0 Z5 F6000               ; Move to bottom of printer
G91                       ; Set relative motion mode
M211 S0		  	  ; Turn off soft endstops
M400                      ; Finish moves
G0 Z-15 F500              ; Skip steppers against lower Z mounts
G90                       ; Return to absolute mode
M400                      ; Finish moves
M211 S1			  ; Turn soft endstops back on
M400                      ; Finish moves
G28                       ; Rehome
M117 X-Axis Leveled
G0 X0 Y187 Z156 F200 			; move away from endstops
M117 Mini 2 Wiping...			; progress indicator message on LCD
M109 R170 	; soften filament before retraction
G1 E-15 F75 				; retract filament
M109 R170 	; wait for extruder to reach wiping temp
G1 X45 Y176 F11520 			; move above wiper pad
G1 Z0 F1200 				; push nozzle into wiper
G1 X45 Y178 Z-.5 F4000		; wiping
G1 X55 Y176 Z-.5 F4000		; wiping
G1 X45 Y177 Z0 F4000		; wiping
G1 X55 Y176 F4000		; wiping
G1 X45 Y178 F4000		; wiping
G1 X55 Y176 F4000		; wiping
G1 X45 Y178 F4000		; wiping
G1 X55 Y176 F4000		; wiping
G1 X60 Y178 F4000		; wiping
G1 X80 Y176 F4000		; wiping
G1 X60 Y178 F4000		; wiping
G1 X80 Y176 F4000		; wiping
G1 X60 Y178 F4000		; wiping
G1 X90 Y176 F4000		; wiping
G1 X80 Y178 F4000		; wiping
G1 X100 Y176 F4000		; wiping
G1 X80 Y178 F4000		; wiping
G1 X100 Y176 F4000		; wiping
G1 X80 Y178 F4000		; wiping
G1 X100 Y176 F4000		; wiping
G1 X110 Y178 F4000		; wiping
G1 X100 Y176 F4000		; wiping
G1 X110 Y178 F4000		; wiping
G1 X100 Y176 F4000		; wiping
G1 X110 Y178 F4000		; wiping
G1 X115 Y176 Z-0.5 F1000	; wiping
G1 Z10					; raise extruder
G28 X0 Y0				; home X and Y
M109 R170	; wait for extruder to reach probe temp
M204 S300				; set probing acceleration
G29					; start auto-leveling sequence
M420 S1                     ; enable leveling matrix
M425 Z			     		; use measured Z backlash for compensation
M425 Z F0		     		; turn off measured Z backlash compensation. (if activated in the quality settings, this command will automatically be ignored)
M204 S2000				; restore standard acceleration
G1 X5 Y15 Z10 F5000			; move up off last probe point
G4 S1					; pause
M400					; wait for moves to finish
M117 Heating...				; progress indicator message on LCD
M109 R240	; wait for extruder to reach initial printing temp
M190 S110.0 ; wait for bed to reach printing temp
G1 Z2 E0 F75				; prime tiny bit of filment into the nozzle
M117 Mini 2 Printing...		; progress indicator message on LCD
M221 S100 T0
G92 E0
G1 F600 E-1
;LAYER_COUNT:8
;LAYER:0
M107
G0 F2625 X58.086 Y37.12 Z0.425
;TYPE:SKIRT
G1 F600 E0
G1 F900 X58.262 Y36.846 E0.01085
G1 X60.553 Y33.639 E0.14213
G1 X64.542 Y27.503 E0.38592
G1 X64.852 Y27.099 E0.40288
G1 X65.166 Y26.794 E0.41746
G1 X65.893 Y26.178 E0.4492
G1 X66.306 Y25.881 E0.46615
G1 X66.715 Y25.67 E0.48148
G1 X67.472 Y25.346 E0.50891
G1 X67.955 Y25.183 E0.52589
G1 X68.273 Y25.119 E0.53669
G1 X68.973 Y25.015 E0.56027
G1 X69.432 Y24.98 E0.5756
G1 X70.97 Y24.971 E0.62683
G1 X71.258 Y24.982 E0.63643
G1 X76.94 Y25.453 E0.82635
G1 X82.403 Y25.672 E1.00847
G1 X87.889 Y25.582 E1.19124
G1 X95.188 Y24.991 E1.43517
G1 X95.495 Y24.98 E1.4454
G1 X98.047 Y25.015 E1.53041
G1 X98.554 Y25.062 E1.54738
G1 X98.848 Y25.127 E1.5574
G1 X99.475 Y25.296 E1.57904
G1 X99.955 Y25.467 E1.59601
G1 X100.35 Y25.677 E1.61091
G1 X101.281 Y26.258 E1.64747
G1 X101.69 Y26.561 E1.66442
G1 X102.097 Y26.983 E1.68395
G1 X102.652 Y27.676 E1.71353
G1 X102.909 Y28.049 E1.72861
G1 X104.731 Y31.116 E1.84744
G1 X107.549 Y35.52 E2.0216
G1 X107.79 Y35.969 E2.03858
G1 X107.957 Y36.451 E2.05557
G1 X108.017 Y36.736 E2.06527
G1 X108.661 Y40.583 E2.1952
G1 X109.753 Y46.03 E2.38025
G1 X111.125 Y51.304 E2.56178
G1 X112.802 Y56.52 E2.74428
G1 X114.769 Y61.627 E2.92658
G1 X117.026 Y66.624 E3.10923
G1 X119.698 Y71.776 E3.30255
G1 X119.949 Y72.42 E3.32557
G1 X120.062 Y72.836 E3.33993
G1 X120.157 Y73.337 E3.35692
G1 X120.173 Y73.818 E3.37295
G1 X120.021 Y77.617 E3.4996
G1 X119.986 Y83.149 E3.68387
G1 X120.181 Y88.135 E3.85008
G1 X120.16 Y88.644 E3.86705
G1 X120.071 Y89.108 E3.88279
G1 X119.934 Y89.616 E3.90032
G1 X119.669 Y90.29 E3.92444
G1 X117.68 Y94.05 E4.06613
G1 X115.332 Y99.042 E4.24989
G1 X114.313 Y101.469 E4.33758
G1 X114.312 Y101.474 E4.33775
G1 X112.389 Y106.663 E4.52208
G1 X110.778 Y111.907 E4.70482
G1 X109.459 Y117.256 E4.88833
G1 X108.933 Y119.871 E4.97718
G1 X108.12 Y124.9 E5.14688
G1 X108.008 Y125.368 E5.1629
G1 X107.868 Y125.807 E5.17825
G1 X107.676 Y126.279 E5.19523
G1 X107.531 Y126.538 E5.20511
G1 X102.814 Y134.115 E5.50242
G1 X102.473 Y134.569 E5.52133
G1 X101.847 Y135.266 E5.55254
G1 X101.478 Y135.617 E5.5695
G1 X101.119 Y135.87 E5.58413
G1 X100.393 Y136.312 E5.61245
G1 X99.938 Y136.542 E5.62943
G1 X99.561 Y136.671 E5.6427
G1 X98.823 Y136.873 E5.66819
G1 X98.323 Y136.968 E5.68514
G1 X97.993 Y136.988 E5.69615
G1 X95.302 Y137.011 E5.7858
G1 X94.929 Y136.993 E5.79824
G1 X92.864 Y136.772 E5.86741
G1 X87.405 Y136.399 E6.04968
G1 X81.925 Y136.335 E6.23223
G1 X76.448 Y136.58 E6.41486
G1 X71.924 Y137.007 E6.56622
G1 X71.548 Y137.02 E6.57875
G1 X68.883 Y136.962 E6.66755
G1 X68.376 Y136.911 E6.68452
G1 X67.863 Y136.774 E6.70221
G1 X67.044 Y136.482 E6.73117
G1 X66.579 Y136.274 E6.74814
G1 X66.238 Y136.06 E6.76155
G1 X65.605 Y135.605 E6.78752
G1 X65.216 Y135.276 E6.80449
G1 X64.985 Y135.022 E6.81592
G1 X64.451 Y134.368 E6.84405
G1 X64.201 Y134.017 E6.8584
G1 X63.472 Y132.835 E6.90466
G1 X60.28 Y127.974 E7.09837
G1 X58.227 Y125.1 E7.21602
G1 X58.048 Y124.82 E7.22709
G1 X57.434 Y123.742 E7.26842
G1 X57.25 Y123.363 E7.28245
G1 X56.621 Y121.825 E7.3378
G1 X56.464 Y121.334 E7.35497
G1 X55.708 Y118.098 E7.46567
G1 X54.375 Y112.753 E7.64917
G1 X52.754 Y107.526 E7.83146
G1 X50.834 Y102.385 E8.01426
G1 X48.64 Y97.393 E8.1959
G1 X46.144 Y92.487 E8.37925
G1 X43.542 Y87.952 E8.55341
G1 X43.425 Y87.729 E8.5618
G1 X43.038 Y86.914 E8.59186
G1 X42.901 Y86.577 E8.60397
G1 X42.373 Y85.042 E8.65805
G1 X42.262 Y84.634 E8.67213
G1 X41.967 Y83.187 E8.72132
G1 X41.914 Y82.832 E8.73328
G1 X41.824 Y81.841 E8.76642
G1 X41.812 Y81.485 E8.77829
G1 X41.841 Y79.959 E8.82913
G1 X41.876 Y79.539 E8.84317
G1 X42.093 Y78.091 E8.89194
G1 X42.196 Y77.632 E8.90761
G1 X42.734 Y75.853 E8.96952
G1 X42.878 Y75.468 E8.98321
G1 X43.298 Y74.528 E9.01751
G1 X43.423 Y74.277 E9.02685
G1 X47.469 Y66.989 E9.30452
G1 X48.642 Y64.6 E9.39317
G1 X50.853 Y59.561 E9.57647
G1 X52.769 Y54.425 E9.75907
G1 X54.388 Y49.201 E9.94124
G1 X55.082 Y46.566 E10.03201
G1 X55.971 Y42.67 E10.16512
G1 X55.972 Y42.67 E10.16516
G1 X56.219 Y41.511 E10.20463
G1 X56.293 Y41.226 E10.21444
G1 X56.66 Y40.043 E10.2557
G1 X56.784 Y39.71 E10.26753
G1 X57.285 Y38.558 E10.30938
G1 X57.445 Y38.239 E10.32127
G1 X58.086 Y37.12 E10.36422
G1 F600 E9.36422
;MESH:
G0 F2625 X68.189 Y30.316
;TYPE:WALL-INNER
G1 F600 E10.36422
G1 F900 X68.026 Y30.63 E10.37601
G1 X67.903 Y30.961 E10.38777
G1 X67.827 Y31.292 E10.39908
G1 X67.801 Y31.487 E10.40564
G1 X67.789 Y31.8 E10.41607
G1 X67.788 Y31.827 E10.41697
G1 X67.788 Y31.837 E10.4173
G1 X67.82 Y32.181 E10.42881
G1 X67.898 Y32.527 E10.44063
G1 X68.019 Y32.858 E10.45237
G1 X68.182 Y33.171 E10.46412
G1 X68.374 Y33.448 E10.47535
G1 X68.505 Y33.604 E10.48213
G1 X68.741 Y33.831 E10.49304
G1 X68.895 Y33.956 E10.49965
G1 X69.182 Y34.144 E10.51108
G1 X69.5 Y34.297 E10.52283
G1 X69.833 Y34.409 E10.53453
G1 X70.168 Y34.475 E10.54591
G1 X70.364 Y34.495 E10.55247
G1 X70.705 Y34.497 E10.56383
G1 X71.058 Y34.453 E10.57568
G1 X71.4 Y34.364 E10.58745
G1 X71.726 Y34.233 E10.59915
G1 X72.033 Y34.06 E10.61089
G1 X72.316 Y33.851 E10.62261
G1 X72.57 Y33.605 E10.63439
G1 X72.79 Y33.331 E10.64609
G1 X72.968 Y33.04 E10.65746
G1 X73.055 Y32.859 E10.66415
G1 X73.17 Y32.551 E10.6751
G1 X73.222 Y32.356 E10.68182
G1 X73.275 Y32.025 E10.69299
G1 X73.289 Y31.717 E10.70326
G1 X73.291 Y31.673 E10.70472
G1 X73.29 Y31.653 E10.70539
G1 X73.257 Y31.316 E10.71667
G1 X73.179 Y30.975 E10.72832
G1 X73.059 Y30.642 E10.74011
G1 X72.895 Y30.329 E10.75188
G1 X72.703 Y30.052 E10.76311
G1 X72.573 Y29.897 E10.76985
G1 X72.327 Y29.659 E10.78125
G1 X72.104 Y29.492 E10.79053
G1 X72.058 Y29.457 E10.79246
G1 X71.925 Y29.376 E10.79764
G1 X71.885 Y29.351 E10.79921
G1 X71.764 Y29.294 E10.80367
G1 X71.576 Y29.203 E10.81063
G1 X71.244 Y29.091 E10.8223
G1 X70.911 Y29.025 E10.83361
G1 X70.714 Y29.005 E10.8402
G1 X70.373 Y29.003 E10.85156
G1 X70.02 Y29.047 E10.86341
G1 X69.68 Y29.136 E10.87512
G1 X69.563 Y29.182 E10.87931
G1 X69.464 Y29.222 E10.88286
G1 X69.363 Y29.262 E10.88648
G1 X69.273 Y29.309 E10.88986
G1 X69.184 Y29.356 E10.89322
G1 X69.09 Y29.416 E10.89693
G1 X69.021 Y29.461 E10.89968
G1 X68.899 Y29.54 E10.90452
G1 X68.854 Y29.578 E10.90648
G1 X68.629 Y29.769 E10.91631
G1 X68.394 Y30.028 E10.92796
G1 X68.189 Y30.316 E10.93973
G1 F600 E9.93973
G0 F2625 X64.789 Y50.75
G1 F600 E10.93973
G1 F900 X76.983 Y50.751 E11.34592
G1 X77.162 Y50.768 E11.35191
G1 X77.313 Y50.802 E11.35707
G1 X77.458 Y50.854 E11.3622
G1 X77.599 Y50.926 E11.36747
G1 X77.729 Y51.015 E11.37272
G1 X77.848 Y51.121 E11.37803
G1 X77.949 Y51.236 E11.38313
G1 X78.042 Y51.375 E11.3887
G1 X78.108 Y51.505 E11.39355
G1 X78.161 Y51.658 E11.39895
G1 X78.196 Y51.818 E11.4044
G1 X78.209 Y51.961 E11.40919
G1 X78.203 Y52.125 E11.41465
G1 X78.176 Y52.284 E11.42002
G1 X78.131 Y52.437 E11.42534
G1 X78.069 Y52.577 E11.43044
G1 X77.986 Y52.713 E11.43574
G1 X77.887 Y52.839 E11.44108
G1 X77.478 Y53.21 E11.45948
G1 X77.239 Y53.407 E11.46979
G1 X76.769 Y53.761 E11.48939
G1 X76.275 Y54.091 E11.50918
G1 X76.011 Y54.252 E11.51948
G1 X75.641 Y54.463 E11.53367
G1 X75.109 Y54.728 E11.55347
G1 X74.573 Y54.963 E11.57296
G1 X73.789 Y55.269 E11.601
G1 X73.789 Y58.152 E11.69703
G1 X73.789 Y58.173 E11.69773
G1 X73.789 Y58.218 E11.69923
G1 X73.788 Y58.837 E11.71985
G1 X73.768 Y59.078 E11.7279
G1 X73.721 Y59.325 E11.73628
G1 X73.649 Y59.556 E11.74434
G1 X73.553 Y59.78 E11.75246
G1 X73.432 Y59.996 E11.7607
G1 X73.289 Y60.194 E11.76884
G1 X73.223 Y60.272 E11.77224
G1 X73.033 Y60.462 E11.78119
G1 X72.85 Y60.609 E11.78901
G1 X72.75 Y60.677 E11.79304
G1 X72.562 Y60.783 E11.80023
G1 X72.528 Y60.803 E11.80154
G1 X72.441 Y60.843 E11.80473
G1 X72.202 Y60.931 E11.81322
G1 X72.131 Y60.948 E11.81565
G1 X71.96 Y60.991 E11.82152
G1 X71.765 Y61.017 E11.82808
G1 X71.712 Y61.025 E11.82986
G1 X71.599 Y61.031 E11.83363
G1 X71.4 Y61.031 E11.84026
G1 X71.058 Y61.031 E11.85165
G1 X70.705 Y61.031 E11.86341
G1 X70.364 Y61.031 E11.87477
G1 X70.168 Y61.031 E11.8813
G1 X69.833 Y61.03 E11.89246
G1 X69.5 Y61.029 E11.90355
G1 X69.414 Y61.028 E11.90641
G1 X69.172 Y61.001 E11.91452
G1 X69.109 Y60.988 E11.91667
G1 X68.95 Y60.953 E11.92209
G1 X68.749 Y60.885 E11.92916
G1 X68.703 Y60.869 E11.93078
G1 X68.483 Y60.768 E11.93884
G1 X68.276 Y60.642 E11.94692
G1 X68.086 Y60.498 E11.95486
G1 X67.894 Y60.316 E11.96367
G1 X67.748 Y60.143 E11.97121
G1 X67.611 Y59.941 E11.97934
G1 X67.497 Y59.725 E11.98748
G1 X67.404 Y59.491 E11.99586
G1 X67.374 Y59.395 E11.99922
G1 X67.318 Y59.14 E12.00791
G1 X67.293 Y58.921 E12.01525
G1 X67.293 Y58.383 E12.03317
G1 X67.293 Y58.328 E12.03501
G1 X67.293 Y58.202 E12.0392
G1 X67.289 Y55.275 E12.1367
G1 X66.26 Y54.862 E12.17364
G1 X65.735 Y54.617 E12.19294
G1 X65.217 Y54.34 E12.2125
G1 X64.729 Y54.044 E12.23152
G1 X64.253 Y53.72 E12.2507
G1 X63.778 Y53.357 E12.27061
G1 X63.341 Y52.984 E12.28975
G1 X62.924 Y52.587 E12.30893
G1 X62.518 Y52.157 E12.32863
G1 X62.332 Y51.944 E12.33804
G1 X61.974 Y51.497 E12.35712
G1 X61.631 Y51.019 E12.37672
G1 X61.322 Y50.532 E12.39593
G1 X61.029 Y50.014 E12.41575
G1 X60.779 Y49.508 E12.43455
G1 X60.55 Y48.974 E12.45391
G1 X60.343 Y48.406 E12.47405
G1 X60.179 Y47.869 E12.49275
G1 X60.04 Y47.308 E12.512
G1 X59.93 Y46.735 E12.53144
G1 X59.887 Y46.447 E12.54114
G1 X59.824 Y45.868 E12.56054
G1 X59.803 Y45.575 E12.57032
G1 X59.793 Y45.293 E12.57972
G1 X59.793 Y44.702 E12.59941
G1 X59.823 Y44.141 E12.61812
G1 X59.887 Y43.547 E12.63802
G1 X59.982 Y42.973 E12.6574
G1 X60.1 Y42.432 E12.67585
G1 X60.259 Y41.858 E12.69569
G1 X60.447 Y41.298 E12.71537
G1 X60.659 Y40.764 E12.7345
G1 X60.893 Y40.254 E12.75319
G1 X61.177 Y39.716 E12.77346
G1 X61.472 Y39.225 E12.79254
G1 X61.794 Y38.748 E12.81171
G1 X62.146 Y38.283 E12.83114
G1 X62.537 Y37.821 E12.8513
G1 X62.913 Y37.423 E12.86954
G1 X63.341 Y37.016 E12.88921
G1 X63.781 Y36.641 E12.90847
G1 X64.257 Y36.277 E12.92843
G1 X64.727 Y35.958 E12.94735
G1 X64.982 Y35.798 E12.95738
G1 X65.475 Y35.518 E12.97626
G1 X66.004 Y35.252 E12.99599
G1 X66.537 Y35.022 E13.01532
G1 X67.289 Y34.732 E13.04217
G1 X67.289 Y31.838 E13.13857
G1 X67.289 Y31.827 E13.13894
G1 X67.289 Y31.8 E13.13984
G1 X67.29 Y31.159 E13.16119
G1 X67.308 Y30.924 E13.16904
G1 X67.358 Y30.668 E13.17773
G1 X67.427 Y30.447 E13.18544
G1 X67.524 Y30.218 E13.19372
G1 X67.643 Y30.008 E13.20176
G1 X67.787 Y29.808 E13.20997
G1 X67.948 Y29.628 E13.21802
G1 X68.129 Y29.466 E13.22611
G1 X68.324 Y29.325 E13.23412
G1 X68.537 Y29.205 E13.24227
G1 X68.723 Y29.126 E13.24866
G1 X68.786 Y29.099 E13.25051
G1 X68.867 Y29.071 E13.25288
G1 X69.098 Y29.013 E13.25945
G1 X69.114 Y29.009
G1 X69.136 Y29.006 E13.25954
G1 X69.325 Y28.981 E13.264
G1 X69.365 Y28.975 E13.26423
G1 X69.478 Y28.969 E13.26618
G1 X69.68 Y28.969 E13.26967
G1 X70.02 Y28.969 E13.27238
G1 X70.373 Y28.969 E13.27368
G1 X70.714 Y28.969 E13.27448
G1 X70.911 Y28.969 E13.27508
G1 X71.244 Y28.97 E13.27729
G1 X71.576 Y28.971 E13.28181
G1 X71.663 Y28.972 E13.28263
G1 X71.905 Y28.999 E13.28756
G1 X71.957 Y29.01 E13.28816
G1 X72.127 Y29.047 E13.29299
G1 X72.189 Y29.068 E13.29441
G1 X72.374 Y29.131 E13.30034
G1 X72.596 Y29.233 E13.30848
G1 X72.805 Y29.359 E13.31661
G1 X72.988 Y29.498 E13.32426
G1 X73.17 Y29.67 E13.3326
G1 X73.337 Y29.868 E13.34123
G1 X73.47 Y30.066 E13.34918
G1 X73.584 Y30.281 E13.35728
G1 X73.668 Y30.493 E13.36488
G1 X73.736 Y30.737 E13.37332
G1 X73.775 Y30.977 E13.38141
G1 X73.789 Y31.232 E13.38992
G1 X73.789 Y31.652 E13.40391
G1 X73.789 Y31.673 E13.40461
G1 X73.789 Y31.717 E13.40607
G1 X73.789 Y34.724 E13.50624
G1 X74.837 Y35.148 E13.5439
G1 X75.371 Y35.398 E13.56354
G1 X75.632 Y35.533 E13.57332
G1 X76.14 Y35.825 E13.59284
G1 X76.649 Y36.156 E13.61307
G1 X77.121 Y36.501 E13.63254
G1 X77.599 Y36.894 E13.65315
G1 X77.857 Y37.13 E13.6648
G1 X77.964 Y37.257 E13.67033
G1 X78.052 Y37.393 E13.67573
G1 X78.117 Y37.526 E13.68066
G1 X78.183 Y37.736 E13.68799
G1 X78.206 Y37.915 E13.694
G1 X78.208 Y38.068 E13.6991
G1 X78.19 Y38.221 E13.70423
G1 X78.148 Y38.386 E13.7099
G1 X78.095 Y38.525 E13.71486
G1 X78.018 Y38.666 E13.72021
G1 X77.929 Y38.789 E13.72527
G1 X77.818 Y38.908 E13.73069
G1 X77.706 Y39.002 E13.73556
G1 X77.56 Y39.094 E13.74131
G1 X77.419 Y39.161 E13.74651
G1 X77.282 Y39.207 E13.75132
G1 X77.044 Y39.246 E13.75936
G1 X64.789 Y39.25 E14.16757
G1 X64.789 Y42.865 E14.28799
G1 X66.905 Y44.817 E14.38389
G1 X67.104 Y45 E14.39289
G1 X66.905 Y45.183 E14.39858
G1 X64.789 Y47.135 E14.49447
G1 X64.789 Y50.75 E14.61489
G1 F600 E13.61489
G0 F2625 X68.189 Y56.816
G1 F600 E14.61489
G1 F900 X68.026 Y57.13 E14.62668
G1 X67.903 Y57.461 E14.63844
G1 X67.827 Y57.792 E14.64975
G1 X67.801 Y57.987 E14.6563
G1 X67.792 Y58.201 E14.66344
G1 X67.788 Y58.327 E14.66762
G1 X67.792 Y58.381 E14.66941
G1 X67.82 Y58.681 E14.67945
G1 X67.898 Y59.027 E14.69126
G1 X68.019 Y59.358 E14.703
G1 X68.182 Y59.671 E14.71476
G1 X68.374 Y59.948 E14.72599
G1 X68.505 Y60.104 E14.73277
G1 X68.741 Y60.331 E14.74368
