;Generated by Cura LulzBot Edition GCodeWriter Version: 3.6.18
;FLAVOR:Marlin
;TIME:8442
;Filament used: 6.67696m
;Layer height: 0.38
;Generated with Cura_SteamEngine 3.6.18
M82 ;absolute extrusion mode
;This G-Code has been generated specifically for the LulzBot Mini 2 with SE 0.5mm Tool Head
M73 P0                  ; clear GLCD progress bar
M75 					; Start GLCD Print Timer
G26 					; clear potential 'probe fail' condition
M107 					; disable fans
M420 S0                 ; disable leveling matrix
G90 					; absolute positioning
M82 					; set extruder to absolute mode
G92 E0 					; set extruder position to 0
M140 S112 ; start bed heating up
G28                       ; Home Axis
G0 X160 F9999             ; Move toolhead to the right
G0 Z5 F6000               ; Move to bottom of printer
G91                       ; Set relative motion mode
M211 S0		  	  ; Turn off soft endstops
M400                      ; Finish moves
G0 Z-15 F500              ; Skip steppers against lower Z mounts
G90                       ; Return to absolute mode
M400                      ; Finish moves
M211 S1			  ; Turn soft endstops back on
M400                      ; Finish moves
G28                       ; Rehome
G0 X0 Y187 Z156 F200 			; move away from endstops
M117 Mini 2 Wiping...			; progress indicator message on LCD
M109 R170 	; soften filament before retraction
G1 E-15 F75 				; retract filament
M109 R170 	; wait for extruder to reach wiping temp
G1 X45 Y176 F11520 			; move above wiper pad
G1 Z0 F1200 				; push nozzle into wiper
G1 X45 Y178 Z-.5 F4000		; wiping
G1 X55 Y176 Z-.5 F4000		; wiping
G1 X45 Y177 Z0 F4000		; wiping
G1 X55 Y176 F4000		; wiping
G1 X45 Y178 F4000		; wiping
G1 X55 Y176 F4000		; wiping
G1 X45 Y178 F4000		; wiping
G1 X55 Y176 F4000		; wiping
G1 X60 Y178 F4000		; wiping
G1 X80 Y176 F4000		; wiping
G1 X60 Y178 F4000		; wiping
G1 X80 Y176 F4000		; wiping
G1 X60 Y178 F4000		; wiping
G1 X90 Y176 F4000		; wiping
G1 X80 Y178 F4000		; wiping
G1 X100 Y176 F4000		; wiping
G1 X80 Y178 F4000		; wiping
G1 X100 Y176 F4000		; wiping
G1 X80 Y178 F4000		; wiping
G1 X100 Y176 F4000		; wiping
G1 X110 Y178 F4000		; wiping
G1 X100 Y176 F4000		; wiping
G1 X110 Y178 F4000		; wiping
G1 X100 Y176 F4000		; wiping
G1 X110 Y178 F4000		; wiping
G1 X115 Y176 Z-0.5 F1000	; wiping
G1 Z10					; raise extruder
G28 X0 Y0				; home X and Y
M109 R170	; wait for extruder to reach probe temp
M204 S300				; set probing acceleration
G29					; start auto-leveling sequence
M420 S1                     ; enable leveling matrix
M425 Z			     		; use measured Z backlash for compensation
M425 Z F0		     		; turn off measured Z backlash compensation. (if activated in the quality settings, this command will automatically be ignored)
M204 S2000				; restore standard acceleration
G1 X5 Y15 Z10 F5000			; move up off last probe point
G4 S1					; pause
M400					; wait for moves to finish
M117 Heating...				; progress indicator message on LCD
M109 R245 ; wait for extruder to reach initial printing temp
M190 R112 ; wait for bed to reach printing temp
G1 Z2 E0 F75				; prime tiny bit of filment into the nozzle
M117 Mini 2 Printing...		; progress indicator message on LCD
M221 S100 T0
G92 E0
G1 F600 E-1
;LAYER_COUNT:21
;LAYER:0
M107
G0 F2625 X25.268 Y33.303 Z0.425
;TYPE:SKIRT
G1 F600 E0
G1 F900 X25.746 Y33.036 E0.01824
G1 X26.258 Y32.842 E0.03648
G1 X26.793 Y32.725 E0.05472
G1 X27.329 Y32.686 E0.07262
G1 X60.436 Y32.686 E1.17543
G1 X60.824 Y32.706 E1.18837
G1 X67.564 Y33.408 E1.41409
G1 X72.996 Y33.638 E1.5952
G1 X78.438 Y33.561 E1.77649
G1 X83.872 Y33.174 E1.95796
G1 X89.295 Y32.48 E2.14007
G1 X93.463 Y31.734 E2.28112
G1 X94.125 Y31.675 E2.30326
G1 X127.24 Y31.68 E3.40633
G1 X127.785 Y31.72 E3.42453
G1 X128.32 Y31.839 E3.44279
G1 X128.831 Y32.035 E3.46102
G1 X129.308 Y32.303 E3.47924
G1 X129.74 Y32.636 E3.49741
G1 X150.104 Y50.862 E4.40776
G1 X150.484 Y51.256 E4.42599
G1 X150.803 Y51.701 E4.44423
G1 X151.053 Y52.187 E4.46243
G1 X151.23 Y52.705 E4.48067
G1 X151.33 Y53.243 E4.49889
G1 X151.353 Y53.656 E4.51267
G1 X151.352 Y85.426 E5.57094
G1 X151.318 Y85.933 E5.58787
G1 X151.075 Y87.711 E5.64765
G1 X150.53 Y93.15 E5.82973
G1 X150.294 Y98.572 E6.01051
G1 X150.367 Y104.07 E6.19366
G1 X150.457 Y105.932 E6.25576
G1 X150.461 Y106.114 E6.26182
G1 X150.455 Y137.675 E7.31313
G1 X150.415 Y138.221 E7.33137
G1 X150.296 Y138.755 E7.34959
G1 X150.1 Y139.266 E7.36782
G1 X149.832 Y139.743 E7.38605
G1 X149.498 Y140.177 E7.40429
G1 X149.104 Y140.556 E7.4225
G1 X148.659 Y140.875 E7.44074
G1 X148.172 Y141.125 E7.45898
G1 X147.654 Y141.302 E7.47721
G1 X147.116 Y141.401 E7.49543
G1 X146.704 Y141.424 E7.50918
G1 X129.189 Y141.421 E8.09261
G1 X128.761 Y141.396 E8.10689
G1 X125.744 Y141.048 E8.20805
G1 X120.273 Y140.66 E8.39075
G1 X114.829 Y140.583 E8.57211
G1 X109.378 Y140.815 E8.75385
G1 X103.482 Y141.405 E8.95123
G1 X103.113 Y141.424 E8.96354
G1 X94.576 Y141.433 E9.24791
G1 X89.115 Y141.587 E9.42989
G1 X83.622 Y142.054 E9.61352
G1 X79.799 Y142.524 E9.74183
G1 X79.331 Y142.552 E9.75744
G1 X61.83 Y142.501 E10.34041
G1 X61.47 Y142.483 E10.35242
G1 X55.946 Y141.933 E10.53733
G1 X50.509 Y141.703 E10.7186
G1 X45.065 Y141.78 E10.89996
G1 X39.576 Y142.168 E11.08326
G1 X36.141 Y142.531 E11.19832
G1 X35.745 Y142.552 E11.21153
G1 X14.679 Y142.543 E11.91324
G1 X14.134 Y142.503 E11.93145
G1 X13.599 Y142.384 E11.9497
G1 X13.088 Y142.188 E11.96793
G1 X12.611 Y141.92 E11.98616
G1 X12.178 Y141.585 E12.0044
G1 X11.798 Y141.191 E12.02263
G1 X11.48 Y140.746 E12.04085
G1 X11.229 Y140.259 E12.0591
G1 X11.053 Y139.741 E12.07732
G1 X10.953 Y139.203 E12.09555
G1 X10.931 Y138.793 E12.10923
G1 X10.933 Y116.303 E12.85838
G1 X10.988 Y115.663 E12.87977
G1 X11.537 Y112.492 E12.98697
G1 X12.23 Y107.068 E13.16912
G1 X12.614 Y101.634 E13.35058
G1 X12.691 Y96.192 E13.53187
G1 X12.458 Y90.72 E13.71431
G1 X12.096 Y86.757 E13.84687
G1 X12.08 Y86.416 E13.85824
G1 X12.081 Y63.929 E14.60729
G1 X12.121 Y63.383 E14.62552
G1 X12.24 Y62.849 E14.64375
G1 X12.436 Y62.337 E14.66201
G1 X12.576 Y62.067 E14.67214
G1 X15.058 Y57.729 E14.83862
G1 X17.518 Y52.841 E15.0209
G1 X19.682 Y47.861 E15.20177
G1 X20.681 Y45.266 E15.2944
G1 X21.556 Y42.781 E15.38215
G1 X23.165 Y37.513 E15.56563
G1 X23.704 Y35.477 E15.63579
G1 X23.882 Y34.96 E15.654
G1 X24.133 Y34.474 E15.67222
G1 X24.453 Y34.029 E15.69048
G1 X24.834 Y33.636 E15.70872
G1 X25.268 Y33.303 E15.72694
G0 F2625 X25.693 Y33.628
G1 F900 X26.152 Y33.407 E15.74391
G1 X26.64 Y33.26 E15.76088
G1 X27.329 Y33.186 E15.78397
G1 X60.436 Y33.186 E16.88677
G1 X60.773 Y33.203 E16.89801
G1 X67.541 Y33.908 E17.12468
G1 X72.982 Y34.138 E17.30608
G1 X78.464 Y34.06 E17.48871
G1 X83.916 Y33.673 E17.67077
G1 X89.368 Y32.975 E17.85386
G1 X93.551 Y32.226 E17.99541
G1 X94.124 Y32.175 E18.01458
G1 X127.239 Y32.18 E19.11765
G1 X127.747 Y32.22 E19.13462
G1 X128.243 Y32.339 E19.15161
G1 X128.714 Y32.534 E19.1686
G1 X129.148 Y32.8 E19.18555
G1 X129.406 Y33.008 E19.19659
G1 X149.77 Y51.234 E20.10693
G1 X150.122 Y51.603 E20.12392
G1 X150.412 Y52.022 E20.14089
G1 X150.633 Y52.481 E20.15786
G1 X150.78 Y52.969 E20.17484
G1 X150.853 Y53.656 E20.19785
G1 X150.852 Y85.426 E21.25612
G1 X150.822 Y85.866 E21.27081
G1 X150.582 Y87.625 E21.32995
G1 X150.032 Y93.114 E21.51371
G1 X149.794 Y98.574 E21.69575
G1 X149.867 Y104.1 E21.87984
G1 X149.957 Y105.956 E21.94174
G1 X149.961 Y106.114 E21.947
G1 X149.955 Y137.675 E22.99831
G1 X149.915 Y138.183 E23.01529
G1 X149.796 Y138.678 E23.03224
G1 X149.601 Y139.149 E23.04922
G1 X149.335 Y139.583 E23.06618
G1 X149.004 Y139.971 E23.08317
G1 X148.617 Y140.302 E23.10013
G1 X148.183 Y140.569 E23.11711
G1 X147.712 Y140.764 E23.13409
G1 X147.217 Y140.883 E23.15104
G1 X146.704 Y140.924 E23.16819
G1 X129.189 Y140.921 E23.75162
G1 X128.818 Y140.9 E23.764
G1 X125.768 Y140.549 E23.86626
G1 X120.297 Y140.161 E24.04896
G1 X114.815 Y140.083 E24.23159
G1 X109.36 Y140.315 E24.41346
G1 X103.433 Y140.908 E24.61188
G1 X103.112 Y140.924 E24.62258
G1 X94.598 Y140.933 E24.90619
G1 X89.057 Y141.09 E25.09083
G1 X83.6 Y141.554 E25.27326
G1 X79.738 Y142.028 E25.40287
G1 X79.333 Y142.052 E25.41639
G1 X61.832 Y142.001 E25.99936
G1 X61.519 Y141.985 E26.0098
G1 X55.981 Y141.434 E26.19518
G1 X50.523 Y141.202 E26.37715
G1 X45.039 Y141.28 E26.55984
G1 X39.549 Y141.668 E26.74317
G1 X36.089 Y142.034 E26.85907
G1 X35.746 Y142.052 E26.87051
G1 X14.68 Y142.043 E27.57223
G1 X14.172 Y142.003 E27.5892
G1 X13.676 Y141.884 E27.60619
G1 X13.206 Y141.689 E27.62314
G1 X12.771 Y141.423 E27.64013
G1 X12.384 Y141.092 E27.65709
G1 X12.053 Y140.704 E27.67408
G1 X11.786 Y140.27 E27.69105
G1 X11.591 Y139.8 E27.708
G1 X11.471 Y139.304 E27.725
G1 X11.431 Y138.793 E27.74207
G1 X11.433 Y116.303 E28.49122
G1 X11.481 Y115.748 E28.50978
G1 X12.031 Y112.573 E28.61712
G1 X12.729 Y107.112 E28.8005
G1 X13.114 Y101.66 E28.98256
G1 X13.192 Y96.177 E29.16522
G1 X12.959 Y90.716 E29.3473
G1 X12.593 Y86.712 E29.48123
G1 X12.58 Y86.416 E29.4911
G1 X12.581 Y63.929 E30.24015
G1 X12.621 Y63.421 E30.25712
G1 X12.74 Y62.925 E30.27411
G1 X13.01 Y62.315 E30.29633
G1 X15.504 Y57.957 E30.46359
G1 X17.963 Y53.07 E30.64582
G1 X20.155 Y48.026 E30.82902
G1 X21.137 Y45.474 E30.9201
G1 X22.033 Y42.928 E31.01001
G1 X23.645 Y37.653 E31.19375
G1 X24.187 Y35.605 E31.26431
G1 X24.356 Y35.124 E31.2813
G1 X24.597 Y34.676 E31.29824
G1 X24.906 Y34.27 E31.31524
G1 X25.274 Y33.918 E31.3322
G1 X25.693 Y33.628 E31.34917
G1 F600 E30.34917
;MESH:
G0 F2625 X16.571 Y85.676
;TYPE:WALL-INNER
G1 F600 E31.34917
G1 F900 X16.571 Y64.238 E32.06328
G1 X28.071 Y52.737 E32.60505
G1 X28.071 Y37.176 E33.12339
G1 X60.159 Y37.176 E34.19225
G1 X80.071 Y55 E35.08244
G1 X80.071 Y85.676 E36.10427
G1 X64.065 Y85.676 E36.63744
G1 X64.065 Y78.044 E36.89166
G1 X61.913 Y78.044 E36.96335
G1 X61.689 Y78.044 E36.97081
G1 X61.404 Y78.044 E36.9803
G1 X61.216 Y78.044 E36.98656
G1 X61.404 Y77.933 E36.98802
G1 X61.689 Y77.721 E36.99412
G1 X61.852 Y77.568 E37.00034
G1 X61.951 Y77.476 E37.00484
G1 X62.181 Y77.207 E37.01663
G1 X62.384 Y76.914 E37.0285
G1 X62.553 Y76.598 E37.04044
G1 X62.687 Y76.269 E37.05227
G1 X62.783 Y75.929 E37.06404
G1 X62.844 Y75.581 E37.07581
G1 X62.865 Y75.265 E37.08636
G1 X62.846 Y74.828 E37.10093
G1 X62.784 Y74.471 E37.113
G1 X62.688 Y74.13 E37.1248
G1 X62.554 Y73.801 E37.13663
G1 X62.385 Y73.487 E37.14851
G1 X62.183 Y73.192 E37.16042
G1 X61.952 Y72.924 E37.17221
G1 X61.691 Y72.68 E37.18411
G1 X61.406 Y72.466 E37.19598
G1 X61.1 Y72.284 E37.20784
G1 X60.776 Y72.137 E37.21969
G1 X60.398 Y72.017 E37.2329
G1 X60.398 Y63.841 E37.50525
G1 X60.478 Y63.823 E37.50798
G1 X60.814 Y63.706 E37.51983
G1 X61.135 Y63.555 E37.53165
G1 X61.441 Y63.368 E37.54359
G1 X61.722 Y63.151 E37.55542
G1 X61.978 Y62.906 E37.56722
G1 X62.208 Y62.633 E37.57911
G1 X62.407 Y62.335 E37.59105
G1 X62.571 Y62.02 E37.60288
G1 X62.7 Y61.69 E37.61468
G1 X62.794 Y61.346 E37.62656
G1 X62.849 Y60.995 E37.63839
G1 X62.865 Y60.683 E37.6488
G1 X62.848 Y60.326 E37.66071
G1 X62.793 Y59.973 E37.67261
G1 X62.699 Y59.628 E37.68452
G1 X62.57 Y59.298 E37.69632
G1 X62.406 Y58.984 E37.70812
G1 X62.209 Y58.687 E37.71999
G1 X61.981 Y58.413 E37.73187
G1 X61.722 Y58.166 E37.74379
G1 X61.442 Y57.95 E37.75557
G1 X61.136 Y57.763 E37.76751
G1 X60.815 Y57.612 E37.77933
G1 X60.479 Y57.495 E37.79118
G1 X60.131 Y57.417 E37.80306
G1 X59.777 Y57.376 E37.81493
G1 X59.42 Y57.375 E37.82682
G1 X59.068 Y57.411 E37.83861
G1 X58.718 Y57.485 E37.85053
G1 X58.38 Y57.598 E37.8624
G1 X58.057 Y57.744 E37.8742
G1 X57.751 Y57.925 E37.88605
G1 X57.467 Y58.136 E37.89783
G1 X57.37 Y58.226 E37.90224
G1 X49.7 Y53.113 E38.2093
G1 X49.733 Y53.017 E38.21268
G1 X49.801 Y52.742 E38.22211
G1 X49.839 Y52.46 E38.23159
G1 X49.852 Y52.186 E38.24073
G1 X49.844 Y51.927 E38.24936
G1 X49.811 Y51.67 E38.25799
G1 X49.757 Y51.418 E38.26658
G1 X49.681 Y51.169 E38.27525
G1 X49.583 Y50.93 E38.28385
G1 X49.467 Y50.703 E38.29234
G1 X49.332 Y50.484 E38.30091
G1 X49.176 Y50.275 E38.3096
G1 X49.002 Y50.082 E38.31826
G1 X48.814 Y49.905 E38.32686
G1 X48.611 Y49.746 E38.33545
G1 X48.4 Y49.607 E38.34386
G1 X48.175 Y49.482 E38.35244
G1 X47.935 Y49.378 E38.36115
G1 X47.691 Y49.296 E38.36972
G1 X47.443 Y49.235 E38.37823
G1 X47.187 Y49.195 E38.38686
G1 X46.932 Y49.178 E38.39538
G1 X46.675 Y49.18 E38.40394
G1 X46.417 Y49.207 E38.41258
G1 X46.161 Y49.255 E38.42125
G1 X45.911 Y49.328 E38.42993
G1 X45.675 Y49.418 E38.43834
G1 X45.44 Y49.528 E38.44699
G1 X45.216 Y49.662 E38.45568
G1 X45.008 Y49.81 E38.46418
G1 X44.813 Y49.977 E38.47274
G1 X44.629 Y50.162 E38.48143
G1 X44.466 Y50.361 E38.49
G1 X44.32 Y50.571 E38.49852
G1 X44.191 Y50.794 E38.5071
G1 X44.082 Y51.028 E38.5157
G1 X43.993 Y51.271 E38.52432
G1 X43.927 Y51.518 E38.53283
G1 X43.88 Y51.772 E38.54144
G1 X43.857 Y52.027 E38.54997
G1 X43.854 Y52.285 E38.55856
G1 X43.875 Y52.545 E38.56725
G1 X43.917 Y52.798 E38.57579
G1 X43.981 Y53.048 E38.58439
G1 X44.068 Y53.293 E38.59305
G1 X44.175 Y53.528 E38.60165
G1 X44.3 Y53.752 E38.61019
G1 X44.444 Y53.964 E38.61873
G1 X44.606 Y54.166 E38.62736
G1 X44.787 Y54.352 E38.636
G1 X44.981 Y54.521 E38.64457
G1 X45.19 Y54.673 E38.65318
G1 X45.41 Y54.806 E38.66174
G1 X45.64 Y54.92 E38.67029
G1 X45.881 Y55.014 E38.67891
G1 X46.128 Y55.088 E38.6875
G1 X46.38 Y55.139 E38.69606
G1 X46.637 Y55.169 E38.70468
G1 X46.893 Y55.176 E38.71321
G1 X47.151 Y55.163 E38.72182
G1 X47.407 Y55.126 E38.73044
G1 X47.658 Y55.068 E38.73902
G1 X47.905 Y54.987 E38.74768
G1 X48.141 Y54.887 E38.75621
G1 X48.369 Y54.767 E38.7648
G1 X48.586 Y54.626 E38.77342
G1 X48.814 Y54.446 E38.78309
G1 X56.482 Y59.556 E39.09004
G1 X56.372 Y59.928 E39.10296
G1 X56.31 Y60.281 E39.1149
G1 X56.29 Y60.638 E39.12681
G1 X56.307 Y60.992 E39.13861
G1 X56.362 Y61.344 E39.15048
G1 X56.456 Y61.689 E39.16239
G1 X56.585 Y62.019 E39.17419
G1 X56.749 Y62.333 E39.18599
G1 X56.946 Y62.63 E39.19787
G1 X57.174 Y62.904 E39.20974
G1 X57.433 Y63.151 E39.22166
G1 X57.714 Y63.368 E39.23349
G1 X58.017 Y63.553 E39.24531
G1 X58.34 Y63.705 E39.2572
G1 X58.676 Y63.822 E39.26906
G1 X58.758 Y63.84 E39.27185
G1 X58.758 Y72.017 E39.54423
G1 X58.38 Y72.138 E39.55745
G1 X58.056 Y72.285 E39.5693
G1 X57.751 Y72.466 E39.58112
G1 X57.467 Y72.677 E39.5929
G1 X57.205 Y72.922 E39.60485
G1 X56.972 Y73.193 E39.61676
G1 X56.771 Y73.487 E39.62862
G1 X56.603 Y73.798 E39.64039
G1 X56.469 Y74.129 E39.65229
G1 X56.372 Y74.469 E39.66407
G1 X56.31 Y74.822 E39.676
G1 X56.29 Y75.179 E39.68791
G1 X56.307 Y75.534 E39.69975
G1 X56.362 Y75.884 E39.71155
G1 X56.455 Y76.23 E39.72349
G1 X56.585 Y76.56 E39.7353
G1 X56.749 Y76.875 E39.74713
G1 X56.946 Y77.17 E39.75895
G1 X57.174 Y77.445 E39.77085
G1 X57.3 Y77.565 E39.77665
G1 X57.433 Y77.692 E39.78277
G1 X57.714 Y77.909 E39.7946
G1 X57.935 Y78.044 E39.80322
G1 X57.714 Y78.044 E39.80393
G1 X57.433 Y78.044 E39.80815
G1 X57.249 Y78.044 E39.81343
G1 X45.527 Y78.044 E40.2039
G1 X45.487 Y78.044 E40.20523
G1 X45.318 Y78.044 E40.21086
G1 X45.228 Y78.044 E40.21386
G1 X45.318 Y77.914 E40.21577
G1 X45.487 Y77.598 E40.22444
G1 X45.502 Y77.561 E40.22571
G1 X45.621 Y77.269 E40.23621
G1 X45.717 Y76.929 E40.24798
G1 X45.778 Y76.581 E40.25975
G1 X45.799 Y76.265 E40.2703
G1 X45.78 Y75.828 E40.28487
G1 X45.718 Y75.471 E40.29694
G1 X45.622 Y75.13 E40.30874
G1 X45.488 Y74.801 E40.32057
G1 X45.319 Y74.487 E40.33245
G1 X45.117 Y74.192 E40.34436
G1 X44.886 Y73.924 E40.35615
G1 X44.625 Y73.68 E40.36805
G1 X44.34 Y73.466 E40.37992
G1 X44.034 Y73.284 E40.39178
G1 X43.711 Y73.137 E40.4036
G1 X43.37 Y73.024 E40.41557
G1 X43.022 Y72.951 E40.42741
G1 X42.67 Y72.915 E40.4392
G1 X42.314 Y72.916 E40.45105
G1 X41.959 Y72.957 E40.46296
G1 X41.611 Y73.035 E40.47484
G1 X41.276 Y73.152 E40.48666
G1 X40.952 Y73.302 E40.49855
G1 X40.648 Y73.49 E40.51046
G1 X40.368 Y73.706 E40.52224
G1 X40.109 Y73.953 E40.53416
G1 X39.881 Y74.226 E40.54601
G1 X39.683 Y74.521 E40.55784
G1 X39.518 Y74.837 E40.56972
G1 X39.389 Y75.168 E40.58155
G1 X39.295 Y75.513 E40.59346
G1 X39.271 Y75.667 E40.59865
G1 X31.376 Y76.327 E40.86255
G1 X31.236 Y75.931 E40.87655
G1 X31.071 Y75.587 E40.88925
G1 X30.873 Y75.261 E40.90196
G1 X30.644 Y74.955 E40.91469
G1 X30.385 Y74.673 E40.92745
G1 X30.102 Y74.42 E40.94009
G1 X29.794 Y74.193 E40.95283
