;Generated by Cura LulzBot Edition GCodeWriter Version: 2.6.69
;FLAVOR:RepRap
;TIME:2119
;Filament used: 1.10489m
;Layer height: 0.273
;Generated with Cura_SteamEngine 2.6.69
;This G-Code has been generated specifically for the LulzBot Mini with Aerostruder
G26 ; clear potential 'probe fail' condition
G21 ; set units to Millimetres
M107 ; disable fans
G90 ; absolute positioning
M82 ; set extruder to absolute mode
G92 E0 ; set extruder position to 0
M140 S115 ; start bed heating up
G28 ; home all axes
G0 X0 Y187 Z156 F200 ; move away from endstops
M109 R170 ; soften filament before retraction
G1 E-15 F75 ; retract filament
M109 R170 ; wait for extruder to reach wiping temp
G1 X45 Y173 F11520 ; move above wiper pad
G1 Z0 F1200 ; push nozzle into wiper
G1 X42 Y173 Z-.5 F4000 ; wiping
G1 X52 Y171 Z-.5 F4000 ; wiping
G1 X42 Y173 Z0 F4000 ; wiping
G1 X52 Y171 F4000 ; wiping
G1 X42 Y173 F4000 ; wiping
G1 X52 Y171 F4000 ; wiping
G1 X42 Y173 F4000 ; wiping
G1 X52 Y171 F4000 ; wiping
G1 X57 Y173 F4000 ; wiping
G1 X77 Y171 F4000 ; wiping
G1 X57 Y173 F4000 ; wiping
G1 X77 Y171 F4000 ; wiping
G1 X57 Y173 F4000 ; wiping
G1 X87 Y171 F4000 ; wiping
G1 X77 Y173 F4000 ; wiping
G1 X97 Y171 F4000 ; wiping
G1 X77 Y173 F4000 ; wiping
G1 X97 Y171 F4000 ; wiping
G1 X77 Y173 F4000 ; wiping
G1 X97 Y171 F4000 ; wiping
G1 X107 Y173 F4000 ; wiping
G1 X97 Y171 F4000 ; wiping
G1 X107 Y173 F4000 ; wiping
G1 X97 Y171 F4000 ; wiping
G1 X107 Y173 F4000 ; wiping
G1 X112 Y171 Z-0.5 F1000 ; wiping
G1 Z10 ; raise extruder
G28 X0 Y0 ; home X and Y
G0 X0 Y187 F200 ; move away from endstops
M109 R170 ; wait for extruder to reach probe temp
M204 S300 ; set probing acceleration
G29 ; start auto-leveling sequence
M204 S2000 ; restore standard acceleration
G28 X0 Y0 ; re-home to account for build variance of earlier mini builds
G0 X0 Y187 F200 ; move away from endstops
G0 Y152 F4000 ; move in front of wiper pad
G4 S1 ; pause
M400 ; wait for moves to finish
M117 Heating... ; progress indicator message on LCD
M109 R250 ; wait for extruder to reach printing temp
M190 S116 ; wait for bed to reach printing temp
G1 Z2 E0 F75 ; prime tiny bit of filament into the nozzle
M117 Mini Printing... ; progress indicator message on LCD


M221 S100
;LAYER_COUNT:7
;LAYER:0
M107
M204 S1000
M205 X10
G0 F2250 X10.86 Y7.132 Z0.42
;TYPE:SKIRT
G1 F900 X11.294 Y6.523 E0.02954
G1 X11.681 Y6.072 E0.05302
G1 X12.184 Y5.583 E0.08073
G1 X12.738 Y5.149 E0.10853
G1 X13.577 Y4.626 E0.14758
G1 X14.033 Y4.389 E0.16788
G1 X14.358 Y4.27 E0.18155
G1 X15.404 Y3.95 E0.22476
G1 X15.905 Y3.839 E0.24503
G1 X16.171 Y3.812 E0.2556
G1 X16.971 Y3.764 E0.28725
G1 X17.243 Y3.759 E0.298
G1 X24.174 Y3.914 E0.57186
G1 X28.522 Y3.769 E0.74371
G1 X28.697 Y3.768 E0.75062
G1 X36.172 Y3.914 E1.04596
G1 X41.073 Y3.76 E1.23965
G1 X41.251 Y3.759 E1.24668
G1 X48.181 Y3.914 E1.5205
G1 X53.073 Y3.76 E1.71384
G1 X53.251 Y3.759 E1.72088
G1 X60.181 Y3.914 E1.99469
G1 X65.073 Y3.76 E2.18803
G1 X65.251 Y3.759 E2.19507
G1 X72.181 Y3.914 E2.46888
G1 X77.073 Y3.76 E2.66222
G1 X77.251 Y3.759 E2.66926
G1 X84.174 Y3.914 E2.9428
G1 X88.522 Y3.769 E3.11465
G1 X88.697 Y3.768 E3.12156
G1 X96.166 Y3.914 E3.41666
G1 X100.522 Y3.769 E3.58883
G1 X100.697 Y3.768 E3.59574
G1 X108.166 Y3.914 E3.89084
G1 X112.522 Y3.769 E4.063
G1 X112.697 Y3.768 E4.06992
G1 X120.166 Y3.914 E4.36502
G1 X124.522 Y3.769 E4.53718
G1 X124.697 Y3.768 E4.5441
G1 X132.178 Y3.914 E4.83967
G1 X137.425 Y3.789 E5.04699
G1 X137.938 Y3.817 E5.06729
G1 X138.197 Y3.862 E5.07767
G1 X138.858 Y4.004 E5.10438
G1 X139.422 Y4.179 E5.12771
G1 X140.133 Y4.472 E5.15808
G1 X140.786 Y4.832 E5.18754
G1 X141.613 Y5.419 E5.2276
G1 X142.15 Y5.895 E5.25595
G1 X142.627 Y6.422 E5.28403
G1 X142.983 Y6.895 E5.30741
G1 X143.372 Y7.521 E5.33652
G1 X143.641 Y8.057 E5.36021
G1 X143.9 Y8.717 E5.38822
G1 X144.088 Y9.412 E5.41666
G1 X144.246 Y10.42 E5.45697
G1 X144.284 Y11.042 E5.48158
G1 X144.134 Y15.505 E5.65798
G1 X144.198 Y21.047 E5.87692
G1 X144.284 Y22.827 E5.94731
G1 X144.287 Y23.058 E5.95644
G1 X144.127 Y30.277 E6.24167
G1 X144.287 Y34.961 E6.42681
G1 X144.287 Y35.191 E6.4359
G1 X144.134 Y39.497 E6.6061
G1 X144.198 Y45.031 E6.82472
G1 X144.284 Y46.811 E6.89512
G1 X144.287 Y47.042 E6.90424
G1 X144.127 Y54.261 E7.18948
G1 X144.287 Y58.948 E7.37473
G1 X144.287 Y59.178 E7.38382
G1 X144.134 Y63.484 E7.55402
G1 X144.198 Y69.016 E7.77256
G1 X144.284 Y70.794 E7.84288
G1 X144.287 Y71.026 E7.85204
G1 X144.127 Y78.247 E8.13736
G1 X144.287 Y82.933 E8.32257
G1 X144.287 Y83.163 E8.33166
G1 X144.134 Y87.468 E8.50182
G1 X144.198 Y93 E8.72036
G1 X144.284 Y94.778 E8.79068
G1 X144.287 Y95.012 E8.79993
G1 X144.125 Y102.17 E9.08275
G1 X144.287 Y106.918 E9.27042
G1 X144.287 Y107.149 E9.27954
G1 X144.134 Y111.392 E9.44726
G1 X144.195 Y116.92 E9.66564
G1 X144.284 Y118.762 E9.73849
G1 X144.287 Y118.996 E9.74773
G1 X144.125 Y126.154 E10.03056
G1 X144.287 Y130.895 E10.21795
G1 X144.287 Y131.127 E10.22712
G1 X144.134 Y135.368 E10.39475
G1 X144.195 Y140.901 E10.61333
G1 X144.277 Y143.084 E10.69963
G1 X144.219 Y143.834 E10.72934
G1 X144.026 Y144.831 E10.76946
G1 X143.81 Y145.524 E10.79813
G1 X143.511 Y146.209 E10.82766
G1 X143.216 Y146.745 E10.85182
G1 X142.81 Y147.342 E10.88034
G1 X142.338 Y147.894 E10.90903
G1 X141.59 Y148.595 E10.94953
G1 X141.189 Y148.916 E10.96982
G1 X140.865 Y149.11 E10.98474
G1 X139.844 Y149.645 E11.03027
G1 X139.372 Y149.847 E11.05055
G1 X138.986 Y149.952 E11.06635
G1 X137.98 Y150.162 E11.10695
G1 X137.241 Y150.231 E11.13627
G1 X129.834 Y150.086 E11.42892
G1 X125.478 Y150.231 E11.60108
G1 X125.303 Y150.232 E11.608
G1 X117.834 Y150.086 E11.90309
G1 X113.478 Y150.231 E12.07526
G1 X113.303 Y150.232 E12.08217
G1 X105.834 Y150.086 E12.37727
G1 X101.478 Y150.231 E12.54944
G1 X101.303 Y150.232 E12.55635
G1 X93.834 Y150.086 E12.85145
G1 X89.478 Y150.231 E13.02362
G1 X89.303 Y150.232 E13.03053
G1 X81.834 Y150.086 E13.32563
G1 X77.478 Y150.231 E13.49779
G1 X77.303 Y150.232 E13.50471
G1 X69.834 Y150.086 E13.79981
G1 X65.478 Y150.231 E13.97197
G1 X65.303 Y150.232 E13.97888
G1 X57.834 Y150.086 E14.27398
G1 X53.478 Y150.231 E14.44615
G1 X53.303 Y150.232 E14.45306
G1 X45.834 Y150.086 E14.74816
G1 X41.478 Y150.231 E14.92033
G1 X41.303 Y150.232 E14.92724
G1 X33.834 Y150.086 E15.22234
G1 X29.478 Y150.231 E15.39451
G1 X29.303 Y150.232 E15.40142
G1 X21.822 Y150.086 E15.69699
G1 X16.575 Y150.211 E15.90432
G1 X16.062 Y150.183 E15.92461
G1 X15.803 Y150.138 E15.935
G1 X15.142 Y149.996 E15.9617
G1 X14.577 Y149.821 E15.98507
G1 X13.864 Y149.527 E16.01553
G1 X13.21 Y149.166 E16.04504
G1 X12.384 Y148.579 E16.08507
G1 X11.85 Y148.104 E16.1133
G1 X11.372 Y147.576 E16.14144
G1 X10.94 Y146.976 E16.17064
G1 X10.408 Y146.028 E16.21358
G1 X10.193 Y145.562 E16.23386
G1 X10.079 Y145.192 E16.24915
G1 X9.826 Y144.151 E16.29147
G1 X9.744 Y143.645 E16.31172
G1 X9.735 Y143.268 E16.32662
G1 X9.84 Y139.924 E16.45878
G1 X9.852 Y134.376 E16.67793
G1 X9.715 Y131.151 E16.80544
G1 X9.715 Y130.872 E16.81646
G1 X9.84 Y127.904 E16.93381
G1 X9.852 Y122.384 E17.15186
G1 X9.715 Y119.159 E17.27937
G1 X9.715 Y118.88 E17.29039
G1 X9.84 Y115.912 E17.40774
G1 X9.852 Y110.392 E17.62579
G1 X9.715 Y107.167 E17.7533
G1 X9.715 Y106.888 E17.76432
G1 X9.84 Y103.92 E17.88167
G1 X9.852 Y98.4 E18.09972
G1 X9.715 Y95.175 E18.22723
G1 X9.715 Y94.896 E18.23825
G1 X9.84 Y91.922 E18.35584
G1 X9.851 Y86.401 E18.57393
G1 X9.715 Y83.187 E18.701
G1 X9.715 Y82.909 E18.71198
G1 X9.84 Y79.93 E18.82976
G1 X9.851 Y74.409 E19.04786
G1 X9.715 Y71.195 E19.17493
G1 X9.715 Y70.917 E19.18591
G1 X9.84 Y67.938 E19.30369
G1 X9.851 Y62.417 E19.52178
G1 X9.715 Y59.201 E19.64894
G1 X9.715 Y58.924 E19.65988
G1 X9.84 Y55.941 E19.77782
G1 X9.851 Y50.419 E19.99595
G1 X9.715 Y47.21 E20.12282
G1 X9.715 Y46.932 E20.13381
G1 X9.84 Y43.949 E20.25174
G1 X9.851 Y38.427 E20.46987
G1 X9.715 Y35.218 E20.59675
G1 X9.715 Y34.94 E20.60773
G1 X9.84 Y31.957 E20.72567
G1 X9.851 Y26.435 E20.9438
G1 X9.715 Y23.226 E21.07068
G1 X9.715 Y22.947 E21.0817
G1 X9.84 Y19.975 E21.1992
G1 X9.851 Y14.443 E21.41773
G1 X9.726 Y10.852 E21.55967
G1 X9.748 Y10.339 E21.57995
G1 X9.796 Y10.052 E21.59145
G1 X10.016 Y9.016 E21.63328
G1 X10.25 Y8.314 E21.66251
G1 X10.553 Y7.66 E21.69099
G1 X10.86 Y7.132 E21.71511
G1 F420 E20.71511
G0 F2250 X13.019 Y8.615
G0 X13.825 Y9.145
;TYPE:WALL-OUTER
G1 F420 E21.71511
G1 F900 X14.006 Y8.869 E21.72815
G1 X14.211 Y8.613 E21.74111
G1 X14.444 Y8.369 E21.75443
G1 X14.686 Y8.158 E21.76712
G1 X14.968 Y7.953 E21.78089
G1 X15.25 Y7.785 E21.79385
G1 X15.543 Y7.643 E21.80672
G1 X15.86 Y7.524 E21.82009
G1 X16.173 Y7.438 E21.83291
G1 X16.499 Y7.379 E21.846
G1 X16.838 Y7.348 E21.85945
G1 X17.162 Y7.348 E21.87225
G1 X17.501 Y7.379 E21.88569
G1 X17.827 Y7.438 E21.89878
G1 X18.14 Y7.524 E21.9116
G1 X18.457 Y7.643 E21.92498
G1 X18.75 Y7.785 E21.93784
G1 X19.032 Y7.953 E21.95081
G1 X19.314 Y8.158 E21.96458
G1 X19.556 Y8.369 E21.97726
G1 X19.789 Y8.613 E21.99059
G1 X19.994 Y8.869 E22.00354
G1 X20.175 Y9.145 E22.01658
G1 X20.332 Y9.435 E22.02961
G1 X20.465 Y9.749 E22.04308
G1 X20.567 Y10.062 E22.05608
G1 X20.641 Y10.382 E22.06906
G1 X20.684 Y10.706 E22.08197
G1 X20.698 Y10.998 E22.09352
G1 X20.687 Y11.328 E22.10656
G1 X20.647 Y11.66 E22.11977
G1 X20.579 Y11.974 E22.13246
G1 X20.476 Y12.308 E22.14627
G1 X20.356 Y12.599 E22.1587
G1 X20.196 Y12.905 E22.17234
G1 X20.023 Y13.174 E22.18498
G1 X19.816 Y13.441 E22.19832
G1 X19.592 Y13.681 E22.21129
G1 X19.34 Y13.906 E22.22463
G1 X19.08 Y14.102 E22.2375
G1 X18.792 Y14.278 E22.25083
G1 X18.492 Y14.427 E22.26406
G1 X18.142 Y14.564 E22.27891
G1 X17.827 Y14.651 E22.29182
G1 X17.5 Y14.71 E22.30494
G1 X17.163 Y14.74 E22.31831
G1 X16.837 Y14.74 E22.33119
G1 X16.5 Y14.71 E22.34455
G1 X16.173 Y14.651 E22.35768
G1 X15.864 Y14.566 E22.37034
G1 X15.539 Y14.443 E22.38406
G1 X15.25 Y14.304 E22.39673
G1 X14.968 Y14.136 E22.4097
G1 X14.683 Y13.929 E22.42361
G1 X14.445 Y13.72 E22.43612
G1 X14.217 Y13.482 E22.44914
G1 X14.005 Y13.216 E22.46258
G1 X13.822 Y12.939 E22.47569
G1 X13.668 Y12.654 E22.48849
G1 X13.535 Y12.341 E22.50192
G1 X13.433 Y12.026 E22.515
G1 X13.358 Y11.7 E22.52822
G1 X13.316 Y11.383 E22.54085
G1 X13.301 Y11.044 E22.55425
G1 X13.316 Y10.706 E22.56762
G1 X13.359 Y10.382 E22.58053
G1 X13.433 Y10.062 E22.5935
G1 X13.535 Y9.749 E22.60651
G1 X13.668 Y9.435 E22.61998
G1 X13.825 Y9.145 E22.63301
G0 F2250 X13.962 Y8.936
G0 X14.387 Y9.472
G1 F900 X14.231 Y9.764 E22.64608
G1 X14.109 Y10.07 E22.6591
G1 X14.021 Y10.388 E22.67213
G1 X13.967 Y10.715 E22.68522
G1 X13.95 Y11.044 E22.69824
G1 X13.967 Y11.374 E22.71129
G1 X14.021 Y11.7 E22.72434
G1 X14.109 Y12.018 E22.73738
G1 X14.231 Y12.325 E22.75043
G1 X14.387 Y12.617 E22.7635
G1 X14.572 Y12.891 E22.77656
G1 X14.786 Y13.142 E22.78959
G1 X15.025 Y13.369 E22.80261
G1 X15.288 Y13.569 E22.81566
G1 X15.571 Y13.739 E22.82871
G1 X15.871 Y13.878 E22.84177
G1 X16.184 Y13.983 E22.85481
G1 X16.507 Y14.055 E22.86788
G1 X16.835 Y14.09 E22.88091
G1 X17.165 Y14.09 E22.89395
G1 X17.493 Y14.055 E22.90698
G1 X17.816 Y13.983 E22.92005
G1 X18.129 Y13.878 E22.93309
G1 X18.429 Y13.739 E22.94615
G1 X18.712 Y13.569 E22.95919
G1 X18.975 Y13.369 E22.97224
G1 X19.214 Y13.142 E22.98526
G1 X19.428 Y12.891 E22.99829
G1 X19.613 Y12.617 E23.01135
G1 X19.769 Y12.325 E23.02443
G1 X19.891 Y12.018 E23.03748
G1 X19.979 Y11.7 E23.05051
G1 X20.033 Y11.374 E23.06357
G1 X20.05 Y11.044 E23.07662
G1 X20.033 Y10.715 E23.08963
G1 X19.979 Y10.388 E23.10273
G1 X19.891 Y10.07 E23.11576
G1 X19.769 Y9.764 E23.12877
G1 X19.613 Y9.472 E23.14185
G1 X19.428 Y9.198 E23.15491
G1 X19.214 Y8.946 E23.16797
G1 X18.975 Y8.719 E23.18099
G1 X18.711 Y8.519 E23.19407
G1 X18.429 Y8.349 E23.20708
G1 X18.129 Y8.211 E23.22013
G1 X17.816 Y8.106 E23.23317
G1 X17.494 Y8.035 E23.24619
G1 X17.166 Y7.998 E23.25923
G1 X16.834 Y7.998 E23.27235
G1 X16.506 Y8.035 E23.28538
G1 X16.184 Y8.106 E23.29841
G1 X15.871 Y8.211 E23.31145
G1 X15.571 Y8.349 E23.3245
G1 X15.289 Y8.519 E23.3375
G1 X15.025 Y8.719 E23.35059
G1 X14.786 Y8.946 E23.36361
G1 X14.572 Y9.198 E23.37667
G1 X14.387 Y9.472 E23.38973
G0 F2250 X14.27 Y9.692
G1 F420 E22.38973
G0 F2250 X15.023 Y10.38
G0 X15.24 Y12.195
G0 X15.25 Y12.275
G0 X15.629 Y15.422
G0 X15.639 Y15.501
G0 X15.999 Y18.482
G0 X16.174 Y19.43
G1 F420 E23.38973
G1 F900 X16.5 Y19.37 E23.40282
G1 X16.837 Y19.34 E23.41619
G1 X17.163 Y19.34 E23.42906
G1 X17.5 Y19.37 E23.44243
G1 X17.826 Y19.43 E23.45552
G1 X18.14 Y19.516 E23.46838
G1 X18.457 Y19.635 E23.48176
G1 X18.75 Y19.777 E23.49462
G1 X19.032 Y19.945 E23.50759
G1 X19.314 Y20.15 E23.52136
G1 X19.556 Y20.361 E23.53404
G1 X19.783 Y20.598 E23.547
G1 X20.001 Y20.872 E23.56084
G1 X20.175 Y21.137 E23.57336
G1 X20.332 Y21.427 E23.58639
G1 X20.465 Y21.741 E23.59986
G1 X20.567 Y22.054 E23.61286
G1 X20.641 Y22.374 E23.62583
G1 X20.684 Y22.698 E23.63875
G1 X20.698 Y22.99 E23.65029
G1 X20.687 Y23.32 E23.66334
G1 X20.647 Y23.652 E23.67655
G1 X20.579 Y23.966 E23.68924
G1 X20.476 Y24.3 E23.70304
G1 X20.356 Y24.591 E23.71548
G1 X20.196 Y24.897 E23.72912
G1 X20.023 Y25.166 E23.74175
G1 X19.816 Y25.433 E23.7551
G1 X19.592 Y25.673 E23.76807
G1 X19.34 Y25.898 E23.78141
G1 X19.08 Y26.094 E23.79427
G1 X18.792 Y26.27 E23.80761
G1 X18.452 Y26.439 E23.8226
G1 X18.142 Y26.555 E23.83568
G1 X17.823 Y26.643 E23.84875
G1 X17.5 Y26.702 E23.86172
G1 X17.163 Y26.732 E23.87509
G1 X16.837 Y26.732 E23.88796
G1 X16.5 Y26.702 E23.90133
G1 X16.177 Y26.643 E23.9143
G1 X15.858 Y26.555 E23.92737
G1 X15.543 Y26.437 E23.94066
G1 X15.25 Y26.296 E23.9535
G1 X14.968 Y26.128 E23.96647
G1 X14.683 Y25.921 E23.98038
G1 X14.445 Y25.712 E23.9929
G1 X14.217 Y25.474 E24.00592
G1 X14.005 Y25.208 E24.01935
G1 X13.822 Y24.931 E24.03247
G1 X13.668 Y24.646 E24.04526
G1 X13.535 Y24.333 E24.0587
G1 X13.433 Y24.018 E24.07178
G1 X13.359 Y23.697 E24.08479
G1 X13.316 Y23.375 E24.09762
G1 X13.301 Y23.036 E24.11103
G1 X13.316 Y22.698 E24.12439
G1 X13.359 Y22.374 E24.1373
G1 X13.433 Y22.054 E24.15028
G1 X13.535 Y21.741 E24.16328
G1 X13.668 Y21.427 E24.17675
G1 X13.825 Y21.137 E24.18978
G1 X13.999 Y20.872 E24.2023
G1 X14.217 Y20.598 E24.21613
G1 X14.444 Y20.361 E24.2291
G1 X14.686 Y20.15 E24.24178
G1 X14.968 Y19.945 E24.25555
G1 X15.25 Y19.777 E24.26852
G1 X15.543 Y19.635 E24.28138
G1 X15.86 Y19.516 E24.29475
G1 X16.174 Y19.43 E24.30761
G0 F2250 X16.42 Y19.385
G0 X16.507 Y20.025
G1 F900 X16.183 Y20.097 E24.32073
G1 X15.87 Y20.203 E24.33378
G1 X15.571 Y20.341 E24.34679
G1 X15.289 Y20.511 E24.35979
G1 X15.025 Y20.711 E24.37288
G1 X14.786 Y20.938 E24.3859
G1 X14.572 Y21.19 E24.39896
G1 X14.387 Y21.463 E24.41199
G1 X14.231 Y21.756 E24.4251
G1 X14.109 Y22.062 E24.43811
G1 X14.021 Y22.38 E24.45114
G1 X13.967 Y22.707 E24.46424
G1 X13.95 Y23.036 E24.47725
G1 X13.967 Y23.366 E24.4903
G1 X14.021 Y23.692 E24.50336
G1 X14.109 Y24.01 E24.51639
G1 X14.231 Y24.317 E24.52944
G1 X14.387 Y24.609 E24.54252
G1 X14.572 Y24.882 E24.55554
G1 X14.786 Y25.134 E24.5686
G1 X15.025 Y25.361 E24.58162
G1 X15.288 Y25.561 E24.59468
G1 X15.571 Y25.731 E24.60772
G1 X15.871 Y25.87 E24.62078
G1 X16.184 Y25.975 E24.63382
G1 X16.507 Y26.047 E24.64689
G1 X16.835 Y26.082 E24.65992
G1 X17.165 Y26.082 E24.67296
G1 X17.493 Y26.047 E24.68599
G1 X17.816 Y25.975 E24.69906
G1 X18.129 Y25.87 E24.7121
G1 X18.429 Y25.731 E24.72516
G1 X18.712 Y25.561 E24.7382
G1 X18.975 Y25.361 E24.75126
G1 X19.214 Y25.134 E24.76428
G1 X19.428 Y24.882 E24.77734
G1 X19.613 Y24.609 E24.79036
G1 X19.769 Y24.317 E24.80344
G1 X19.891 Y24.01 E24.81649
G1 X19.979 Y23.692 E24.82952
G1 X20.033 Y23.366 E24.84258
G1 X20.05 Y23.036 E24.85563
G1 X20.033 Y22.707 E24.86864
G1 X19.979 Y22.38 E24.88174
G1 X19.891 Y22.062 E24.89477
G1 X19.769 Y21.756 E24.90778
G1 X19.613 Y21.463 E24.9209
G1 X19.428 Y21.19 E24.93392
G1 X19.214 Y20.938 E24.94698
G1 X18.975 Y20.711 E24.96
G1 X18.711 Y20.511 E24.97309
G1 X18.429 Y20.341 E24.98609
G1 X18.13 Y20.203 E24.9991
G1 X17.817 Y20.097 E25.01216
G1 X17.493 Y20.025 E25.02527
G1 X17.165 Y19.99 E25.0383
G1 X16.835 Y19.99 E25.05133
G1 X16.507 Y20.025 E25.06436
G0 F2250 X16.263 Y20.079
G1 F420 E24.06436
G0 F2250 X16.661 Y20.978
G0 X17.855 Y21.108
G0 X17.935 Y21.117
G0 X21.317 Y21.489
G0 X21.396 Y21.498
G0 X24.492 Y21.839
G0 X25.433 Y22.054
