(Exported by FreeCAD)
(Post Processor: linuxcnc_post)
(Output Time:2019-09-19 14:06:31.438768)
(begin preamble)
G17 G54 G40 G49 G80 G90
G21
M8
(begin operation: T19: 8mm end mill)
(machine: not set, mm/min)
(T19: 8mm end mill)
M6 T19 G43 H19
M3 S3000
(finish operation: T19: 8mm end mill)
(begin operation: Profile_Edges)
(machine: not set, mm/min)
(Profile_Edges)
(Compensated Tool Path. Diameter: 8.0)
G0 Z6.000
G0 X12.712 Y-0.538
G0 Z4.000
G1 X12.712 Y-0.538 Z-0.400 F30.000
G2 X8.686 Y-13.702 Z-0.400 I-5.512 J-5.512 F360.000
G2 X-0.452 Y-7.536 Z-0.400 I-1.486 J7.652 F360.000
G2 X5.714 Y1.602 Z-0.400 I7.652 J1.486 F360.000
G2 X12.712 Y-0.538 Z-0.400 I1.486 J-7.652 F360.000
G1 X12.712 Y-0.538 Z-0.800 F30.000
G2 X8.686 Y-13.702 Z-0.800 I-5.512 J-5.512 F360.000
G2 X-0.452 Y-7.536 Z-0.800 I-1.486 J7.652 F360.000
G2 X5.714 Y1.602 Z-0.800 I7.652 J1.486 F360.000
G2 X12.712 Y-0.538 Z-0.800 I1.486 J-7.652 F360.000
G1 X12.712 Y-0.538 Z-1.200 F30.000
G2 X8.686 Y-13.702 Z-1.200 I-5.512 J-5.512 F360.000
G2 X-0.452 Y-7.536 Z-1.200 I-1.486 J7.652 F360.000
G2 X5.714 Y1.602 Z-1.200 I7.652 J1.486 F360.000
G2 X12.712 Y-0.538 Z-1.200 I1.486 J-7.652 F360.000
G1 X12.712 Y-0.538 Z-1.600 F30.000
G2 X8.686 Y-13.702 Z-1.600 I-5.512 J-5.512 F360.000
G2 X-0.452 Y-7.536 Z-1.600 I-1.486 J7.652 F360.000
G2 X5.714 Y1.602 Z-1.600 I7.652 J1.486 F360.000
G2 X12.712 Y-0.538 Z-1.600 I1.486 J-7.652 F360.000
G1 X12.712 Y-0.538 Z-2.000 F30.000
G2 X8.686 Y-13.702 Z-2.000 I-5.512 J-5.512 F360.000
G2 X-0.452 Y-7.536 Z-2.000 I-1.486 J7.652 F360.000
G2 X5.714 Y1.602 Z-2.000 I7.652 J1.486 F360.000
G2 X12.712 Y-0.538 Z-2.000 I1.486 J-7.652 F360.000
G1 X12.712 Y-0.538 Z-2.400 F30.000
G2 X8.686 Y-13.702 Z-2.400 I-5.512 J-5.512 F360.000
G2 X-0.452 Y-7.536 Z-2.400 I-1.486 J7.652 F360.000
G2 X5.714 Y1.602 Z-2.400 I7.652 J1.486 F360.000
G2 X12.712 Y-0.538 Z-2.400 I1.486 J-7.652 F360.000
G1 X12.712 Y-0.538 Z-2.800 F30.000
G2 X8.686 Y-13.702 Z-2.800 I-5.512 J-5.512 F360.000
G2 X-0.452 Y-7.536 Z-2.800 I-1.486 J7.652 F360.000
G2 X5.714 Y1.602 Z-2.800 I7.652 J1.486 F360.000
G2 X12.712 Y-0.538 Z-2.800 I1.486 J-7.652 F360.000
G1 X12.712 Y-0.538 Z-3.200 F30.000
G2 X8.686 Y-13.702 Z-3.200 I-5.512 J-5.512 F360.000
G2 X-0.452 Y-7.536 Z-3.200 I-1.486 J7.652 F360.000
G2 X5.714 Y1.602 Z-3.200 I7.652 J1.486 F360.000
G2 X12.712 Y-0.538 Z-3.200 I1.486 J-7.652 F360.000
G1 X12.712 Y-0.538 Z-3.600 F30.000
G2 X8.686 Y-13.702 Z-3.600 I-5.512 J-5.512 F360.000
G2 X-0.452 Y-7.536 Z-3.600 I-1.486 J7.652 F360.000
G2 X5.714 Y1.602 Z-3.600 I7.652 J1.486 F360.000
G2 X12.712 Y-0.538 Z-3.600 I1.486 J-7.652 F360.000
G1 X12.712 Y-0.538 Z-4.000 F30.000
G2 X8.686 Y-13.702 Z-4.000 I-5.512 J-5.512 F360.000
G2 X-0.452 Y-7.536 Z-4.000 I-1.486 J7.652 F360.000
G2 X5.714 Y1.602 Z-4.000 I7.652 J1.486 F360.000
G2 X12.712 Y-0.538 Z-4.000 I1.486 J-7.652 F360.000
G1 X12.712 Y-0.538 Z-4.400 F30.000
G2 X8.686 Y-13.702 Z-4.400 I-5.512 J-5.512 F360.000
G2 X-0.452 Y-7.536 Z-4.400 I-1.486 J7.652 F360.000
G2 X5.714 Y1.602 Z-4.400 I7.652 J1.486 F360.000
G2 X12.712 Y-0.538 Z-4.400 I1.486 J-7.652 F360.000
G1 X12.712 Y-0.538 Z-4.800 F30.000
G2 X8.686 Y-13.702 Z-4.800 I-5.512 J-5.512 F360.000
G2 X-0.452 Y-7.536 Z-4.800 I-1.486 J7.652 F360.000
G2 X5.714 Y1.602 Z-4.800 I7.652 J1.486 F360.000
G2 X12.712 Y-0.538 Z-4.800 I1.486 J-7.652 F360.000
G1 X12.712 Y-0.538 Z-5.200 F30.000
G2 X8.686 Y-13.702 Z-5.200 I-5.512 J-5.512 F360.000
G2 X-0.452 Y-7.536 Z-5.200 I-1.486 J7.652 F360.000
G2 X5.714 Y1.602 Z-5.200 I7.652 J1.486 F360.000
G2 X12.712 Y-0.538 Z-5.200 I1.486 J-7.652 F360.000
G1 X12.712 Y-0.538 Z-5.600 F30.000
G2 X8.686 Y-13.702 Z-5.600 I-5.512 J-5.512 F360.000
G2 X-0.452 Y-7.536 Z-5.600 I-1.486 J7.652 F360.000
G2 X5.714 Y1.602 Z-5.600 I7.652 J1.486 F360.000
G2 X12.712 Y-0.538 Z-5.600 I1.486 J-7.652 F360.000
G1 X12.712 Y-0.538 Z-6.000 F30.000
G2 X8.686 Y-13.702 Z-6.000 I-5.512 J-5.512 F360.000
G2 X-0.452 Y-7.536 Z-6.000 I-1.486 J7.652 F360.000
G2 X5.714 Y1.602 Z-6.000 I7.652 J1.486 F360.000
G2 X12.712 Y-0.538 Z-6.000 I1.486 J-7.652 F360.000
G1 X12.712 Y-0.538 Z-6.400 F30.000
G2 X8.686 Y-13.702 Z-6.400 I-5.512 J-5.512 F360.000
G2 X-0.452 Y-7.536 Z-6.400 I-1.486 J7.652 F360.000
G2 X5.714 Y1.602 Z-6.400 I7.652 J1.486 F360.000
G2 X12.712 Y-0.538 Z-6.400 I1.486 J-7.652 F360.000
G1 X12.712 Y-0.538 Z-6.800 F30.000
G2 X8.686 Y-13.702 Z-6.800 I-5.512 J-5.512 F360.000
G2 X-0.452 Y-7.536 Z-6.800 I-1.486 J7.652 F360.000
G2 X5.714 Y1.602 Z-6.800 I7.652 J1.486 F360.000
G2 X12.712 Y-0.538 Z-6.800 I1.486 J-7.652 F360.000
G1 X12.712 Y-0.538 Z-7.200 F30.000
G2 X8.686 Y-13.702 Z-7.200 I-5.512 J-5.512 F360.000
G2 X-0.452 Y-7.536 Z-7.200 I-1.486 J7.652 F360.000
G2 X5.714 Y1.602 Z-7.200 I7.652 J1.486 F360.000
G2 X12.712 Y-0.538 Z-7.200 I1.486 J-7.652 F360.000
G1 X12.712 Y-0.538 Z-7.600 F30.000
G2 X8.686 Y-13.702 Z-7.600 I-5.512 J-5.512 F360.000
G2 X-0.452 Y-7.536 Z-7.600 I-1.486 J7.652 F360.000
G2 X5.714 Y1.602 Z-7.600 I7.652 J1.486 F360.000
G2 X12.712 Y-0.538 Z-7.600 I1.486 J-7.652 F360.000
G1 X12.712 Y-0.538 Z-8.000 F30.000
G2 X8.686 Y-13.702 Z-8.000 I-5.512 J-5.512 F360.000
G2 X-0.452 Y-7.536 Z-8.000 I-1.486 J7.652 F360.000
G2 X5.714 Y1.602 Z-8.000 I7.652 J1.486 F360.000
G2 X12.712 Y-0.538 Z-8.000 I1.486 J-7.652 F360.000
G1 X12.712 Y-0.538 Z-8.400 F30.000
G2 X8.686 Y-13.702 Z-8.400 I-5.512 J-5.512 F360.000
G2 X-0.452 Y-7.536 Z-8.400 I-1.486 J7.652 F360.000
G2 X5.714 Y1.602 Z-8.400 I7.652 J1.486 F360.000
G2 X12.712 Y-0.538 Z-8.400 I1.486 J-7.652 F360.000
G1 X12.712 Y-0.538 Z-8.800 F30.000
G2 X8.686 Y-13.702 Z-8.800 I-5.512 J-5.512 F360.000
G2 X-0.452 Y-7.536 Z-8.800 I-1.486 J7.652 F360.000
G2 X5.714 Y1.602 Z-8.800 I7.652 J1.486 F360.000
G2 X12.712 Y-0.538 Z-8.800 I1.486 J-7.652 F360.000
G1 X12.712 Y-0.538 Z-9.200 F30.000
G2 X8.686 Y-13.702 Z-9.200 I-5.512 J-5.512 F360.000
G2 X-0.452 Y-7.536 Z-9.200 I-1.486 J7.652 F360.000
G2 X5.714 Y1.602 Z-9.200 I7.652 J1.486 F360.000
G2 X12.712 Y-0.538 Z-9.200 I1.486 J-7.652 F360.000
G1 X12.712 Y-0.538 Z-9.600 F30.000
G2 X8.686 Y-13.702 Z-9.600 I-5.512 J-5.512 F360.000
G2 X-0.452 Y-7.536 Z-9.600 I-1.486 J7.652 F360.000
G2 X5.714 Y1.602 Z-9.600 I7.652 J1.486 F360.000
G2 X12.712 Y-0.538 Z-9.600 I1.486 J-7.652 F360.000
G1 X12.712 Y-0.538 Z-10.000 F30.000
G2 X8.686 Y-13.702 Z-10.000 I-5.512 J-5.512 F360.000
G2 X-0.452 Y-7.536 Z-10.000 I-1.486 J7.652 F360.000
G2 X5.714 Y1.602 Z-10.000 I7.652 J1.486 F360.000
G2 X12.712 Y-0.538 Z-10.000 I1.486 J-7.652 F360.000
G1 X12.712 Y-0.538 Z-10.400 F30.000
G2 X8.686 Y-13.702 Z-10.400 I-5.512 J-5.512 F360.000
G2 X-0.452 Y-7.536 Z-10.400 I-1.486 J7.652 F360.000
G2 X5.714 Y1.602 Z-10.400 I7.652 J1.486 F360.000
G2 X12.712 Y-0.538 Z-10.400 I1.486 J-7.652 F360.000
G1 X12.712 Y-0.538 Z-10.800 F30.000
G2 X8.686 Y-13.702 Z-10.800 I-5.512 J-5.512 F360.000
G2 X-0.452 Y-7.536 Z-10.800 I-1.486 J7.652 F360.000
G2 X5.714 Y1.602 Z-10.800 I7.652 J1.486 F360.000
G2 X12.712 Y-0.538 Z-10.800 I1.486 J-7.652 F360.000
G1 X12.712 Y-0.538 Z-11.200 F30.000
G2 X8.686 Y-13.702 Z-11.200 I-5.512 J-5.512 F360.000
G2 X-0.452 Y-7.536 Z-11.200 I-1.486 J7.652 F360.000
G2 X5.714 Y1.602 Z-11.200 I7.652 J1.486 F360.000
G2 X12.712 Y-0.538 Z-11.200 I1.486 J-7.652 F360.000
G1 X12.712 Y-0.538 Z-11.600 F30.000
G2 X8.686 Y-13.702 Z-11.600 I-5.512 J-5.512 F360.000
G2 X-0.452 Y-7.536 Z-11.600 I-1.486 J7.652 F360.000
G2 X5.714 Y1.602 Z-11.600 I7.652 J1.486 F360.000
G2 X12.712 Y-0.538 Z-11.600 I1.486 J-7.652 F360.000
G1 X12.712 Y-0.538 Z-12.000 F30.000
G2 X8.686 Y-13.702 Z-12.000 I-5.512 J-5.512 F360.000
G2 X-0.452 Y-7.536 Z-12.000 I-1.486 J7.652 F360.000
G2 X5.714 Y1.602 Z-12.000 I7.652 J1.486 F360.000
G2 X12.712 Y-0.538 Z-12.000 I1.486 J-7.652 F360.000
G1 X12.712 Y-0.538 Z-12.400 F30.000
G2 X8.686 Y-13.702 Z-12.400 I-5.512 J-5.512 F360.000
G2 X-0.452 Y-7.536 Z-12.400 I-1.486 J7.652 F360.000
G2 X5.714 Y1.602 Z-12.400 I7.652 J1.486 F360.000
G2 X12.712 Y-0.538 Z-12.400 I1.486 J-7.652 F360.000
G1 X12.712 Y-0.538 Z-12.800 F30.000
G2 X8.686 Y-13.702 Z-12.800 I-5.512 J-5.512 F360.000
G2 X-0.452 Y-7.536 Z-12.800 I-1.486 J7.652 F360.000
G2 X5.714 Y1.602 Z-12.800 I7.652 J1.486 F360.000
G2 X12.712 Y-0.538 Z-12.800 I1.486 J-7.652 F360.000
G1 X12.712 Y-0.538 Z-13.200 F30.000
G2 X8.686 Y-13.702 Z-13.200 I-5.512 J-5.512 F360.000
G2 X-0.452 Y-7.536 Z-13.200 I-1.486 J7.652 F360.000
G2 X5.714 Y1.602 Z-13.200 I7.652 J1.486 F360.000
G2 X12.712 Y-0.538 Z-13.200 I1.486 J-7.652 F360.000
G1 X12.712 Y-0.538 Z-13.600 F30.000
G2 X8.686 Y-13.702 Z-13.600 I-5.512 J-5.512 F360.000
G2 X-0.452 Y-7.536 Z-13.600 I-1.486 J7.652 F360.000
G2 X5.714 Y1.602 Z-13.600 I7.652 J1.486 F360.000
G2 X12.712 Y-0.538 Z-13.600 I1.486 J-7.652 F360.000
G1 X12.712 Y-0.538 Z-14.000 F30.000
G2 X8.686 Y-13.702 Z-14.000 I-5.512 J-5.512 F360.000
G2 X-0.452 Y-7.536 Z-14.000 I-1.486 J7.652 F360.000
G2 X5.714 Y1.602 Z-14.000 I7.652 J1.486 F360.000
G2 X12.712 Y-0.538 Z-14.000 I1.486 J-7.652 F360.000
G1 X12.712 Y-0.538 Z-14.400 F30.000
G2 X8.686 Y-13.702 Z-14.400 I-5.512 J-5.512 F360.000
G2 X-0.452 Y-7.536 Z-14.400 I-1.486 J7.652 F360.000
G2 X5.714 Y1.602 Z-14.400 I7.652 J1.486 F360.000
G2 X12.712 Y-0.538 Z-14.400 I1.486 J-7.652 F360.000
G1 X12.712 Y-0.538 Z-14.800 F30.000
G2 X8.686 Y-13.702 Z-14.800 I-5.512 J-5.512 F360.000
G2 X-0.452 Y-7.536 Z-14.800 I-1.486 J7.652 F360.000
G2 X5.714 Y1.602 Z-14.800 I7.652 J1.486 F360.000
G2 X12.712 Y-0.538 Z-14.800 I1.486 J-7.652 F360.000
G1 X12.712 Y-0.538 Z-15.200 F30.000
G2 X8.686 Y-13.702 Z-15.200 I-5.512 J-5.512 F360.000
G2 X-0.452 Y-7.536 Z-15.200 I-1.486 J7.652 F360.000
G2 X5.714 Y1.602 Z-15.200 I7.652 J1.486 F360.000
G2 X12.712 Y-0.538 Z-15.200 I1.486 J-7.652 F360.000
G1 X12.712 Y-0.538 Z-15.600 F30.000
G2 X8.686 Y-13.702 Z-15.600 I-5.512 J-5.512 F360.000
G2 X-0.452 Y-7.536 Z-15.600 I-1.486 J7.652 F360.000
G2 X5.714 Y1.602 Z-15.600 I7.652 J1.486 F360.000
G2 X12.712 Y-0.538 Z-15.600 I1.486 J-7.652 F360.000
G1 X12.712 Y-0.538 Z-16.000 F30.000
G2 X8.686 Y-13.702 Z-16.000 I-5.512 J-5.512 F360.000
G2 X-0.452 Y-7.536 Z-16.000 I-1.486 J7.652 F360.000
G2 X5.714 Y1.602 Z-16.000 I7.652 J1.486 F360.000
G2 X12.712 Y-0.538 Z-16.000 I1.486 J-7.652 F360.000
G1 X12.712 Y-0.538 Z-16.400 F30.000
G2 X8.686 Y-13.702 Z-16.400 I-5.512 J-5.512 F360.000
G2 X-0.452 Y-7.536 Z-16.400 I-1.486 J7.652 F360.000
G2 X5.714 Y1.602 Z-16.400 I7.652 J1.486 F360.000
G2 X12.712 Y-0.538 Z-16.400 I1.486 J-7.652 F360.000
G1 X12.712 Y-0.538 Z-16.800 F30.000
G2 X8.686 Y-13.702 Z-16.800 I-5.512 J-5.512 F360.000
G2 X-0.452 Y-7.536 Z-16.800 I-1.486 J7.652 F360.000
G2 X5.714 Y1.602 Z-16.800 I7.652 J1.486 F360.000
G2 X12.712 Y-0.538 Z-16.800 I1.486 J-7.652 F360.000
G1 X12.712 Y-0.538 Z-17.200 F30.000
G2 X8.686 Y-13.702 Z-17.200 I-5.512 J-5.512 F360.000
G2 X-0.452 Y-7.536 Z-17.200 I-1.486 J7.652 F360.000
G2 X5.714 Y1.602 Z-17.200 I7.652 J1.486 F360.000
G2 X12.712 Y-0.538 Z-17.200 I1.486 J-7.652 F360.000
G1 X12.712 Y-0.538 Z-17.600 F30.000
G2 X8.686 Y-13.702 Z-17.600 I-5.512 J-5.512 F360.000
G2 X-0.452 Y-7.536 Z-17.600 I-1.486 J7.652 F360.000
G2 X5.714 Y1.602 Z-17.600 I7.652 J1.486 F360.000
G2 X12.712 Y-0.538 Z-17.600 I1.486 J-7.652 F360.000
G1 X12.712 Y-0.538 Z-18.000 F30.000
G2 X8.686 Y-13.702 Z-18.000 I-5.512 J-5.512 F360.000
G2 X-0.452 Y-7.536 Z-18.000 I-1.486 J7.652 F360.000
G2 X5.714 Y1.602 Z-18.000 I7.652 J1.486 F360.000
G2 X12.712 Y-0.538 Z-18.000 I1.486 J-7.652 F360.000
G1 X12.712 Y-0.538 Z-18.400 F30.000
G2 X8.686 Y-13.702 Z-18.400 I-5.512 J-5.512 F360.000
G2 X-0.452 Y-7.536 Z-18.400 I-1.486 J7.652 F360.000
G2 X5.714 Y1.602 Z-18.400 I7.652 J1.486 F360.000
G2 X12.712 Y-0.538 Z-18.400 I1.486 J-7.652 F360.000
G1 X12.712 Y-0.538 Z-18.800 F30.000
G2 X8.686 Y-13.702 Z-18.800 I-5.512 J-5.512 F360.000
G2 X-0.452 Y-7.536 Z-18.800 I-1.486 J7.652 F360.000
G2 X5.714 Y1.602 Z-18.800 I7.652 J1.486 F360.000
G2 X12.712 Y-0.538 Z-18.800 I1.486 J-7.652 F360.000
G1 X12.712 Y-0.538 Z-19.200 F30.000
G2 X8.686 Y-13.702 Z-19.200 I-5.512 J-5.512 F360.000
G2 X-0.452 Y-7.536 Z-19.200 I-1.486 J7.652 F360.000
G2 X5.714 Y1.602 Z-19.200 I7.652 J1.486 F360.000
G2 X12.712 Y-0.538 Z-19.200 I1.486 J-7.652 F360.000
G1 X12.712 Y-0.538 Z-19.600 F30.000
G2 X8.686 Y-13.702 Z-19.600 I-5.512 J-5.512 F360.000
G2 X-0.452 Y-7.536 Z-19.600 I-1.486 J7.652 F360.000
G2 X5.714 Y1.602 Z-19.600 I7.652 J1.486 F360.000
G2 X12.712 Y-0.538 Z-19.600 I1.486 J-7.652 F360.000
G1 X12.712 Y-0.538 Z-20.000 F30.000
G2 X8.686 Y-13.702 Z-20.000 I-5.512 J-5.512 F360.000
G2 X-0.452 Y-7.536 Z-20.000 I-1.486 J7.652 F360.000
G2 X5.714 Y1.602 Z-20.000 I7.652 J1.486 F360.000
G2 X12.712 Y-0.538 Z-20.000 I1.486 J-7.652 F360.000
G1 X12.712 Y-0.538 Z-20.400 F30.000
G2 X8.686 Y-13.702 Z-20.400 I-5.512 J-5.512 F360.000
G2 X-0.452 Y-7.536 Z-20.400 I-1.486 J7.652 F360.000
G2 X5.714 Y1.602 Z-20.400 I7.652 J1.486 F360.000
G2 X12.712 Y-0.538 Z-20.400 I1.486 J-7.652 F360.000
G1 X12.712 Y-0.538 Z-20.800 F30.000
G2 X8.686 Y-13.702 Z-20.800 I-5.512 J-5.512 F360.000
G2 X-0.452 Y-7.536 Z-20.800 I-1.486 J7.652 F360.000
G2 X5.714 Y1.602 Z-20.800 I7.652 J1.486 F360.000
G2 X12.712 Y-0.538 Z-20.800 I1.486 J-7.652 F360.000
G1 X12.712 Y-0.538 Z-20.820 F30.000
G2 X8.686 Y-13.702 Z-20.820 I-5.512 J-5.512 F360.000
G2 X-0.452 Y-7.536 Z-20.820 I-1.486 J7.652 F360.000
G2 X5.714 Y1.602 Z-20.820 I7.652 J1.486 F360.000
G2 X12.712 Y-0.538 Z-20.820 I1.486 J-7.652 F360.000
G0 Z6.000
(finish operation: Profile_Edges)
(begin postamble)
M05
G17 G54 G90 G80 G40
M2
