(Exported by FreeCAD)
(Post Processor: linuxcnc_post)
(Output Time:2019-09-23 10:39:16.477055)
(begin preamble)
G17 G54 G40 G49 G80 G90
G21
M8
(begin operation: T4: 12mm Endmill)
(machine: not set, mm/min)
(T4: 12mm Endmill)
M6 T4 G43 H4
M3 S3000
(finish operation: T4: 12mm Endmill)
(begin operation: Profile_Edges)
(machine: not set, mm/min)
(Profile_Edges)
(Compensated Tool Path. Diameter: 12.0)
G0 Z5.000
G0 X23.444 Y-1.956
G0 Z3.000
G1 X23.444 Y-1.956 Z-0.500 F30.000
G2 X27.698 Y-10.271 Z-0.500 I-10.744 J-10.744 F720.000
G2 X-2.298 Y-15.129 Z-0.500 I-14.998 J-2.429 F720.000
G2 X23.444 Y-1.956 Z-0.500 I14.998 J2.429 F720.000
G1 X23.444 Y-1.956 Z-1.000 F30.000
G2 X27.698 Y-10.271 Z-1.000 I-10.744 J-10.744 F720.000
G2 X-2.298 Y-15.129 Z-1.000 I-14.998 J-2.429 F720.000
G2 X23.444 Y-1.956 Z-1.000 I14.998 J2.429 F720.000
G1 X23.444 Y-1.956 Z-1.500 F30.000
G2 X27.698 Y-10.271 Z-1.500 I-10.744 J-10.744 F720.000
G2 X-2.298 Y-15.129 Z-1.500 I-14.998 J-2.429 F720.000
G2 X23.444 Y-1.956 Z-1.500 I14.998 J2.429 F720.000
G1 X23.444 Y-1.956 Z-2.000 F30.000
G2 X27.698 Y-10.271 Z-2.000 I-10.744 J-10.744 F720.000
G2 X-2.298 Y-15.129 Z-2.000 I-14.998 J-2.429 F720.000
G2 X23.444 Y-1.956 Z-2.000 I14.998 J2.429 F720.000
G1 X23.444 Y-1.956 Z-2.500 F30.000
G2 X27.698 Y-10.271 Z-2.500 I-10.744 J-10.744 F720.000
G2 X-2.298 Y-15.129 Z-2.500 I-14.998 J-2.429 F720.000
G2 X23.444 Y-1.956 Z-2.500 I14.998 J2.429 F720.000
G1 X23.444 Y-1.956 Z-3.000 F30.000
G2 X27.698 Y-10.271 Z-3.000 I-10.744 J-10.744 F720.000
G2 X-2.298 Y-15.129 Z-3.000 I-14.998 J-2.429 F720.000
G2 X23.444 Y-1.956 Z-3.000 I14.998 J2.429 F720.000
G1 X23.444 Y-1.956 Z-3.500 F30.000
G2 X27.698 Y-10.271 Z-3.500 I-10.744 J-10.744 F720.000
G2 X-2.298 Y-15.129 Z-3.500 I-14.998 J-2.429 F720.000
G2 X23.444 Y-1.956 Z-3.500 I14.998 J2.429 F720.000
G1 X23.444 Y-1.956 Z-4.000 F30.000
G2 X27.698 Y-10.271 Z-4.000 I-10.744 J-10.744 F720.000
G2 X-2.298 Y-15.129 Z-4.000 I-14.998 J-2.429 F720.000
G2 X23.444 Y-1.956 Z-4.000 I14.998 J2.429 F720.000
G1 X23.444 Y-1.956 Z-4.500 F30.000
G2 X27.698 Y-10.271 Z-4.500 I-10.744 J-10.744 F720.000
G2 X-2.298 Y-15.129 Z-4.500 I-14.998 J-2.429 F720.000
G2 X23.444 Y-1.956 Z-4.500 I14.998 J2.429 F720.000
G1 X23.444 Y-1.956 Z-5.000 F30.000
G2 X27.698 Y-10.271 Z-5.000 I-10.744 J-10.744 F720.000
G2 X-2.298 Y-15.129 Z-5.000 I-14.998 J-2.429 F720.000
G2 X23.444 Y-1.956 Z-5.000 I14.998 J2.429 F720.000
G1 X23.444 Y-1.956 Z-5.500 F30.000
G2 X27.698 Y-10.271 Z-5.500 I-10.744 J-10.744 F720.000
G2 X-2.298 Y-15.129 Z-5.500 I-14.998 J-2.429 F720.000
G2 X23.444 Y-1.956 Z-5.500 I14.998 J2.429 F720.000
G1 X23.444 Y-1.956 Z-6.000 F30.000
G2 X27.698 Y-10.271 Z-6.000 I-10.744 J-10.744 F720.000
G2 X-2.298 Y-15.129 Z-6.000 I-14.998 J-2.429 F720.000
G2 X23.444 Y-1.956 Z-6.000 I14.998 J2.429 F720.000
G1 X23.444 Y-1.956 Z-6.500 F30.000
G2 X27.698 Y-10.271 Z-6.500 I-10.744 J-10.744 F720.000
G2 X-2.298 Y-15.129 Z-6.500 I-14.998 J-2.429 F720.000
G2 X23.444 Y-1.956 Z-6.500 I14.998 J2.429 F720.000
G1 X23.444 Y-1.956 Z-7.000 F30.000
G2 X27.698 Y-10.271 Z-7.000 I-10.744 J-10.744 F720.000
G2 X-2.298 Y-15.129 Z-7.000 I-14.998 J-2.429 F720.000
G2 X23.444 Y-1.956 Z-7.000 I14.998 J2.429 F720.000
G1 X23.444 Y-1.956 Z-7.500 F30.000
G2 X27.698 Y-10.271 Z-7.500 I-10.744 J-10.744 F720.000
G2 X-2.298 Y-15.129 Z-7.500 I-14.998 J-2.429 F720.000
G2 X23.444 Y-1.956 Z-7.500 I14.998 J2.429 F720.000
G1 X23.444 Y-1.956 Z-8.000 F30.000
G2 X27.698 Y-10.271 Z-8.000 I-10.744 J-10.744 F720.000
G2 X-2.298 Y-15.129 Z-8.000 I-14.998 J-2.429 F720.000
G2 X23.444 Y-1.956 Z-8.000 I14.998 J2.429 F720.000
G1 X23.444 Y-1.956 Z-8.500 F30.000
G2 X27.698 Y-10.271 Z-8.500 I-10.744 J-10.744 F720.000
G2 X-2.298 Y-15.129 Z-8.500 I-14.998 J-2.429 F720.000
G2 X23.444 Y-1.956 Z-8.500 I14.998 J2.429 F720.000
G1 X23.444 Y-1.956 Z-9.000 F30.000
G2 X27.698 Y-10.271 Z-9.000 I-10.744 J-10.744 F720.000
G2 X-2.298 Y-15.129 Z-9.000 I-14.998 J-2.429 F720.000
G2 X23.444 Y-1.956 Z-9.000 I14.998 J2.429 F720.000
G1 X23.444 Y-1.956 Z-9.500 F30.000
G2 X27.698 Y-10.271 Z-9.500 I-10.744 J-10.744 F720.000
G2 X-2.298 Y-15.129 Z-9.500 I-14.998 J-2.429 F720.000
G2 X23.444 Y-1.956 Z-9.500 I14.998 J2.429 F720.000
G1 X23.444 Y-1.956 Z-10.000 F30.000
G2 X27.698 Y-10.271 Z-10.000 I-10.744 J-10.744 F720.000
G2 X-2.298 Y-15.129 Z-10.000 I-14.998 J-2.429 F720.000
G2 X23.444 Y-1.956 Z-10.000 I14.998 J2.429 F720.000
G1 X23.444 Y-1.956 Z-10.400 F30.000
G2 X27.698 Y-10.271 Z-10.400 I-10.744 J-10.744 F720.000
G2 X-2.298 Y-15.129 Z-10.400 I-14.998 J-2.429 F720.000
G2 X23.444 Y-1.956 Z-10.400 I14.998 J2.429 F720.000
G0 Z5.000
(finish operation: Profile_Edges)
(begin operation: T4: 12mm Endmill)
(machine: not set, mm/min)
(T4: 12mm Endmill)
M6 T4 G43 H4
M3 S3000
(finish operation: T4: 12mm Endmill)
(begin operation: Profile_Edges001)
(machine: not set, mm/min)
(Profile_Edges001)
(Compensated Tool Path. Diameter: 12.0)
G0 Z5.000
G0 X20.616 Y-4.784
G0 Z3.000
G1 X20.616 Y-4.784 Z-0.500 F30.000
G2 X23.764 Y-10.992 Z-0.500 I-7.916 J-7.916 F720.000
G2 X1.636 Y-14.408 Z-0.500 I-11.064 J-1.708 F720.000
G2 X20.616 Y-4.784 Z-0.500 I11.064 J1.708 F720.000
G1 X20.616 Y-4.784 Z-1.000 F30.000
G2 X23.764 Y-10.992 Z-1.000 I-7.916 J-7.916 F720.000
G2 X1.636 Y-14.408 Z-1.000 I-11.064 J-1.708 F720.000
G2 X20.616 Y-4.784 Z-1.000 I11.064 J1.708 F720.000
G1 X20.616 Y-4.784 Z-1.500 F30.000
G2 X23.764 Y-10.992 Z-1.500 I-7.916 J-7.916 F720.000
G2 X1.636 Y-14.408 Z-1.500 I-11.064 J-1.708 F720.000
G2 X20.616 Y-4.784 Z-1.500 I11.064 J1.708 F720.000
G1 X20.616 Y-4.784 Z-2.000 F30.000
G2 X23.764 Y-10.992 Z-2.000 I-7.916 J-7.916 F720.000
G2 X1.636 Y-14.408 Z-2.000 I-11.064 J-1.708 F720.000
G2 X20.616 Y-4.784 Z-2.000 I11.064 J1.708 F720.000
G1 X20.616 Y-4.784 Z-2.500 F30.000
G2 X23.764 Y-10.992 Z-2.500 I-7.916 J-7.916 F720.000
G2 X1.636 Y-14.408 Z-2.500 I-11.064 J-1.708 F720.000
G2 X20.616 Y-4.784 Z-2.500 I11.064 J1.708 F720.000
G1 X20.616 Y-4.784 Z-3.000 F30.000
G2 X23.764 Y-10.992 Z-3.000 I-7.916 J-7.916 F720.000
G2 X1.636 Y-14.408 Z-3.000 I-11.064 J-1.708 F720.000
G2 X20.616 Y-4.784 Z-3.000 I11.064 J1.708 F720.000
G1 X20.616 Y-4.784 Z-3.500 F30.000
G2 X23.764 Y-10.992 Z-3.500 I-7.916 J-7.916 F720.000
G2 X1.636 Y-14.408 Z-3.500 I-11.064 J-1.708 F720.000
G2 X20.616 Y-4.784 Z-3.500 I11.064 J1.708 F720.000
G1 X20.616 Y-4.784 Z-4.000 F30.000
G2 X23.764 Y-10.992 Z-4.000 I-7.916 J-7.916 F720.000
G2 X1.636 Y-14.408 Z-4.000 I-11.064 J-1.708 F720.000
G2 X20.616 Y-4.784 Z-4.000 I11.064 J1.708 F720.000
G1 X20.616 Y-4.784 Z-4.500 F30.000
G2 X23.764 Y-10.992 Z-4.500 I-7.916 J-7.916 F720.000
G2 X1.636 Y-14.408 Z-4.500 I-11.064 J-1.708 F720.000
G2 X20.616 Y-4.784 Z-4.500 I11.064 J1.708 F720.000
G1 X20.616 Y-4.784 Z-5.000 F30.000
G2 X23.764 Y-10.992 Z-5.000 I-7.916 J-7.916 F720.000
G2 X1.636 Y-14.408 Z-5.000 I-11.064 J-1.708 F720.000
G2 X20.616 Y-4.784 Z-5.000 I11.064 J1.708 F720.000
G1 X20.616 Y-4.784 Z-5.500 F30.000
G2 X23.764 Y-10.992 Z-5.500 I-7.916 J-7.916 F720.000
G2 X1.636 Y-14.408 Z-5.500 I-11.064 J-1.708 F720.000
G2 X20.616 Y-4.784 Z-5.500 I11.064 J1.708 F720.000
G1 X20.616 Y-4.784 Z-6.000 F30.000
G2 X23.764 Y-10.992 Z-6.000 I-7.916 J-7.916 F720.000
G2 X1.636 Y-14.408 Z-6.000 I-11.064 J-1.708 F720.000
G2 X20.616 Y-4.784 Z-6.000 I11.064 J1.708 F720.000
G1 X20.616 Y-4.784 Z-6.500 F30.000
G2 X23.764 Y-10.992 Z-6.500 I-7.916 J-7.916 F720.000
G2 X1.636 Y-14.408 Z-6.500 I-11.064 J-1.708 F720.000
G2 X20.616 Y-4.784 Z-6.500 I11.064 J1.708 F720.000
G1 X20.616 Y-4.784 Z-7.000 F30.000
G2 X23.764 Y-10.992 Z-7.000 I-7.916 J-7.916 F720.000
G2 X1.636 Y-14.408 Z-7.000 I-11.064 J-1.708 F720.000
G2 X20.616 Y-4.784 Z-7.000 I11.064 J1.708 F720.000
G1 X20.616 Y-4.784 Z-7.500 F30.000
G2 X23.764 Y-10.992 Z-7.500 I-7.916 J-7.916 F720.000
G2 X1.636 Y-14.408 Z-7.500 I-11.064 J-1.708 F720.000
G2 X20.616 Y-4.784 Z-7.500 I11.064 J1.708 F720.000
G1 X20.616 Y-4.784 Z-8.000 F30.000
G2 X23.764 Y-10.992 Z-8.000 I-7.916 J-7.916 F720.000
G2 X1.636 Y-14.408 Z-8.000 I-11.064 J-1.708 F720.000
G2 X20.616 Y-4.784 Z-8.000 I11.064 J1.708 F720.000
G1 X20.616 Y-4.784 Z-8.500 F30.000
G2 X23.764 Y-10.992 Z-8.500 I-7.916 J-7.916 F720.000
G2 X1.636 Y-14.408 Z-8.500 I-11.064 J-1.708 F720.000
G2 X20.616 Y-4.784 Z-8.500 I11.064 J1.708 F720.000
G1 X20.616 Y-4.784 Z-9.000 F30.000
G2 X23.764 Y-10.992 Z-9.000 I-7.916 J-7.916 F720.000
G2 X1.636 Y-14.408 Z-9.000 I-11.064 J-1.708 F720.000
G2 X20.616 Y-4.784 Z-9.000 I11.064 J1.708 F720.000
G1 X20.616 Y-4.784 Z-9.500 F30.000
G2 X23.764 Y-10.992 Z-9.500 I-7.916 J-7.916 F720.000
G2 X1.636 Y-14.408 Z-9.500 I-11.064 J-1.708 F720.000
G2 X20.616 Y-4.784 Z-9.500 I11.064 J1.708 F720.000
G1 X20.616 Y-4.784 Z-10.000 F30.000
G2 X23.764 Y-10.992 Z-10.000 I-7.916 J-7.916 F720.000
G2 X1.636 Y-14.408 Z-10.000 I-11.064 J-1.708 F720.000
G2 X20.616 Y-4.784 Z-10.000 I11.064 J1.708 F720.000
G1 X20.616 Y-4.784 Z-10.400 F30.000
G2 X23.764 Y-10.992 Z-10.400 I-7.916 J-7.916 F720.000
G2 X1.636 Y-14.408 Z-10.400 I-11.064 J-1.708 F720.000
G2 X20.616 Y-4.784 Z-10.400 I11.064 J1.708 F720.000
G0 Z5.000
(finish operation: Profile_Edges001)
(begin operation: T18: 4mm drill)
(machine: not set, mm/min)
(T18: 4mm drill)
M6 T18 G43 H18
M3 S800
(finish operation: T18: 4mm drill)
(begin operation: Drilling)
(machine: not set, mm/min)
(Drilling)
(Begin Drilling)
G0 Z6.000
G90
G98
G83 X12.700 Y-12.700 Z-8.000 F60.000 Q0.200 R5.000
G80
G0 Z6.000
(finish operation: Drilling)
(begin operation: T19: 8mm end mill)
(machine: not set, mm/min)
(T19: 8mm end mill)
M6 T19 G43 H19
M3 S3000
(finish operation: T19: 8mm end mill)
(begin operation: Profile_Edges002)
(machine: not set, mm/min)
(Profile_Edges002)
(Compensated Tool Path. Diameter: 8.0)
G0 Z5.000
G0 X20.161 Y-4.432
G1 X20.161 Y-4.432 Z-10.800 F24.000
G2 X22.028 Y-6.618 Z-10.800 I-7.457 J-8.261 F360.000
G2 X22.750 Y-8.910 Z-10.800 I-3.278 J-2.292 F360.000
G1 X22.750 Y-16.490 Z-10.800 F360.000
G2 X22.315 Y-18.304 Z-10.800 I-4.000 J-0.000 F360.000
G2 X14.025 Y-23.757 Z-10.800 I-9.603 J5.571 F360.000
G2 X3.372 Y-18.782 Z-10.800 I-1.325 J11.057 F360.000
G2 X2.650 Y-16.490 Z-10.800 I3.278 J2.292 F360.000
G1 X2.650 Y-8.910 Z-10.800 F360.000
G2 X3.085 Y-7.096 Z-10.800 I4.000 J0.000 F360.000
G2 X20.161 Y-4.432 Z-10.800 I9.619 J-5.596 F360.000
G1 X20.161 Y-4.432 Z-11.200 F24.000
G2 X22.028 Y-6.618 Z-11.200 I-7.457 J-8.261 F360.000
G2 X22.750 Y-8.910 Z-11.200 I-3.278 J-2.292 F360.000
G1 X22.750 Y-16.490 Z-11.200 F360.000
G2 X22.315 Y-18.304 Z-11.200 I-4.000 J-0.000 F360.000
G2 X14.025 Y-23.757 Z-11.200 I-9.603 J5.571 F360.000
G2 X3.372 Y-18.782 Z-11.200 I-1.325 J11.057 F360.000
G2 X2.650 Y-16.490 Z-11.200 I3.278 J2.292 F360.000
G1 X2.650 Y-8.910 Z-11.200 F360.000
G2 X3.085 Y-7.096 Z-11.200 I4.000 J0.000 F360.000
G2 X20.161 Y-4.432 Z-11.200 I9.619 J-5.596 F360.000
G1 X20.161 Y-4.432 Z-11.600 F24.000
G2 X22.028 Y-6.618 Z-11.600 I-7.457 J-8.261 F360.000
G2 X22.750 Y-8.910 Z-11.600 I-3.278 J-2.292 F360.000
G1 X22.750 Y-16.490 Z-11.600 F360.000
G2 X22.315 Y-18.304 Z-11.600 I-4.000 J-0.000 F360.000
G2 X14.025 Y-23.757 Z-11.600 I-9.603 J5.571 F360.000
G2 X3.372 Y-18.782 Z-11.600 I-1.325 J11.057 F360.000
G2 X2.650 Y-16.490 Z-11.600 I3.278 J2.292 F360.000
G1 X2.650 Y-8.910 Z-11.600 F360.000
G2 X3.085 Y-7.096 Z-11.600 I4.000 J0.000 F360.000
G2 X20.161 Y-4.432 Z-11.600 I9.619 J-5.596 F360.000
G1 X20.161 Y-4.432 Z-12.000 F24.000
G2 X22.028 Y-6.618 Z-12.000 I-7.457 J-8.261 F360.000
G2 X22.750 Y-8.910 Z-12.000 I-3.278 J-2.292 F360.000
G1 X22.750 Y-16.490 Z-12.000 F360.000
G2 X22.315 Y-18.304 Z-12.000 I-4.000 J-0.000 F360.000
G2 X14.025 Y-23.757 Z-12.000 I-9.603 J5.571 F360.000
G2 X3.372 Y-18.782 Z-12.000 I-1.325 J11.057 F360.000
G2 X2.650 Y-16.490 Z-12.000 I3.278 J2.292 F360.000
G1 X2.650 Y-8.910 Z-12.000 F360.000
G2 X3.085 Y-7.096 Z-12.000 I4.000 J0.000 F360.000
G2 X20.161 Y-4.432 Z-12.000 I9.619 J-5.596 F360.000
G1 X20.161 Y-4.432 Z-12.400 F24.000
G2 X22.028 Y-6.618 Z-12.400 I-7.457 J-8.261 F360.000
G2 X22.750 Y-8.910 Z-12.400 I-3.278 J-2.292 F360.000
G1 X22.750 Y-16.490 Z-12.400 F360.000
G2 X22.315 Y-18.304 Z-12.400 I-4.000 J-0.000 F360.000
G2 X14.025 Y-23.757 Z-12.400 I-9.603 J5.571 F360.000
G2 X3.372 Y-18.782 Z-12.400 I-1.325 J11.057 F360.000
G2 X2.650 Y-16.490 Z-12.400 I3.278 J2.292 F360.000
G1 X2.650 Y-8.910 Z-12.400 F360.000
G2 X3.085 Y-7.096 Z-12.400 I4.000 J0.000 F360.000
G2 X20.161 Y-4.432 Z-12.400 I9.619 J-5.596 F360.000
G1 X20.161 Y-4.432 Z-12.800 F24.000
G2 X22.028 Y-6.618 Z-12.800 I-7.457 J-8.261 F360.000
G2 X22.750 Y-8.910 Z-12.800 I-3.278 J-2.292 F360.000
G1 X22.750 Y-16.490 Z-12.800 F360.000
G2 X22.315 Y-18.304 Z-12.800 I-4.000 J-0.000 F360.000
G2 X14.025 Y-23.757 Z-12.800 I-9.603 J5.571 F360.000
G2 X3.372 Y-18.782 Z-12.800 I-1.325 J11.057 F360.000
G2 X2.650 Y-16.490 Z-12.800 I3.278 J2.292 F360.000
G1 X2.650 Y-8.910 Z-12.800 F360.000
G2 X3.085 Y-7.096 Z-12.800 I4.000 J0.000 F360.000
G2 X20.161 Y-4.432 Z-12.800 I9.619 J-5.596 F360.000
G1 X20.161 Y-4.432 Z-13.200 F24.000
G2 X22.028 Y-6.618 Z-13.200 I-7.457 J-8.261 F360.000
G2 X22.750 Y-8.910 Z-13.200 I-3.278 J-2.292 F360.000
G1 X22.750 Y-16.490 Z-13.200 F360.000
G2 X22.315 Y-18.304 Z-13.200 I-4.000 J-0.000 F360.000
G2 X14.025 Y-23.757 Z-13.200 I-9.603 J5.571 F360.000
G2 X3.372 Y-18.782 Z-13.200 I-1.325 J11.057 F360.000
G2 X2.650 Y-16.490 Z-13.200 I3.278 J2.292 F360.000
G1 X2.650 Y-8.910 Z-13.200 F360.000
G2 X3.085 Y-7.096 Z-13.200 I4.000 J0.000 F360.000
G2 X20.161 Y-4.432 Z-13.200 I9.619 J-5.596 F360.000
G1 X20.161 Y-4.432 Z-13.600 F24.000
G2 X22.028 Y-6.618 Z-13.600 I-7.457 J-8.261 F360.000
G2 X22.750 Y-8.910 Z-13.600 I-3.278 J-2.292 F360.000
G1 X22.750 Y-16.490 Z-13.600 F360.000
G2 X22.315 Y-18.304 Z-13.600 I-4.000 J-0.000 F360.000
G2 X14.025 Y-23.757 Z-13.600 I-9.603 J5.571 F360.000
G2 X3.372 Y-18.782 Z-13.600 I-1.325 J11.057 F360.000
G2 X2.650 Y-16.490 Z-13.600 I3.278 J2.292 F360.000
G1 X2.650 Y-8.910 Z-13.600 F360.000
G2 X3.085 Y-7.096 Z-13.600 I4.000 J0.000 F360.000
G2 X20.161 Y-4.432 Z-13.600 I9.619 J-5.596 F360.000
G1 X20.161 Y-4.432 Z-14.000 F24.000
G2 X22.028 Y-6.618 Z-14.000 I-7.457 J-8.261 F360.000
G2 X22.750 Y-8.910 Z-14.000 I-3.278 J-2.292 F360.000
G1 X22.750 Y-16.490 Z-14.000 F360.000
G2 X22.315 Y-18.304 Z-14.000 I-4.000 J-0.000 F360.000
G2 X14.025 Y-23.757 Z-14.000 I-9.603 J5.571 F360.000
G2 X3.372 Y-18.782 Z-14.000 I-1.325 J11.057 F360.000
G2 X2.650 Y-16.490 Z-14.000 I3.278 J2.292 F360.000
G1 X2.650 Y-8.910 Z-14.000 F360.000
G2 X3.085 Y-7.096 Z-14.000 I4.000 J0.000 F360.000
G2 X20.161 Y-4.432 Z-14.000 I9.619 J-5.596 F360.000
G1 X20.161 Y-4.432 Z-14.400 F24.000
G2 X22.028 Y-6.618 Z-14.400 I-7.457 J-8.261 F360.000
G2 X22.750 Y-8.910 Z-14.400 I-3.278 J-2.292 F360.000
G1 X22.750 Y-16.490 Z-14.400 F360.000
G2 X22.315 Y-18.304 Z-14.400 I-4.000 J-0.000 F360.000
G2 X14.025 Y-23.757 Z-14.400 I-9.603 J5.571 F360.000
G2 X3.372 Y-18.782 Z-14.400 I-1.325 J11.057 F360.000
G2 X2.650 Y-16.490 Z-14.400 I3.278 J2.292 F360.000
G1 X2.650 Y-8.910 Z-14.400 F360.000
G2 X3.085 Y-7.096 Z-14.400 I4.000 J0.000 F360.000
G2 X20.161 Y-4.432 Z-14.400 I9.619 J-5.596 F360.000
G1 X20.161 Y-4.432 Z-14.800 F24.000
G2 X22.028 Y-6.618 Z-14.800 I-7.457 J-8.261 F360.000
G2 X22.750 Y-8.910 Z-14.800 I-3.278 J-2.292 F360.000
G1 X22.750 Y-16.490 Z-14.800 F360.000
G2 X22.315 Y-18.304 Z-14.800 I-4.000 J-0.000 F360.000
G2 X14.025 Y-23.757 Z-14.800 I-9.603 J5.571 F360.000
G2 X3.372 Y-18.782 Z-14.800 I-1.325 J11.057 F360.000
G2 X2.650 Y-16.490 Z-14.800 I3.278 J2.292 F360.000
G1 X2.650 Y-8.910 Z-14.800 F360.000
G2 X3.085 Y-7.096 Z-14.800 I4.000 J0.000 F360.000
G2 X20.161 Y-4.432 Z-14.800 I9.619 J-5.596 F360.000
G1 X20.161 Y-4.432 Z-15.200 F24.000
G2 X22.028 Y-6.618 Z-15.200 I-7.457 J-8.261 F360.000
G2 X22.750 Y-8.910 Z-15.200 I-3.278 J-2.292 F360.000
G1 X22.750 Y-16.490 Z-15.200 F360.000
G2 X22.315 Y-18.304 Z-15.200 I-4.000 J-0.000 F360.000
G2 X14.025 Y-23.757 Z-15.200 I-9.603 J5.571 F360.000
G2 X3.372 Y-18.782 Z-15.200 I-1.325 J11.057 F360.000
G2 X2.650 Y-16.490 Z-15.200 I3.278 J2.292 F360.000
G1 X2.650 Y-8.910 Z-15.200 F360.000
G2 X3.085 Y-7.096 Z-15.200 I4.000 J0.000 F360.000
G2 X20.161 Y-4.432 Z-15.200 I9.619 J-5.596 F360.000
G1 X20.161 Y-4.432 Z-15.600 F24.000
G2 X22.028 Y-6.618 Z-15.600 I-7.457 J-8.261 F360.000
G2 X22.750 Y-8.910 Z-15.600 I-3.278 J-2.292 F360.000
G1 X22.750 Y-16.490 Z-15.600 F360.000
G2 X22.315 Y-18.304 Z-15.600 I-4.000 J-0.000 F360.000
G2 X14.025 Y-23.757 Z-15.600 I-9.603 J5.571 F360.000
G2 X3.372 Y-18.782 Z-15.600 I-1.325 J11.057 F360.000
G2 X2.650 Y-16.490 Z-15.600 I3.278 J2.292 F360.000
G1 X2.650 Y-8.910 Z-15.600 F360.000
G2 X3.085 Y-7.096 Z-15.600 I4.000 J0.000 F360.000
G2 X20.161 Y-4.432 Z-15.600 I9.619 J-5.596 F360.000
G1 X20.161 Y-4.432 Z-16.000 F24.000
G2 X22.028 Y-6.618 Z-16.000 I-7.457 J-8.261 F360.000
G2 X22.750 Y-8.910 Z-16.000 I-3.278 J-2.292 F360.000
G1 X22.750 Y-16.490 Z-16.000 F360.000
G2 X22.315 Y-18.304 Z-16.000 I-4.000 J-0.000 F360.000
G2 X14.025 Y-23.757 Z-16.000 I-9.603 J5.571 F360.000
G2 X3.372 Y-18.782 Z-16.000 I-1.325 J11.057 F360.000
G2 X2.650 Y-16.490 Z-16.000 I3.278 J2.292 F360.000
G1 X2.650 Y-8.910 Z-16.000 F360.000
G2 X3.085 Y-7.096 Z-16.000 I4.000 J0.000 F360.000
G2 X20.161 Y-4.432 Z-16.000 I9.619 J-5.596 F360.000
G1 X20.161 Y-4.432 Z-16.400 F24.000
G2 X22.028 Y-6.618 Z-16.400 I-7.457 J-8.261 F360.000
G2 X22.750 Y-8.910 Z-16.400 I-3.278 J-2.292 F360.000
G1 X22.750 Y-16.490 Z-16.400 F360.000
G2 X22.315 Y-18.304 Z-16.400 I-4.000 J-0.000 F360.000
G2 X14.025 Y-23.757 Z-16.400 I-9.603 J5.571 F360.000
G2 X3.372 Y-18.782 Z-16.400 I-1.325 J11.057 F360.000
G2 X2.650 Y-16.490 Z-16.400 I3.278 J2.292 F360.000
G1 X2.650 Y-8.910 Z-16.400 F360.000
G2 X3.085 Y-7.096 Z-16.400 I4.000 J0.000 F360.000
G2 X20.161 Y-4.432 Z-16.400 I9.619 J-5.596 F360.000
G1 X20.161 Y-4.432 Z-16.800 F24.000
G2 X22.028 Y-6.618 Z-16.800 I-7.457 J-8.261 F360.000
G2 X22.750 Y-8.910 Z-16.800 I-3.278 J-2.292 F360.000
G1 X22.750 Y-16.490 Z-16.800 F360.000
G2 X22.315 Y-18.304 Z-16.800 I-4.000 J-0.000 F360.000
G2 X14.025 Y-23.757 Z-16.800 I-9.603 J5.571 F360.000
G2 X3.372 Y-18.782 Z-16.800 I-1.325 J11.057 F360.000
G2 X2.650 Y-16.490 Z-16.800 I3.278 J2.292 F360.000
G1 X2.650 Y-8.910 Z-16.800 F360.000
G2 X3.085 Y-7.096 Z-16.800 I4.000 J0.000 F360.000
G2 X20.161 Y-4.432 Z-16.800 I9.619 J-5.596 F360.000
G1 X20.161 Y-4.432 Z-17.200 F24.000
G2 X22.028 Y-6.618 Z-17.200 I-7.457 J-8.261 F360.000
G2 X22.750 Y-8.910 Z-17.200 I-3.278 J-2.292 F360.000
G1 X22.750 Y-16.490 Z-17.200 F360.000
G2 X22.315 Y-18.304 Z-17.200 I-4.000 J-0.000 F360.000
G2 X14.025 Y-23.757 Z-17.200 I-9.603 J5.571 F360.000
G2 X3.372 Y-18.782 Z-17.200 I-1.325 J11.057 F360.000
G2 X2.650 Y-16.490 Z-17.200 I3.278 J2.292 F360.000
G1 X2.650 Y-8.910 Z-17.200 F360.000
G2 X3.085 Y-7.096 Z-17.200 I4.000 J0.000 F360.000
G2 X20.161 Y-4.432 Z-17.200 I9.619 J-5.596 F360.000
G1 X20.161 Y-4.432 Z-17.600 F24.000
G2 X22.028 Y-6.618 Z-17.600 I-7.457 J-8.261 F360.000
G2 X22.750 Y-8.910 Z-17.600 I-3.278 J-2.292 F360.000
G1 X22.750 Y-16.490 Z-17.600 F360.000
G2 X22.315 Y-18.304 Z-17.600 I-4.000 J-0.000 F360.000
G2 X14.025 Y-23.757 Z-17.600 I-9.603 J5.571 F360.000
G2 X3.372 Y-18.782 Z-17.600 I-1.325 J11.057 F360.000
G2 X2.650 Y-16.490 Z-17.600 I3.278 J2.292 F360.000
G1 X2.650 Y-8.910 Z-17.600 F360.000
G2 X3.085 Y-7.096 Z-17.600 I4.000 J0.000 F360.000
G2 X20.161 Y-4.432 Z-17.600 I9.619 J-5.596 F360.000
G1 X20.161 Y-4.432 Z-18.000 F24.000
G2 X22.028 Y-6.618 Z-18.000 I-7.457 J-8.261 F360.000
G2 X22.750 Y-8.910 Z-18.000 I-3.278 J-2.292 F360.000
G1 X22.750 Y-16.490 Z-18.000 F360.000
G2 X22.315 Y-18.304 Z-18.000 I-4.000 J-0.000 F360.000
G2 X14.025 Y-23.757 Z-18.000 I-9.603 J5.571 F360.000
G2 X3.372 Y-18.782 Z-18.000 I-1.325 J11.057 F360.000
G2 X2.650 Y-16.490 Z-18.000 I3.278 J2.292 F360.000
G1 X2.650 Y-8.910 Z-18.000 F360.000
G2 X3.085 Y-7.096 Z-18.000 I4.000 J0.000 F360.000
G2 X20.161 Y-4.432 Z-18.000 I9.619 J-5.596 F360.000
G1 X20.161 Y-4.432 Z-18.400 F24.000
G2 X22.028 Y-6.618 Z-18.400 I-7.457 J-8.261 F360.000
G2 X22.750 Y-8.910 Z-18.400 I-3.278 J-2.292 F360.000
G1 X22.750 Y-16.490 Z-18.400 F360.000
G2 X22.315 Y-18.304 Z-18.400 I-4.000 J-0.000 F360.000
G2 X14.025 Y-23.757 Z-18.400 I-9.603 J5.571 F360.000
G2 X3.372 Y-18.782 Z-18.400 I-1.325 J11.057 F360.000
G2 X2.650 Y-16.490 Z-18.400 I3.278 J2.292 F360.000
G1 X2.650 Y-8.910 Z-18.400 F360.000
G2 X3.085 Y-7.096 Z-18.400 I4.000 J0.000 F360.000
G2 X20.161 Y-4.432 Z-18.400 I9.619 J-5.596 F360.000
G1 X20.161 Y-4.432 Z-18.800 F24.000
G2 X22.028 Y-6.618 Z-18.800 I-7.457 J-8.261 F360.000
G2 X22.750 Y-8.910 Z-18.800 I-3.278 J-2.292 F360.000
G1 X22.750 Y-16.490 Z-18.800 F360.000
G2 X22.315 Y-18.304 Z-18.800 I-4.000 J-0.000 F360.000
G2 X14.025 Y-23.757 Z-18.800 I-9.603 J5.571 F360.000
G2 X3.372 Y-18.782 Z-18.800 I-1.325 J11.057 F360.000
G2 X2.650 Y-16.490 Z-18.800 I3.278 J2.292 F360.000
G1 X2.650 Y-8.910 Z-18.800 F360.000
G2 X3.085 Y-7.096 Z-18.800 I4.000 J0.000 F360.000
G2 X20.161 Y-4.432 Z-18.800 I9.619 J-5.596 F360.000
G1 X20.161 Y-4.432 Z-19.200 F24.000
G2 X22.028 Y-6.618 Z-19.200 I-7.457 J-8.261 F360.000
G2 X22.750 Y-8.910 Z-19.200 I-3.278 J-2.292 F360.000
G1 X22.750 Y-16.490 Z-19.200 F360.000
G2 X22.315 Y-18.304 Z-19.200 I-4.000 J-0.000 F360.000
G2 X14.025 Y-23.757 Z-19.200 I-9.603 J5.571 F360.000
G2 X3.372 Y-18.782 Z-19.200 I-1.325 J11.057 F360.000
G2 X2.650 Y-16.490 Z-19.200 I3.278 J2.292 F360.000
G1 X2.650 Y-8.910 Z-19.200 F360.000
G2 X3.085 Y-7.096 Z-19.200 I4.000 J0.000 F360.000
G2 X20.161 Y-4.432 Z-19.200 I9.619 J-5.596 F360.000
G1 X20.161 Y-4.432 Z-19.600 F24.000
G2 X22.028 Y-6.618 Z-19.600 I-7.457 J-8.261 F360.000
G2 X22.750 Y-8.910 Z-19.600 I-3.278 J-2.292 F360.000
G1 X22.750 Y-16.490 Z-19.600 F360.000
G2 X22.315 Y-18.304 Z-19.600 I-4.000 J-0.000 F360.000
G2 X14.025 Y-23.757 Z-19.600 I-9.603 J5.571 F360.000
G2 X3.372 Y-18.782 Z-19.600 I-1.325 J11.057 F360.000
G2 X2.650 Y-16.490 Z-19.600 I3.278 J2.292 F360.000
G1 X2.650 Y-8.910 Z-19.600 F360.000
G2 X3.085 Y-7.096 Z-19.600 I4.000 J0.000 F360.000
G2 X20.161 Y-4.432 Z-19.600 I9.619 J-5.596 F360.000
G1 X20.161 Y-4.432 Z-20.000 F24.000
G2 X22.028 Y-6.618 Z-20.000 I-7.457 J-8.261 F360.000
G2 X22.750 Y-8.910 Z-20.000 I-3.278 J-2.292 F360.000
G1 X22.750 Y-16.490 Z-20.000 F360.000
G2 X22.315 Y-18.304 Z-20.000 I-4.000 J-0.000 F360.000
G2 X14.025 Y-23.757 Z-20.000 I-9.603 J5.571 F360.000
G2 X3.372 Y-18.782 Z-20.000 I-1.325 J11.057 F360.000
G2 X2.650 Y-16.490 Z-20.000 I3.278 J2.292 F360.000
G1 X2.650 Y-8.910 Z-20.000 F360.000
G2 X3.085 Y-7.096 Z-20.000 I4.000 J0.000 F360.000
G2 X20.161 Y-4.432 Z-20.000 I9.619 J-5.596 F360.000
G1 X20.161 Y-4.432 Z-20.400 F24.000
G2 X22.028 Y-6.618 Z-20.400 I-7.457 J-8.261 F360.000
G2 X22.750 Y-8.910 Z-20.400 I-3.278 J-2.292 F360.000
G1 X22.750 Y-16.490 Z-20.400 F360.000
G2 X22.315 Y-18.304 Z-20.400 I-4.000 J-0.000 F360.000
G2 X14.025 Y-23.757 Z-20.400 I-9.603 J5.571 F360.000
G2 X3.372 Y-18.782 Z-20.400 I-1.325 J11.057 F360.000
G2 X2.650 Y-16.490 Z-20.400 I3.278 J2.292 F360.000
G1 X2.650 Y-8.910 Z-20.400 F360.000
G2 X3.085 Y-7.096 Z-20.400 I4.000 J0.000 F360.000
G2 X20.161 Y-4.432 Z-20.400 I9.619 J-5.596 F360.000
G1 X20.161 Y-4.432 Z-20.800 F24.000
G2 X22.028 Y-6.618 Z-20.800 I-7.457 J-8.261 F360.000
G2 X22.750 Y-8.910 Z-20.800 I-3.278 J-2.292 F360.000
G1 X22.750 Y-16.490 Z-20.800 F360.000
G2 X22.315 Y-18.304 Z-20.800 I-4.000 J-0.000 F360.000
G2 X14.025 Y-23.757 Z-20.800 I-9.603 J5.571 F360.000
G2 X3.372 Y-18.782 Z-20.800 I-1.325 J11.057 F360.000
G2 X2.650 Y-16.490 Z-20.800 I3.278 J2.292 F360.000
G1 X2.650 Y-8.910 Z-20.800 F360.000
G2 X3.085 Y-7.096 Z-20.800 I4.000 J0.000 F360.000
G2 X20.161 Y-4.432 Z-20.800 I9.619 J-5.596 F360.000
G1 X20.161 Y-4.432 Z-21.200 F24.000
G2 X22.028 Y-6.618 Z-21.200 I-7.457 J-8.261 F360.000
G2 X22.750 Y-8.910 Z-21.200 I-3.278 J-2.292 F360.000
G1 X22.750 Y-16.490 Z-21.200 F360.000
G2 X22.315 Y-18.304 Z-21.200 I-4.000 J-0.000 F360.000
G2 X14.025 Y-23.757 Z-21.200 I-9.603 J5.571 F360.000
G2 X3.372 Y-18.782 Z-21.200 I-1.325 J11.057 F360.000
G2 X2.650 Y-16.490 Z-21.200 I3.278 J2.292 F360.000
G1 X2.650 Y-8.910 Z-21.200 F360.000
G2 X3.085 Y-7.096 Z-21.200 I4.000 J0.000 F360.000
G2 X20.161 Y-4.432 Z-21.200 I9.619 J-5.596 F360.000
G1 X20.161 Y-4.432 Z-21.600 F24.000
G2 X22.028 Y-6.618 Z-21.600 I-7.457 J-8.261 F360.000
G2 X22.750 Y-8.910 Z-21.600 I-3.278 J-2.292 F360.000
G1 X22.750 Y-16.490 Z-21.600 F360.000
G2 X22.315 Y-18.304 Z-21.600 I-4.000 J-0.000 F360.000
G2 X14.025 Y-23.757 Z-21.600 I-9.603 J5.571 F360.000
G2 X3.372 Y-18.782 Z-21.600 I-1.325 J11.057 F360.000
G2 X2.650 Y-16.490 Z-21.600 I3.278 J2.292 F360.000
G1 X2.650 Y-8.910 Z-21.600 F360.000
G2 X3.085 Y-7.096 Z-21.600 I4.000 J0.000 F360.000
G2 X20.161 Y-4.432 Z-21.600 I9.619 J-5.596 F360.000
G1 X20.161 Y-4.432 Z-22.000 F24.000
G2 X22.028 Y-6.618 Z-22.000 I-7.457 J-8.261 F360.000
G2 X22.750 Y-8.910 Z-22.000 I-3.278 J-2.292 F360.000
G1 X22.750 Y-16.490 Z-22.000 F360.000
G2 X22.315 Y-18.304 Z-22.000 I-4.000 J-0.000 F360.000
G2 X14.025 Y-23.757 Z-22.000 I-9.603 J5.571 F360.000
G2 X3.372 Y-18.782 Z-22.000 I-1.325 J11.057 F360.000
G2 X2.650 Y-16.490 Z-22.000 I3.278 J2.292 F360.000
G1 X2.650 Y-8.910 Z-22.000 F360.000
G2 X3.085 Y-7.096 Z-22.000 I4.000 J0.000 F360.000
G2 X20.161 Y-4.432 Z-22.000 I9.619 J-5.596 F360.000
G1 X20.161 Y-4.432 Z-22.400 F24.000
G2 X22.028 Y-6.618 Z-22.400 I-7.457 J-8.261 F360.000
G2 X22.750 Y-8.910 Z-22.400 I-3.278 J-2.292 F360.000
G1 X22.750 Y-16.490 Z-22.400 F360.000
G2 X22.315 Y-18.304 Z-22.400 I-4.000 J-0.000 F360.000
G2 X14.025 Y-23.757 Z-22.400 I-9.603 J5.571 F360.000
G2 X3.372 Y-18.782 Z-22.400 I-1.325 J11.057 F360.000
G2 X2.650 Y-16.490 Z-22.400 I3.278 J2.292 F360.000
G1 X2.650 Y-8.910 Z-22.400 F360.000
G2 X3.085 Y-7.096 Z-22.400 I4.000 J0.000 F360.000
G2 X20.161 Y-4.432 Z-22.400 I9.619 J-5.596 F360.000
G1 X20.161 Y-4.432 Z-22.800 F24.000
G2 X22.028 Y-6.618 Z-22.800 I-7.457 J-8.261 F360.000
G2 X22.750 Y-8.910 Z-22.800 I-3.278 J-2.292 F360.000
G1 X22.750 Y-16.490 Z-22.800 F360.000
G2 X22.315 Y-18.304 Z-22.800 I-4.000 J-0.000 F360.000
G2 X14.025 Y-23.757 Z-22.800 I-9.603 J5.571 F360.000
G2 X3.372 Y-18.782 Z-22.800 I-1.325 J11.057 F360.000
G2 X2.650 Y-16.490 Z-22.800 I3.278 J2.292 F360.000
G1 X2.650 Y-8.910 Z-22.800 F360.000
G2 X3.085 Y-7.096 Z-22.800 I4.000 J0.000 F360.000
G2 X20.161 Y-4.432 Z-22.800 I9.619 J-5.596 F360.000
G1 X20.161 Y-4.432 Z-23.200 F24.000
G2 X22.028 Y-6.618 Z-23.200 I-7.457 J-8.261 F360.000
G2 X22.750 Y-8.910 Z-23.200 I-3.278 J-2.292 F360.000
G1 X22.750 Y-16.490 Z-23.200 F360.000
G2 X22.315 Y-18.304 Z-23.200 I-4.000 J-0.000 F360.000
G2 X14.025 Y-23.757 Z-23.200 I-9.603 J5.571 F360.000
G2 X3.372 Y-18.782 Z-23.200 I-1.325 J11.057 F360.000
G2 X2.650 Y-16.490 Z-23.200 I3.278 J2.292 F360.000
G1 X2.650 Y-8.910 Z-23.200 F360.000
G2 X3.085 Y-7.096 Z-23.200 I4.000 J0.000 F360.000
G2 X20.161 Y-4.432 Z-23.200 I9.619 J-5.596 F360.000
G1 X20.161 Y-4.432 Z-23.600 F24.000
G2 X22.028 Y-6.618 Z-23.600 I-7.457 J-8.261 F360.000
G2 X22.750 Y-8.910 Z-23.600 I-3.278 J-2.292 F360.000
G1 X22.750 Y-16.490 Z-23.600 F360.000
G2 X22.315 Y-18.304 Z-23.600 I-4.000 J-0.000 F360.000
G2 X14.025 Y-23.757 Z-23.600 I-9.603 J5.571 F360.000
G2 X3.372 Y-18.782 Z-23.600 I-1.325 J11.057 F360.000
G2 X2.650 Y-16.490 Z-23.600 I3.278 J2.292 F360.000
G1 X2.650 Y-8.910 Z-23.600 F360.000
G2 X3.085 Y-7.096 Z-23.600 I4.000 J0.000 F360.000
G2 X20.161 Y-4.432 Z-23.600 I9.619 J-5.596 F360.000
G1 X20.161 Y-4.432 Z-24.000 F24.000
G2 X22.028 Y-6.618 Z-24.000 I-7.457 J-8.261 F360.000
G2 X22.750 Y-8.910 Z-24.000 I-3.278 J-2.292 F360.000
G1 X22.750 Y-16.490 Z-24.000 F360.000
G2 X22.315 Y-18.304 Z-24.000 I-4.000 J-0.000 F360.000
G2 X14.025 Y-23.757 Z-24.000 I-9.603 J5.571 F360.000
G2 X3.372 Y-18.782 Z-24.000 I-1.325 J11.057 F360.000
G2 X2.650 Y-16.490 Z-24.000 I3.278 J2.292 F360.000
G1 X2.650 Y-8.910 Z-24.000 F360.000
G2 X3.085 Y-7.096 Z-24.000 I4.000 J0.000 F360.000
G2 X20.161 Y-4.432 Z-24.000 I9.619 J-5.596 F360.000
G1 X20.161 Y-4.432 Z-24.400 F24.000
G2 X22.028 Y-6.618 Z-24.400 I-7.457 J-8.261 F360.000
G2 X22.750 Y-8.910 Z-24.400 I-3.278 J-2.292 F360.000
G1 X22.750 Y-16.490 Z-24.400 F360.000
G2 X22.315 Y-18.304 Z-24.400 I-4.000 J-0.000 F360.000
G2 X14.025 Y-23.757 Z-24.400 I-9.603 J5.571 F360.000
G2 X3.372 Y-18.782 Z-24.400 I-1.325 J11.057 F360.000
G2 X2.650 Y-16.490 Z-24.400 I3.278 J2.292 F360.000
G1 X2.650 Y-8.910 Z-24.400 F360.000
G2 X3.085 Y-7.096 Z-24.400 I4.000 J0.000 F360.000
G2 X20.161 Y-4.432 Z-24.400 I9.619 J-5.596 F360.000
G1 X20.161 Y-4.432 Z-24.800 F24.000
G2 X22.028 Y-6.618 Z-24.800 I-7.457 J-8.261 F360.000
G2 X22.750 Y-8.910 Z-24.800 I-3.278 J-2.292 F360.000
G1 X22.750 Y-16.490 Z-24.800 F360.000
G2 X22.315 Y-18.304 Z-24.800 I-4.000 J-0.000 F360.000
G2 X14.025 Y-23.757 Z-24.800 I-9.603 J5.571 F360.000
G2 X3.372 Y-18.782 Z-24.800 I-1.325 J11.057 F360.000
G2 X2.650 Y-16.490 Z-24.800 I3.278 J2.292 F360.000
G1 X2.650 Y-8.910 Z-24.800 F360.000
G2 X3.085 Y-7.096 Z-24.800 I4.000 J0.000 F360.000
G2 X20.161 Y-4.432 Z-24.800 I9.619 J-5.596 F360.000
G1 X20.161 Y-4.432 Z-25.200 F24.000
G2 X22.028 Y-6.618 Z-25.200 I-7.457 J-8.261 F360.000
G2 X22.750 Y-8.910 Z-25.200 I-3.278 J-2.292 F360.000
G1 X22.750 Y-16.490 Z-25.200 F360.000
G2 X22.315 Y-18.304 Z-25.200 I-4.000 J-0.000 F360.000
G2 X14.025 Y-23.757 Z-25.200 I-9.603 J5.571 F360.000
G2 X3.372 Y-18.782 Z-25.200 I-1.325 J11.057 F360.000
G2 X2.650 Y-16.490 Z-25.200 I3.278 J2.292 F360.000
G1 X2.650 Y-8.910 Z-25.200 F360.000
G2 X3.085 Y-7.096 Z-25.200 I4.000 J0.000 F360.000
G2 X20.161 Y-4.432 Z-25.200 I9.619 J-5.596 F360.000
G1 X20.161 Y-4.432 Z-25.600 F24.000
G2 X22.028 Y-6.618 Z-25.600 I-7.457 J-8.261 F360.000
G2 X22.750 Y-8.910 Z-25.600 I-3.278 J-2.292 F360.000
G1 X22.750 Y-16.490 Z-25.600 F360.000
G2 X22.315 Y-18.304 Z-25.600 I-4.000 J-0.000 F360.000
G2 X14.025 Y-23.757 Z-25.600 I-9.603 J5.571 F360.000
G2 X3.372 Y-18.782 Z-25.600 I-1.325 J11.057 F360.000
G2 X2.650 Y-16.490 Z-25.600 I3.278 J2.292 F360.000
G1 X2.650 Y-8.910 Z-25.600 F360.000
G2 X3.085 Y-7.096 Z-25.600 I4.000 J0.000 F360.000
G2 X20.161 Y-4.432 Z-25.600 I9.619 J-5.596 F360.000
G1 X20.161 Y-4.432 Z-26.000 F24.000
G2 X22.028 Y-6.618 Z-26.000 I-7.457 J-8.261 F360.000
G2 X22.750 Y-8.910 Z-26.000 I-3.278 J-2.292 F360.000
G1 X22.750 Y-16.490 Z-26.000 F360.000
G2 X22.315 Y-18.304 Z-26.000 I-4.000 J-0.000 F360.000
G2 X14.025 Y-23.757 Z-26.000 I-9.603 J5.571 F360.000
G2 X3.372 Y-18.782 Z-26.000 I-1.325 J11.057 F360.000
G2 X2.650 Y-16.490 Z-26.000 I3.278 J2.292 F360.000
G1 X2.650 Y-8.910 Z-26.000 F360.000
G2 X3.085 Y-7.096 Z-26.000 I4.000 J0.000 F360.000
G2 X20.161 Y-4.432 Z-26.000 I9.619 J-5.596 F360.000
G1 X20.161 Y-4.432 Z-26.400 F24.000
G2 X22.028 Y-6.618 Z-26.400 I-7.457 J-8.261 F360.000
G2 X22.750 Y-8.910 Z-26.400 I-3.278 J-2.292 F360.000
G1 X22.750 Y-16.490 Z-26.400 F360.000
G2 X22.315 Y-18.304 Z-26.400 I-4.000 J-0.000 F360.000
G2 X14.025 Y-23.757 Z-26.400 I-9.603 J5.571 F360.000
G2 X3.372 Y-18.782 Z-26.400 I-1.325 J11.057 F360.000
G2 X2.650 Y-16.490 Z-26.400 I3.278 J2.292 F360.000
G1 X2.650 Y-8.910 Z-26.400 F360.000
G2 X3.085 Y-7.096 Z-26.400 I4.000 J0.000 F360.000
G2 X20.161 Y-4.432 Z-26.400 I9.619 J-5.596 F360.000
G1 X20.161 Y-4.432 Z-26.800 F24.000
G2 X22.028 Y-6.618 Z-26.800 I-7.457 J-8.261 F360.000
G2 X22.750 Y-8.910 Z-26.800 I-3.278 J-2.292 F360.000
G1 X22.750 Y-16.490 Z-26.800 F360.000
G2 X22.315 Y-18.304 Z-26.800 I-4.000 J-0.000 F360.000
G2 X14.025 Y-23.757 Z-26.800 I-9.603 J5.571 F360.000
G2 X3.372 Y-18.782 Z-26.800 I-1.325 J11.057 F360.000
G2 X2.650 Y-16.490 Z-26.800 I3.278 J2.292 F360.000
G1 X2.650 Y-8.910 Z-26.800 F360.000
G2 X3.085 Y-7.096 Z-26.800 I4.000 J0.000 F360.000
G2 X20.161 Y-4.432 Z-26.800 I9.619 J-5.596 F360.000
G1 X20.161 Y-4.432 Z-27.200 F24.000
G2 X22.028 Y-6.618 Z-27.200 I-7.457 J-8.261 F360.000
G2 X22.750 Y-8.910 Z-27.200 I-3.278 J-2.292 F360.000
G1 X22.750 Y-16.490 Z-27.200 F360.000
G2 X22.315 Y-18.304 Z-27.200 I-4.000 J-0.000 F360.000
G2 X14.025 Y-23.757 Z-27.200 I-9.603 J5.571 F360.000
G2 X3.372 Y-18.782 Z-27.200 I-1.325 J11.057 F360.000
G2 X2.650 Y-16.490 Z-27.200 I3.278 J2.292 F360.000
G1 X2.650 Y-8.910 Z-27.200 F360.000
G2 X3.085 Y-7.096 Z-27.200 I4.000 J0.000 F360.000
G2 X20.161 Y-4.432 Z-27.200 I9.619 J-5.596 F360.000
G1 X20.161 Y-4.432 Z-27.600 F24.000
G2 X22.028 Y-6.618 Z-27.600 I-7.457 J-8.261 F360.000
G2 X22.750 Y-8.910 Z-27.600 I-3.278 J-2.292 F360.000
G1 X22.750 Y-16.490 Z-27.600 F360.000
G2 X22.315 Y-18.304 Z-27.600 I-4.000 J-0.000 F360.000
G2 X14.025 Y-23.757 Z-27.600 I-9.603 J5.571 F360.000
G2 X3.372 Y-18.782 Z-27.600 I-1.325 J11.057 F360.000
G2 X2.650 Y-16.490 Z-27.600 I3.278 J2.292 F360.000
G1 X2.650 Y-8.910 Z-27.600 F360.000
G2 X3.085 Y-7.096 Z-27.600 I4.000 J0.000 F360.000
G2 X20.161 Y-4.432 Z-27.600 I9.619 J-5.596 F360.000
G1 X20.161 Y-4.432 Z-28.000 F24.000
G2 X22.028 Y-6.618 Z-28.000 I-7.457 J-8.261 F360.000
G2 X22.750 Y-8.910 Z-28.000 I-3.278 J-2.292 F360.000
G1 X22.750 Y-16.490 Z-28.000 F360.000
G2 X22.315 Y-18.304 Z-28.000 I-4.000 J-0.000 F360.000
G2 X14.025 Y-23.757 Z-28.000 I-9.603 J5.571 F360.000
G2 X3.372 Y-18.782 Z-28.000 I-1.325 J11.057 F360.000
G2 X2.650 Y-16.490 Z-28.000 I3.278 J2.292 F360.000
G1 X2.650 Y-8.910 Z-28.000 F360.000
G2 X3.085 Y-7.096 Z-28.000 I4.000 J0.000 F360.000
G2 X20.161 Y-4.432 Z-28.000 I9.619 J-5.596 F360.000
G1 X20.161 Y-4.432 Z-28.400 F24.000
G2 X22.028 Y-6.618 Z-28.400 I-7.457 J-8.261 F360.000
G2 X22.750 Y-8.910 Z-28.400 I-3.278 J-2.292 F360.000
G1 X22.750 Y-16.490 Z-28.400 F360.000
G2 X22.315 Y-18.304 Z-28.400 I-4.000 J-0.000 F360.000
G2 X14.025 Y-23.757 Z-28.400 I-9.603 J5.571 F360.000
G2 X3.372 Y-18.782 Z-28.400 I-1.325 J11.057 F360.000
G2 X2.650 Y-16.490 Z-28.400 I3.278 J2.292 F360.000
G1 X2.650 Y-8.910 Z-28.400 F360.000
G2 X3.085 Y-7.096 Z-28.400 I4.000 J0.000 F360.000
G2 X20.161 Y-4.432 Z-28.400 I9.619 J-5.596 F360.000
G1 X20.161 Y-4.432 Z-28.800 F24.000
G2 X22.028 Y-6.618 Z-28.800 I-7.457 J-8.261 F360.000
G2 X22.750 Y-8.910 Z-28.800 I-3.278 J-2.292 F360.000
G1 X22.750 Y-16.490 Z-28.800 F360.000
G2 X22.315 Y-18.304 Z-28.800 I-4.000 J-0.000 F360.000
G2 X14.025 Y-23.757 Z-28.800 I-9.603 J5.571 F360.000
G2 X3.372 Y-18.782 Z-28.800 I-1.325 J11.057 F360.000
G2 X2.650 Y-16.490 Z-28.800 I3.278 J2.292 F360.000
G1 X2.650 Y-8.910 Z-28.800 F360.000
G2 X3.085 Y-7.096 Z-28.800 I4.000 J0.000 F360.000
G2 X20.161 Y-4.432 Z-28.800 I9.619 J-5.596 F360.000
G1 X20.161 Y-4.432 Z-29.200 F24.000
G2 X22.028 Y-6.618 Z-29.200 I-7.457 J-8.261 F360.000
G2 X22.750 Y-8.910 Z-29.200 I-3.278 J-2.292 F360.000
G1 X22.750 Y-16.490 Z-29.200 F360.000
G2 X22.315 Y-18.304 Z-29.200 I-4.000 J-0.000 F360.000
G2 X14.025 Y-23.757 Z-29.200 I-9.603 J5.571 F360.000
G2 X3.372 Y-18.782 Z-29.200 I-1.325 J11.057 F360.000
G2 X2.650 Y-16.490 Z-29.200 I3.278 J2.292 F360.000
G1 X2.650 Y-8.910 Z-29.200 F360.000
G2 X3.085 Y-7.096 Z-29.200 I4.000 J0.000 F360.000
G2 X20.161 Y-4.432 Z-29.200 I9.619 J-5.596 F360.000
G1 X20.161 Y-4.432 Z-29.600 F24.000
G2 X22.028 Y-6.618 Z-29.600 I-7.457 J-8.261 F360.000
G2 X22.750 Y-8.910 Z-29.600 I-3.278 J-2.292 F360.000
G1 X22.750 Y-16.490 Z-29.600 F360.000
G2 X22.315 Y-18.304 Z-29.600 I-4.000 J-0.000 F360.000
G2 X14.025 Y-23.757 Z-29.600 I-9.603 J5.571 F360.000
G2 X3.372 Y-18.782 Z-29.600 I-1.325 J11.057 F360.000
G2 X2.650 Y-16.490 Z-29.600 I3.278 J2.292 F360.000
G1 X2.650 Y-8.910 Z-29.600 F360.000
G2 X3.085 Y-7.096 Z-29.600 I4.000 J0.000 F360.000
G2 X20.161 Y-4.432 Z-29.600 I9.619 J-5.596 F360.000
G1 X20.161 Y-4.432 Z-30.000 F24.000
G2 X22.028 Y-6.618 Z-30.000 I-7.457 J-8.261 F360.000
G2 X22.750 Y-8.910 Z-30.000 I-3.278 J-2.292 F360.000
G1 X22.750 Y-16.490 Z-30.000 F360.000
G2 X22.315 Y-18.304 Z-30.000 I-4.000 J-0.000 F360.000
G2 X14.025 Y-23.757 Z-30.000 I-9.603 J5.571 F360.000
G2 X3.372 Y-18.782 Z-30.000 I-1.325 J11.057 F360.000
G2 X2.650 Y-16.490 Z-30.000 I3.278 J2.292 F360.000
G1 X2.650 Y-8.910 Z-30.000 F360.000
G2 X3.085 Y-7.096 Z-30.000 I4.000 J0.000 F360.000
G2 X20.161 Y-4.432 Z-30.000 I9.619 J-5.596 F360.000
G1 X20.161 Y-4.432 Z-30.400 F24.000
G2 X22.028 Y-6.618 Z-30.400 I-7.457 J-8.261 F360.000
G2 X22.750 Y-8.910 Z-30.400 I-3.278 J-2.292 F360.000
G1 X22.750 Y-16.490 Z-30.400 F360.000
G2 X22.315 Y-18.304 Z-30.400 I-4.000 J-0.000 F360.000
G2 X14.025 Y-23.757 Z-30.400 I-9.603 J5.571 F360.000
G2 X3.372 Y-18.782 Z-30.400 I-1.325 J11.057 F360.000
G2 X2.650 Y-16.490 Z-30.400 I3.278 J2.292 F360.000
G1 X2.650 Y-8.910 Z-30.400 F360.000
G2 X3.085 Y-7.096 Z-30.400 I4.000 J0.000 F360.000
G2 X20.161 Y-4.432 Z-30.400 I9.619 J-5.596 F360.000
G1 X20.161 Y-4.432 Z-30.800 F24.000
G2 X22.028 Y-6.618 Z-30.800 I-7.457 J-8.261 F360.000
G2 X22.750 Y-8.910 Z-30.800 I-3.278 J-2.292 F360.000
G1 X22.750 Y-16.490 Z-30.800 F360.000
G2 X22.315 Y-18.304 Z-30.800 I-4.000 J-0.000 F360.000
G2 X14.025 Y-23.757 Z-30.800 I-9.603 J5.571 F360.000
G2 X3.372 Y-18.782 Z-30.800 I-1.325 J11.057 F360.000
G2 X2.650 Y-16.490 Z-30.800 I3.278 J2.292 F360.000
G1 X2.650 Y-8.910 Z-30.800 F360.000
G2 X3.085 Y-7.096 Z-30.800 I4.000 J0.000 F360.000
G2 X20.161 Y-4.432 Z-30.800 I9.619 J-5.596 F360.000
G1 X20.161 Y-4.432 Z-31.200 F24.000
G2 X22.028 Y-6.618 Z-31.200 I-7.457 J-8.261 F360.000
G2 X22.750 Y-8.910 Z-31.200 I-3.278 J-2.292 F360.000
G1 X22.750 Y-16.490 Z-31.200 F360.000
G2 X22.315 Y-18.304 Z-31.200 I-4.000 J-0.000 F360.000
G2 X14.025 Y-23.757 Z-31.200 I-9.603 J5.571 F360.000
G2 X3.372 Y-18.782 Z-31.200 I-1.325 J11.057 F360.000
G2 X2.650 Y-16.490 Z-31.200 I3.278 J2.292 F360.000
G1 X2.650 Y-8.910 Z-31.200 F360.000
G2 X3.085 Y-7.096 Z-31.200 I4.000 J0.000 F360.000
G2 X20.161 Y-4.432 Z-31.200 I9.619 J-5.596 F360.000
G1 X20.161 Y-4.432 Z-31.600 F24.000
G2 X22.028 Y-6.618 Z-31.600 I-7.457 J-8.261 F360.000
G2 X22.750 Y-8.910 Z-31.600 I-3.278 J-2.292 F360.000
G1 X22.750 Y-16.490 Z-31.600 F360.000
G2 X22.315 Y-18.304 Z-31.600 I-4.000 J-0.000 F360.000
G2 X14.025 Y-23.757 Z-31.600 I-9.603 J5.571 F360.000
G2 X3.372 Y-18.782 Z-31.600 I-1.325 J11.057 F360.000
G2 X2.650 Y-16.490 Z-31.600 I3.278 J2.292 F360.000
G1 X2.650 Y-8.910 Z-31.600 F360.000
G2 X3.085 Y-7.096 Z-31.600 I4.000 J0.000 F360.000
G2 X20.161 Y-4.432 Z-31.600 I9.619 J-5.596 F360.000
G1 X20.161 Y-4.432 Z-32.000 F24.000
G2 X22.028 Y-6.618 Z-32.000 I-7.457 J-8.261 F360.000
G2 X22.750 Y-8.910 Z-32.000 I-3.278 J-2.292 F360.000
G1 X22.750 Y-16.490 Z-32.000 F360.000
G2 X22.315 Y-18.304 Z-32.000 I-4.000 J-0.000 F360.000
G2 X14.025 Y-23.757 Z-32.000 I-9.603 J5.571 F360.000
G2 X3.372 Y-18.782 Z-32.000 I-1.325 J11.057 F360.000
G2 X2.650 Y-16.490 Z-32.000 I3.278 J2.292 F360.000
G1 X2.650 Y-8.910 Z-32.000 F360.000
G2 X3.085 Y-7.096 Z-32.000 I4.000 J0.000 F360.000
G2 X20.161 Y-4.432 Z-32.000 I9.619 J-5.596 F360.000
G1 X20.161 Y-4.432 Z-32.400 F24.000
G2 X22.028 Y-6.618 Z-32.400 I-7.457 J-8.261 F360.000
G2 X22.750 Y-8.910 Z-32.400 I-3.278 J-2.292 F360.000
G1 X22.750 Y-16.490 Z-32.400 F360.000
G2 X22.315 Y-18.304 Z-32.400 I-4.000 J-0.000 F360.000
G2 X14.025 Y-23.757 Z-32.400 I-9.603 J5.571 F360.000
G2 X3.372 Y-18.782 Z-32.400 I-1.325 J11.057 F360.000
G2 X2.650 Y-16.490 Z-32.400 I3.278 J2.292 F360.000
G1 X2.650 Y-8.910 Z-32.400 F360.000
G2 X3.085 Y-7.096 Z-32.400 I4.000 J0.000 F360.000
G2 X20.161 Y-4.432 Z-32.400 I9.619 J-5.596 F360.000
G1 X20.161 Y-4.432 Z-32.800 F24.000
G2 X22.028 Y-6.618 Z-32.800 I-7.457 J-8.261 F360.000
G2 X22.750 Y-8.910 Z-32.800 I-3.278 J-2.292 F360.000
G1 X22.750 Y-16.490 Z-32.800 F360.000
G2 X22.315 Y-18.304 Z-32.800 I-4.000 J-0.000 F360.000
G2 X14.025 Y-23.757 Z-32.800 I-9.603 J5.571 F360.000
G2 X3.372 Y-18.782 Z-32.800 I-1.325 J11.057 F360.000
G2 X2.650 Y-16.490 Z-32.800 I3.278 J2.292 F360.000
G1 X2.650 Y-8.910 Z-32.800 F360.000
G2 X3.085 Y-7.096 Z-32.800 I4.000 J0.000 F360.000
G2 X20.161 Y-4.432 Z-32.800 I9.619 J-5.596 F360.000
G1 X20.161 Y-4.432 Z-33.200 F24.000
G2 X22.028 Y-6.618 Z-33.200 I-7.457 J-8.261 F360.000
G2 X22.750 Y-8.910 Z-33.200 I-3.278 J-2.292 F360.000
G1 X22.750 Y-16.490 Z-33.200 F360.000
G2 X22.315 Y-18.304 Z-33.200 I-4.000 J-0.000 F360.000
G2 X14.025 Y-23.757 Z-33.200 I-9.603 J5.571 F360.000
G2 X3.372 Y-18.782 Z-33.200 I-1.325 J11.057 F360.000
G2 X2.650 Y-16.490 Z-33.200 I3.278 J2.292 F360.000
G1 X2.650 Y-8.910 Z-33.200 F360.000
G2 X3.085 Y-7.096 Z-33.200 I4.000 J0.000 F360.000
G2 X20.161 Y-4.432 Z-33.200 I9.619 J-5.596 F360.000
G1 X20.161 Y-4.432 Z-33.600 F24.000
G2 X22.028 Y-6.618 Z-33.600 I-7.457 J-8.261 F360.000
G2 X22.750 Y-8.910 Z-33.600 I-3.278 J-2.292 F360.000
G1 X22.750 Y-16.490 Z-33.600 F360.000
G2 X22.315 Y-18.304 Z-33.600 I-4.000 J-0.000 F360.000
G2 X14.025 Y-23.757 Z-33.600 I-9.603 J5.571 F360.000
G2 X3.372 Y-18.782 Z-33.600 I-1.325 J11.057 F360.000
G2 X2.650 Y-16.490 Z-33.600 I3.278 J2.292 F360.000
G1 X2.650 Y-8.910 Z-33.600 F360.000
G2 X3.085 Y-7.096 Z-33.600 I4.000 J0.000 F360.000
G2 X20.161 Y-4.432 Z-33.600 I9.619 J-5.596 F360.000
G1 X20.161 Y-4.432 Z-34.000 F24.000
G2 X22.028 Y-6.618 Z-34.000 I-7.457 J-8.261 F360.000
G2 X22.750 Y-8.910 Z-34.000 I-3.278 J-2.292 F360.000
G1 X22.750 Y-16.490 Z-34.000 F360.000
G2 X22.315 Y-18.304 Z-34.000 I-4.000 J-0.000 F360.000
G2 X14.025 Y-23.757 Z-34.000 I-9.603 J5.571 F360.000
G2 X3.372 Y-18.782 Z-34.000 I-1.325 J11.057 F360.000
G2 X2.650 Y-16.490 Z-34.000 I3.278 J2.292 F360.000
G1 X2.650 Y-8.910 Z-34.000 F360.000
G2 X3.085 Y-7.096 Z-34.000 I4.000 J0.000 F360.000
G2 X20.161 Y-4.432 Z-34.000 I9.619 J-5.596 F360.000
G1 X20.161 Y-4.432 Z-34.100 F24.000
G2 X22.028 Y-6.618 Z-34.100 I-7.457 J-8.261 F360.000
G2 X22.750 Y-8.910 Z-34.100 I-3.278 J-2.292 F360.000
G1 X22.750 Y-16.490 Z-34.100 F360.000
G2 X22.315 Y-18.304 Z-34.100 I-4.000 J-0.000 F360.000
G2 X14.025 Y-23.757 Z-34.100 I-9.603 J5.571 F360.000
G2 X3.372 Y-18.782 Z-34.100 I-1.325 J11.057 F360.000
G2 X2.650 Y-16.490 Z-34.100 I3.278 J2.292 F360.000
G1 X2.650 Y-8.910 Z-34.100 F360.000
G2 X3.085 Y-7.096 Z-34.100 I4.000 J0.000 F360.000
G2 X20.161 Y-4.432 Z-34.100 I9.619 J-5.596 F360.000
G0 Z5.000
(finish operation: Profile_Edges002)
(begin postamble)
M05
G17 G54 G90 G80 G40
M2
