(Exported by FreeCAD)
(Post Processor: linuxcnc_post)
(Output Time:2019-09-23 14:50:46.251544)
(begin preamble)
G17 G54 G40 G49 G80 G90
G21
M8
(begin operation: T4: 12mm Endmill)
(machine: not set, mm/min)
(T4: 12mm Endmill)
M6 T4 G43 H4
M3 S3000
(finish operation: T4: 12mm Endmill)
(begin operation: Profile_Edges)
(machine: not set, mm/min)
(Profile_Edges)
(Compensated Tool Path. Diameter: 12.0)
G0 Z5.000
G0 X21.716 Y-3.684
G0 Z3.000
G1 X21.716 Y-3.684 Z-0.500 F30.000
G2 X14.401 Y-25.336 Z-0.500 I-9.016 J-9.016 F720.000
G2 X10.999 Y-0.064 Z-0.500 I-1.701 J12.636 F720.000
G2 X21.716 Y-3.684 Z-0.500 I1.701 J-12.636 F720.000
G1 X21.716 Y-3.684 Z-1.000 F30.000
G2 X14.401 Y-25.336 Z-1.000 I-9.016 J-9.016 F720.000
G2 X10.999 Y-0.064 Z-1.000 I-1.701 J12.636 F720.000
G2 X21.716 Y-3.684 Z-1.000 I1.701 J-12.636 F720.000
G1 X21.716 Y-3.684 Z-1.500 F30.000
G2 X14.401 Y-25.336 Z-1.500 I-9.016 J-9.016 F720.000
G2 X10.999 Y-0.064 Z-1.500 I-1.701 J12.636 F720.000
G2 X21.716 Y-3.684 Z-1.500 I1.701 J-12.636 F720.000
G1 X21.716 Y-3.684 Z-2.000 F30.000
G2 X14.401 Y-25.336 Z-2.000 I-9.016 J-9.016 F720.000
G2 X10.999 Y-0.064 Z-2.000 I-1.701 J12.636 F720.000
G2 X21.716 Y-3.684 Z-2.000 I1.701 J-12.636 F720.000
G1 X21.716 Y-3.684 Z-2.500 F30.000
G2 X14.401 Y-25.336 Z-2.500 I-9.016 J-9.016 F720.000
G2 X10.999 Y-0.064 Z-2.500 I-1.701 J12.636 F720.000
G2 X21.716 Y-3.684 Z-2.500 I1.701 J-12.636 F720.000
G1 X21.716 Y-3.684 Z-3.000 F30.000
G2 X14.401 Y-25.336 Z-3.000 I-9.016 J-9.016 F720.000
G2 X10.999 Y-0.064 Z-3.000 I-1.701 J12.636 F720.000
G2 X21.716 Y-3.684 Z-3.000 I1.701 J-12.636 F720.000
G1 X21.716 Y-3.684 Z-3.500 F30.000
G2 X14.401 Y-25.336 Z-3.500 I-9.016 J-9.016 F720.000
G2 X10.999 Y-0.064 Z-3.500 I-1.701 J12.636 F720.000
G2 X21.716 Y-3.684 Z-3.500 I1.701 J-12.636 F720.000
G1 X21.716 Y-3.684 Z-4.000 F30.000
G2 X14.401 Y-25.336 Z-4.000 I-9.016 J-9.016 F720.000
G2 X10.999 Y-0.064 Z-4.000 I-1.701 J12.636 F720.000
G2 X21.716 Y-3.684 Z-4.000 I1.701 J-12.636 F720.000
G1 X21.716 Y-3.684 Z-4.500 F30.000
G2 X14.401 Y-25.336 Z-4.500 I-9.016 J-9.016 F720.000
G2 X10.999 Y-0.064 Z-4.500 I-1.701 J12.636 F720.000
G2 X21.716 Y-3.684 Z-4.500 I1.701 J-12.636 F720.000
G1 X21.716 Y-3.684 Z-5.000 F30.000
G2 X14.401 Y-25.336 Z-5.000 I-9.016 J-9.016 F720.000
G2 X10.999 Y-0.064 Z-5.000 I-1.701 J12.636 F720.000
G2 X21.716 Y-3.684 Z-5.000 I1.701 J-12.636 F720.000
G1 X21.716 Y-3.684 Z-5.500 F30.000
G2 X14.401 Y-25.336 Z-5.500 I-9.016 J-9.016 F720.000
G2 X10.999 Y-0.064 Z-5.500 I-1.701 J12.636 F720.000
G2 X21.716 Y-3.684 Z-5.500 I1.701 J-12.636 F720.000
G1 X21.716 Y-3.684 Z-6.000 F30.000
G2 X14.401 Y-25.336 Z-6.000 I-9.016 J-9.016 F720.000
G2 X10.999 Y-0.064 Z-6.000 I-1.701 J12.636 F720.000
G2 X21.716 Y-3.684 Z-6.000 I1.701 J-12.636 F720.000
G1 X21.716 Y-3.684 Z-6.500 F30.000
G2 X14.401 Y-25.336 Z-6.500 I-9.016 J-9.016 F720.000
G2 X10.999 Y-0.064 Z-6.500 I-1.701 J12.636 F720.000
G2 X21.716 Y-3.684 Z-6.500 I1.701 J-12.636 F720.000
G1 X21.716 Y-3.684 Z-7.000 F30.000
G2 X14.401 Y-25.336 Z-7.000 I-9.016 J-9.016 F720.000
G2 X10.999 Y-0.064 Z-7.000 I-1.701 J12.636 F720.000
G2 X21.716 Y-3.684 Z-7.000 I1.701 J-12.636 F720.000
G1 X21.716 Y-3.684 Z-7.500 F30.000
G2 X14.401 Y-25.336 Z-7.500 I-9.016 J-9.016 F720.000
G2 X10.999 Y-0.064 Z-7.500 I-1.701 J12.636 F720.000
G2 X21.716 Y-3.684 Z-7.500 I1.701 J-12.636 F720.000
G1 X21.716 Y-3.684 Z-8.000 F30.000
G2 X14.401 Y-25.336 Z-8.000 I-9.016 J-9.016 F720.000
G2 X10.999 Y-0.064 Z-8.000 I-1.701 J12.636 F720.000
G2 X21.716 Y-3.684 Z-8.000 I1.701 J-12.636 F720.000
G1 X21.716 Y-3.684 Z-8.500 F30.000
G2 X14.401 Y-25.336 Z-8.500 I-9.016 J-9.016 F720.000
G2 X10.999 Y-0.064 Z-8.500 I-1.701 J12.636 F720.000
G2 X21.716 Y-3.684 Z-8.500 I1.701 J-12.636 F720.000
G1 X21.716 Y-3.684 Z-9.000 F30.000
G2 X14.401 Y-25.336 Z-9.000 I-9.016 J-9.016 F720.000
G2 X10.999 Y-0.064 Z-9.000 I-1.701 J12.636 F720.000
G2 X21.716 Y-3.684 Z-9.000 I1.701 J-12.636 F720.000
G1 X21.716 Y-3.684 Z-9.500 F30.000
G2 X14.401 Y-25.336 Z-9.500 I-9.016 J-9.016 F720.000
G2 X10.999 Y-0.064 Z-9.500 I-1.701 J12.636 F720.000
G2 X21.716 Y-3.684 Z-9.500 I1.701 J-12.636 F720.000
G1 X21.716 Y-3.684 Z-10.000 F30.000
G2 X14.401 Y-25.336 Z-10.000 I-9.016 J-9.016 F720.000
G2 X10.999 Y-0.064 Z-10.000 I-1.701 J12.636 F720.000
G2 X21.716 Y-3.684 Z-10.000 I1.701 J-12.636 F720.000
G1 X21.716 Y-3.684 Z-10.400 F30.000
G2 X14.401 Y-25.336 Z-10.400 I-9.016 J-9.016 F720.000
G2 X10.999 Y-0.064 Z-10.400 I-1.701 J12.636 F720.000
G2 X21.716 Y-3.684 Z-10.400 I1.701 J-12.636 F720.000
G0 Z5.000
(finish operation: Profile_Edges)
(begin operation: T18: 4.2mm drill [M5 tap])
(machine: not set, mm/min)
(T18: 4.2mm drill [M5 tap])
M6 T18 G43 H18
M3 S800
(finish operation: T18: 4.2mm drill [M5 tap])
(begin operation: Drilling)
(machine: not set, mm/min)
(Drilling)
(Begin Drilling)
G0 Z5.000
G90
G98
G83 X12.700 Y-12.700 Z-8.000 F60.000 Q0.200 R5.000
G80
G0 Z5.000
(finish operation: Drilling)
(begin operation: T19: 8mm end mill)
(machine: not set, mm/min)
(T19: 8mm end mill)
M6 T19 G43 H19
M3 S3000
(finish operation: T19: 8mm end mill)
(begin operation: Profile_Edges001)
(machine: not set, mm/min)
(Profile_Edges001)
(Compensated Tool Path. Diameter: 8.0)
G0 Z5.000
G0 X24.135 Y-2.301
G1 X24.135 Y-2.301 Z-10.800 F24.000
G2 X21.758 Y-25.400 Z-10.800 I-12.296 J-10.406 F360.000
G2 X19.200 Y-26.325 Z-10.800 I-2.558 J3.075 F360.000
G1 X6.200 Y-26.325 Z-10.800 F360.000
G2 X4.095 Y-25.726 Z-10.800 I-0.000 J4.000 F360.000
G2 X3.642 Y0.000 Z-10.800 I9.465 J13.034 F360.000
G2 X6.200 Y0.925 Z-10.800 I2.558 J-3.075 F360.000
G1 X19.200 Y0.925 Z-10.800 F360.000
G2 X21.305 Y0.326 Z-10.800 I0.000 J-4.000 F360.000
G2 X24.135 Y-2.301 Z-10.800 I-9.465 J-13.034 F360.000
G1 X24.135 Y-2.301 Z-11.200 F24.000
G2 X21.758 Y-25.400 Z-11.200 I-12.296 J-10.406 F360.000
G2 X19.200 Y-26.325 Z-11.200 I-2.558 J3.075 F360.000
G1 X6.200 Y-26.325 Z-11.200 F360.000
G2 X4.095 Y-25.726 Z-11.200 I-0.000 J4.000 F360.000
G2 X3.642 Y0.000 Z-11.200 I9.465 J13.034 F360.000
G2 X6.200 Y0.925 Z-11.200 I2.558 J-3.075 F360.000
G1 X19.200 Y0.925 Z-11.200 F360.000
G2 X21.305 Y0.326 Z-11.200 I0.000 J-4.000 F360.000
G2 X24.135 Y-2.301 Z-11.200 I-9.465 J-13.034 F360.000
G1 X24.135 Y-2.301 Z-11.600 F24.000
G2 X21.758 Y-25.400 Z-11.600 I-12.296 J-10.406 F360.000
G2 X19.200 Y-26.325 Z-11.600 I-2.558 J3.075 F360.000
G1 X6.200 Y-26.325 Z-11.600 F360.000
G2 X4.095 Y-25.726 Z-11.600 I-0.000 J4.000 F360.000
G2 X3.642 Y0.000 Z-11.600 I9.465 J13.034 F360.000
G2 X6.200 Y0.925 Z-11.600 I2.558 J-3.075 F360.000
G1 X19.200 Y0.925 Z-11.600 F360.000
G2 X21.305 Y0.326 Z-11.600 I0.000 J-4.000 F360.000
G2 X24.135 Y-2.301 Z-11.600 I-9.465 J-13.034 F360.000
G1 X24.135 Y-2.301 Z-12.000 F24.000
G2 X21.758 Y-25.400 Z-12.000 I-12.296 J-10.406 F360.000
G2 X19.200 Y-26.325 Z-12.000 I-2.558 J3.075 F360.000
G1 X6.200 Y-26.325 Z-12.000 F360.000
G2 X4.095 Y-25.726 Z-12.000 I-0.000 J4.000 F360.000
G2 X3.642 Y0.000 Z-12.000 I9.465 J13.034 F360.000
G2 X6.200 Y0.925 Z-12.000 I2.558 J-3.075 F360.000
G1 X19.200 Y0.925 Z-12.000 F360.000
G2 X21.305 Y0.326 Z-12.000 I0.000 J-4.000 F360.000
G2 X24.135 Y-2.301 Z-12.000 I-9.465 J-13.034 F360.000
G1 X24.135 Y-2.301 Z-12.400 F24.000
G2 X21.758 Y-25.400 Z-12.400 I-12.296 J-10.406 F360.000
G2 X19.200 Y-26.325 Z-12.400 I-2.558 J3.075 F360.000
G1 X6.200 Y-26.325 Z-12.400 F360.000
G2 X4.095 Y-25.726 Z-12.400 I-0.000 J4.000 F360.000
G2 X3.642 Y0.000 Z-12.400 I9.465 J13.034 F360.000
G2 X6.200 Y0.925 Z-12.400 I2.558 J-3.075 F360.000
G1 X19.200 Y0.925 Z-12.400 F360.000
G2 X21.305 Y0.326 Z-12.400 I0.000 J-4.000 F360.000
G2 X24.135 Y-2.301 Z-12.400 I-9.465 J-13.034 F360.000
G1 X24.135 Y-2.301 Z-12.800 F24.000
G2 X21.758 Y-25.400 Z-12.800 I-12.296 J-10.406 F360.000
G2 X19.200 Y-26.325 Z-12.800 I-2.558 J3.075 F360.000
G1 X6.200 Y-26.325 Z-12.800 F360.000
G2 X4.095 Y-25.726 Z-12.800 I-0.000 J4.000 F360.000
G2 X3.642 Y0.000 Z-12.800 I9.465 J13.034 F360.000
G2 X6.200 Y0.925 Z-12.800 I2.558 J-3.075 F360.000
G1 X19.200 Y0.925 Z-12.800 F360.000
G2 X21.305 Y0.326 Z-12.800 I0.000 J-4.000 F360.000
G2 X24.135 Y-2.301 Z-12.800 I-9.465 J-13.034 F360.000
G1 X24.135 Y-2.301 Z-13.200 F24.000
G2 X21.758 Y-25.400 Z-13.200 I-12.296 J-10.406 F360.000
G2 X19.200 Y-26.325 Z-13.200 I-2.558 J3.075 F360.000
G1 X6.200 Y-26.325 Z-13.200 F360.000
G2 X4.095 Y-25.726 Z-13.200 I-0.000 J4.000 F360.000
G2 X3.642 Y0.000 Z-13.200 I9.465 J13.034 F360.000
G2 X6.200 Y0.925 Z-13.200 I2.558 J-3.075 F360.000
G1 X19.200 Y0.925 Z-13.200 F360.000
G2 X21.305 Y0.326 Z-13.200 I0.000 J-4.000 F360.000
G2 X24.135 Y-2.301 Z-13.200 I-9.465 J-13.034 F360.000
G1 X24.135 Y-2.301 Z-13.600 F24.000
G2 X21.758 Y-25.400 Z-13.600 I-12.296 J-10.406 F360.000
G2 X19.200 Y-26.325 Z-13.600 I-2.558 J3.075 F360.000
G1 X6.200 Y-26.325 Z-13.600 F360.000
G2 X4.095 Y-25.726 Z-13.600 I-0.000 J4.000 F360.000
G2 X3.642 Y0.000 Z-13.600 I9.465 J13.034 F360.000
G2 X6.200 Y0.925 Z-13.600 I2.558 J-3.075 F360.000
G1 X19.200 Y0.925 Z-13.600 F360.000
G2 X21.305 Y0.326 Z-13.600 I0.000 J-4.000 F360.000
G2 X24.135 Y-2.301 Z-13.600 I-9.465 J-13.034 F360.000
G1 X24.135 Y-2.301 Z-14.000 F24.000
G2 X21.758 Y-25.400 Z-14.000 I-12.296 J-10.406 F360.000
G2 X19.200 Y-26.325 Z-14.000 I-2.558 J3.075 F360.000
G1 X6.200 Y-26.325 Z-14.000 F360.000
G2 X4.095 Y-25.726 Z-14.000 I-0.000 J4.000 F360.000
G2 X3.642 Y0.000 Z-14.000 I9.465 J13.034 F360.000
G2 X6.200 Y0.925 Z-14.000 I2.558 J-3.075 F360.000
G1 X19.200 Y0.925 Z-14.000 F360.000
G2 X21.305 Y0.326 Z-14.000 I0.000 J-4.000 F360.000
G2 X24.135 Y-2.301 Z-14.000 I-9.465 J-13.034 F360.000
G1 X24.135 Y-2.301 Z-14.400 F24.000
G2 X21.758 Y-25.400 Z-14.400 I-12.296 J-10.406 F360.000
G2 X19.200 Y-26.325 Z-14.400 I-2.558 J3.075 F360.000
G1 X6.200 Y-26.325 Z-14.400 F360.000
G2 X4.095 Y-25.726 Z-14.400 I-0.000 J4.000 F360.000
G2 X3.642 Y0.000 Z-14.400 I9.465 J13.034 F360.000
G2 X6.200 Y0.925 Z-14.400 I2.558 J-3.075 F360.000
G1 X19.200 Y0.925 Z-14.400 F360.000
G2 X21.305 Y0.326 Z-14.400 I0.000 J-4.000 F360.000
G2 X24.135 Y-2.301 Z-14.400 I-9.465 J-13.034 F360.000
G1 X24.135 Y-2.301 Z-14.800 F24.000
G2 X21.758 Y-25.400 Z-14.800 I-12.296 J-10.406 F360.000
G2 X19.200 Y-26.325 Z-14.800 I-2.558 J3.075 F360.000
G1 X6.200 Y-26.325 Z-14.800 F360.000
G2 X4.095 Y-25.726 Z-14.800 I-0.000 J4.000 F360.000
G2 X3.642 Y0.000 Z-14.800 I9.465 J13.034 F360.000
G2 X6.200 Y0.925 Z-14.800 I2.558 J-3.075 F360.000
G1 X19.200 Y0.925 Z-14.800 F360.000
G2 X21.305 Y0.326 Z-14.800 I0.000 J-4.000 F360.000
G2 X24.135 Y-2.301 Z-14.800 I-9.465 J-13.034 F360.000
G1 X24.135 Y-2.301 Z-15.200 F24.000
G2 X21.758 Y-25.400 Z-15.200 I-12.296 J-10.406 F360.000
G2 X19.200 Y-26.325 Z-15.200 I-2.558 J3.075 F360.000
G1 X6.200 Y-26.325 Z-15.200 F360.000
G2 X4.095 Y-25.726 Z-15.200 I-0.000 J4.000 F360.000
G2 X3.642 Y0.000 Z-15.200 I9.465 J13.034 F360.000
G2 X6.200 Y0.925 Z-15.200 I2.558 J-3.075 F360.000
G1 X19.200 Y0.925 Z-15.200 F360.000
G2 X21.305 Y0.326 Z-15.200 I0.000 J-4.000 F360.000
G2 X24.135 Y-2.301 Z-15.200 I-9.465 J-13.034 F360.000
G1 X24.135 Y-2.301 Z-15.600 F24.000
G2 X21.758 Y-25.400 Z-15.600 I-12.296 J-10.406 F360.000
G2 X19.200 Y-26.325 Z-15.600 I-2.558 J3.075 F360.000
G1 X6.200 Y-26.325 Z-15.600 F360.000
G2 X4.095 Y-25.726 Z-15.600 I-0.000 J4.000 F360.000
G2 X3.642 Y0.000 Z-15.600 I9.465 J13.034 F360.000
G2 X6.200 Y0.925 Z-15.600 I2.558 J-3.075 F360.000
G1 X19.200 Y0.925 Z-15.600 F360.000
G2 X21.305 Y0.326 Z-15.600 I0.000 J-4.000 F360.000
G2 X24.135 Y-2.301 Z-15.600 I-9.465 J-13.034 F360.000
G1 X24.135 Y-2.301 Z-16.000 F24.000
G2 X21.758 Y-25.400 Z-16.000 I-12.296 J-10.406 F360.000
G2 X19.200 Y-26.325 Z-16.000 I-2.558 J3.075 F360.000
G1 X6.200 Y-26.325 Z-16.000 F360.000
G2 X4.095 Y-25.726 Z-16.000 I-0.000 J4.000 F360.000
G2 X3.642 Y0.000 Z-16.000 I9.465 J13.034 F360.000
G2 X6.200 Y0.925 Z-16.000 I2.558 J-3.075 F360.000
G1 X19.200 Y0.925 Z-16.000 F360.000
G2 X21.305 Y0.326 Z-16.000 I0.000 J-4.000 F360.000
G2 X24.135 Y-2.301 Z-16.000 I-9.465 J-13.034 F360.000
G1 X24.135 Y-2.301 Z-16.400 F24.000
G2 X21.758 Y-25.400 Z-16.400 I-12.296 J-10.406 F360.000
G2 X19.200 Y-26.325 Z-16.400 I-2.558 J3.075 F360.000
G1 X6.200 Y-26.325 Z-16.400 F360.000
G2 X4.095 Y-25.726 Z-16.400 I-0.000 J4.000 F360.000
G2 X3.642 Y0.000 Z-16.400 I9.465 J13.034 F360.000
G2 X6.200 Y0.925 Z-16.400 I2.558 J-3.075 F360.000
G1 X19.200 Y0.925 Z-16.400 F360.000
G2 X21.305 Y0.326 Z-16.400 I0.000 J-4.000 F360.000
G2 X24.135 Y-2.301 Z-16.400 I-9.465 J-13.034 F360.000
G1 X24.135 Y-2.301 Z-16.800 F24.000
G2 X21.758 Y-25.400 Z-16.800 I-12.296 J-10.406 F360.000
G2 X19.200 Y-26.325 Z-16.800 I-2.558 J3.075 F360.000
G1 X6.200 Y-26.325 Z-16.800 F360.000
G2 X4.095 Y-25.726 Z-16.800 I-0.000 J4.000 F360.000
G2 X3.642 Y0.000 Z-16.800 I9.465 J13.034 F360.000
G2 X6.200 Y0.925 Z-16.800 I2.558 J-3.075 F360.000
G1 X19.200 Y0.925 Z-16.800 F360.000
G2 X21.305 Y0.326 Z-16.800 I0.000 J-4.000 F360.000
G2 X24.135 Y-2.301 Z-16.800 I-9.465 J-13.034 F360.000
G1 X24.135 Y-2.301 Z-17.200 F24.000
G2 X21.758 Y-25.400 Z-17.200 I-12.296 J-10.406 F360.000
G2 X19.200 Y-26.325 Z-17.200 I-2.558 J3.075 F360.000
G1 X6.200 Y-26.325 Z-17.200 F360.000
G2 X4.095 Y-25.726 Z-17.200 I-0.000 J4.000 F360.000
G2 X3.642 Y0.000 Z-17.200 I9.465 J13.034 F360.000
G2 X6.200 Y0.925 Z-17.200 I2.558 J-3.075 F360.000
G1 X19.200 Y0.925 Z-17.200 F360.000
G2 X21.305 Y0.326 Z-17.200 I0.000 J-4.000 F360.000
G2 X24.135 Y-2.301 Z-17.200 I-9.465 J-13.034 F360.000
G1 X24.135 Y-2.301 Z-17.600 F24.000
G2 X21.758 Y-25.400 Z-17.600 I-12.296 J-10.406 F360.000
G2 X19.200 Y-26.325 Z-17.600 I-2.558 J3.075 F360.000
G1 X6.200 Y-26.325 Z-17.600 F360.000
G2 X4.095 Y-25.726 Z-17.600 I-0.000 J4.000 F360.000
G2 X3.642 Y0.000 Z-17.600 I9.465 J13.034 F360.000
G2 X6.200 Y0.925 Z-17.600 I2.558 J-3.075 F360.000
G1 X19.200 Y0.925 Z-17.600 F360.000
G2 X21.305 Y0.326 Z-17.600 I0.000 J-4.000 F360.000
G2 X24.135 Y-2.301 Z-17.600 I-9.465 J-13.034 F360.000
G1 X24.135 Y-2.301 Z-18.000 F24.000
G2 X21.758 Y-25.400 Z-18.000 I-12.296 J-10.406 F360.000
G2 X19.200 Y-26.325 Z-18.000 I-2.558 J3.075 F360.000
G1 X6.200 Y-26.325 Z-18.000 F360.000
G2 X4.095 Y-25.726 Z-18.000 I-0.000 J4.000 F360.000
G2 X3.642 Y0.000 Z-18.000 I9.465 J13.034 F360.000
G2 X6.200 Y0.925 Z-18.000 I2.558 J-3.075 F360.000
G1 X19.200 Y0.925 Z-18.000 F360.000
G2 X21.305 Y0.326 Z-18.000 I0.000 J-4.000 F360.000
G2 X24.135 Y-2.301 Z-18.000 I-9.465 J-13.034 F360.000
G1 X24.135 Y-2.301 Z-18.400 F24.000
G2 X21.758 Y-25.400 Z-18.400 I-12.296 J-10.406 F360.000
G2 X19.200 Y-26.325 Z-18.400 I-2.558 J3.075 F360.000
G1 X6.200 Y-26.325 Z-18.400 F360.000
G2 X4.095 Y-25.726 Z-18.400 I-0.000 J4.000 F360.000
G2 X3.642 Y0.000 Z-18.400 I9.465 J13.034 F360.000
G2 X6.200 Y0.925 Z-18.400 I2.558 J-3.075 F360.000
G1 X19.200 Y0.925 Z-18.400 F360.000
G2 X21.305 Y0.326 Z-18.400 I0.000 J-4.000 F360.000
G2 X24.135 Y-2.301 Z-18.400 I-9.465 J-13.034 F360.000
G1 X24.135 Y-2.301 Z-18.800 F24.000
G2 X21.758 Y-25.400 Z-18.800 I-12.296 J-10.406 F360.000
G2 X19.200 Y-26.325 Z-18.800 I-2.558 J3.075 F360.000
G1 X6.200 Y-26.325 Z-18.800 F360.000
G2 X4.095 Y-25.726 Z-18.800 I-0.000 J4.000 F360.000
G2 X3.642 Y0.000 Z-18.800 I9.465 J13.034 F360.000
G2 X6.200 Y0.925 Z-18.800 I2.558 J-3.075 F360.000
G1 X19.200 Y0.925 Z-18.800 F360.000
G2 X21.305 Y0.326 Z-18.800 I0.000 J-4.000 F360.000
G2 X24.135 Y-2.301 Z-18.800 I-9.465 J-13.034 F360.000
G1 X24.135 Y-2.301 Z-19.200 F24.000
G2 X21.758 Y-25.400 Z-19.200 I-12.296 J-10.406 F360.000
G2 X19.200 Y-26.325 Z-19.200 I-2.558 J3.075 F360.000
G1 X6.200 Y-26.325 Z-19.200 F360.000
G2 X4.095 Y-25.726 Z-19.200 I-0.000 J4.000 F360.000
G2 X3.642 Y0.000 Z-19.200 I9.465 J13.034 F360.000
G2 X6.200 Y0.925 Z-19.200 I2.558 J-3.075 F360.000
G1 X19.200 Y0.925 Z-19.200 F360.000
G2 X21.305 Y0.326 Z-19.200 I0.000 J-4.000 F360.000
G2 X24.135 Y-2.301 Z-19.200 I-9.465 J-13.034 F360.000
G1 X24.135 Y-2.301 Z-19.600 F24.000
G2 X21.758 Y-25.400 Z-19.600 I-12.296 J-10.406 F360.000
G2 X19.200 Y-26.325 Z-19.600 I-2.558 J3.075 F360.000
G1 X6.200 Y-26.325 Z-19.600 F360.000
G2 X4.095 Y-25.726 Z-19.600 I-0.000 J4.000 F360.000
G2 X3.642 Y0.000 Z-19.600 I9.465 J13.034 F360.000
G2 X6.200 Y0.925 Z-19.600 I2.558 J-3.075 F360.000
G1 X19.200 Y0.925 Z-19.600 F360.000
G2 X21.305 Y0.326 Z-19.600 I0.000 J-4.000 F360.000
G2 X24.135 Y-2.301 Z-19.600 I-9.465 J-13.034 F360.000
G1 X24.135 Y-2.301 Z-20.000 F24.000
G2 X21.758 Y-25.400 Z-20.000 I-12.296 J-10.406 F360.000
G2 X19.200 Y-26.325 Z-20.000 I-2.558 J3.075 F360.000
G1 X6.200 Y-26.325 Z-20.000 F360.000
G2 X4.095 Y-25.726 Z-20.000 I-0.000 J4.000 F360.000
G2 X3.642 Y0.000 Z-20.000 I9.465 J13.034 F360.000
G2 X6.200 Y0.925 Z-20.000 I2.558 J-3.075 F360.000
G1 X19.200 Y0.925 Z-20.000 F360.000
G2 X21.305 Y0.326 Z-20.000 I0.000 J-4.000 F360.000
G2 X24.135 Y-2.301 Z-20.000 I-9.465 J-13.034 F360.000
G1 X24.135 Y-2.301 Z-20.400 F24.000
G2 X21.758 Y-25.400 Z-20.400 I-12.296 J-10.406 F360.000
G2 X19.200 Y-26.325 Z-20.400 I-2.558 J3.075 F360.000
G1 X6.200 Y-26.325 Z-20.400 F360.000
G2 X4.095 Y-25.726 Z-20.400 I-0.000 J4.000 F360.000
G2 X3.642 Y0.000 Z-20.400 I9.465 J13.034 F360.000
G2 X6.200 Y0.925 Z-20.400 I2.558 J-3.075 F360.000
G1 X19.200 Y0.925 Z-20.400 F360.000
G2 X21.305 Y0.326 Z-20.400 I0.000 J-4.000 F360.000
G2 X24.135 Y-2.301 Z-20.400 I-9.465 J-13.034 F360.000
G1 X24.135 Y-2.301 Z-20.800 F24.000
G2 X21.758 Y-25.400 Z-20.800 I-12.296 J-10.406 F360.000
G2 X19.200 Y-26.325 Z-20.800 I-2.558 J3.075 F360.000
G1 X6.200 Y-26.325 Z-20.800 F360.000
G2 X4.095 Y-25.726 Z-20.800 I-0.000 J4.000 F360.000
G2 X3.642 Y0.000 Z-20.800 I9.465 J13.034 F360.000
G2 X6.200 Y0.925 Z-20.800 I2.558 J-3.075 F360.000
G1 X19.200 Y0.925 Z-20.800 F360.000
G2 X21.305 Y0.326 Z-20.800 I0.000 J-4.000 F360.000
G2 X24.135 Y-2.301 Z-20.800 I-9.465 J-13.034 F360.000
G1 X24.135 Y-2.301 Z-21.200 F24.000
G2 X21.758 Y-25.400 Z-21.200 I-12.296 J-10.406 F360.000
G2 X19.200 Y-26.325 Z-21.200 I-2.558 J3.075 F360.000
G1 X6.200 Y-26.325 Z-21.200 F360.000
G2 X4.095 Y-25.726 Z-21.200 I-0.000 J4.000 F360.000
G2 X3.642 Y0.000 Z-21.200 I9.465 J13.034 F360.000
G2 X6.200 Y0.925 Z-21.200 I2.558 J-3.075 F360.000
G1 X19.200 Y0.925 Z-21.200 F360.000
G2 X21.305 Y0.326 Z-21.200 I0.000 J-4.000 F360.000
G2 X24.135 Y-2.301 Z-21.200 I-9.465 J-13.034 F360.000
G1 X24.135 Y-2.301 Z-21.600 F24.000
G2 X21.758 Y-25.400 Z-21.600 I-12.296 J-10.406 F360.000
G2 X19.200 Y-26.325 Z-21.600 I-2.558 J3.075 F360.000
G1 X6.200 Y-26.325 Z-21.600 F360.000
G2 X4.095 Y-25.726 Z-21.600 I-0.000 J4.000 F360.000
G2 X3.642 Y0.000 Z-21.600 I9.465 J13.034 F360.000
G2 X6.200 Y0.925 Z-21.600 I2.558 J-3.075 F360.000
G1 X19.200 Y0.925 Z-21.600 F360.000
G2 X21.305 Y0.326 Z-21.600 I0.000 J-4.000 F360.000
G2 X24.135 Y-2.301 Z-21.600 I-9.465 J-13.034 F360.000
G1 X24.135 Y-2.301 Z-22.000 F24.000
G2 X21.758 Y-25.400 Z-22.000 I-12.296 J-10.406 F360.000
G2 X19.200 Y-26.325 Z-22.000 I-2.558 J3.075 F360.000
G1 X6.200 Y-26.325 Z-22.000 F360.000
G2 X4.095 Y-25.726 Z-22.000 I-0.000 J4.000 F360.000
G2 X3.642 Y0.000 Z-22.000 I9.465 J13.034 F360.000
G2 X6.200 Y0.925 Z-22.000 I2.558 J-3.075 F360.000
G1 X19.200 Y0.925 Z-22.000 F360.000
G2 X21.305 Y0.326 Z-22.000 I0.000 J-4.000 F360.000
G2 X24.135 Y-2.301 Z-22.000 I-9.465 J-13.034 F360.000
G1 X24.135 Y-2.301 Z-22.400 F24.000
G2 X21.758 Y-25.400 Z-22.400 I-12.296 J-10.406 F360.000
G2 X19.200 Y-26.325 Z-22.400 I-2.558 J3.075 F360.000
G1 X6.200 Y-26.325 Z-22.400 F360.000
G2 X4.095 Y-25.726 Z-22.400 I-0.000 J4.000 F360.000
G2 X3.642 Y0.000 Z-22.400 I9.465 J13.034 F360.000
G2 X6.200 Y0.925 Z-22.400 I2.558 J-3.075 F360.000
G1 X19.200 Y0.925 Z-22.400 F360.000
G2 X21.305 Y0.326 Z-22.400 I0.000 J-4.000 F360.000
G2 X24.135 Y-2.301 Z-22.400 I-9.465 J-13.034 F360.000
G1 X24.135 Y-2.301 Z-22.800 F24.000
G2 X21.758 Y-25.400 Z-22.800 I-12.296 J-10.406 F360.000
G2 X19.200 Y-26.325 Z-22.800 I-2.558 J3.075 F360.000
G1 X6.200 Y-26.325 Z-22.800 F360.000
G2 X4.095 Y-25.726 Z-22.800 I-0.000 J4.000 F360.000
G2 X3.642 Y0.000 Z-22.800 I9.465 J13.034 F360.000
G2 X6.200 Y0.925 Z-22.800 I2.558 J-3.075 F360.000
G1 X19.200 Y0.925 Z-22.800 F360.000
G2 X21.305 Y0.326 Z-22.800 I0.000 J-4.000 F360.000
G2 X24.135 Y-2.301 Z-22.800 I-9.465 J-13.034 F360.000
G1 X24.135 Y-2.301 Z-23.200 F24.000
G2 X21.758 Y-25.400 Z-23.200 I-12.296 J-10.406 F360.000
G2 X19.200 Y-26.325 Z-23.200 I-2.558 J3.075 F360.000
G1 X6.200 Y-26.325 Z-23.200 F360.000
G2 X4.095 Y-25.726 Z-23.200 I-0.000 J4.000 F360.000
G2 X3.642 Y0.000 Z-23.200 I9.465 J13.034 F360.000
G2 X6.200 Y0.925 Z-23.200 I2.558 J-3.075 F360.000
G1 X19.200 Y0.925 Z-23.200 F360.000
G2 X21.305 Y0.326 Z-23.200 I0.000 J-4.000 F360.000
G2 X24.135 Y-2.301 Z-23.200 I-9.465 J-13.034 F360.000
G1 X24.135 Y-2.301 Z-23.600 F24.000
G2 X21.758 Y-25.400 Z-23.600 I-12.296 J-10.406 F360.000
G2 X19.200 Y-26.325 Z-23.600 I-2.558 J3.075 F360.000
G1 X6.200 Y-26.325 Z-23.600 F360.000
G2 X4.095 Y-25.726 Z-23.600 I-0.000 J4.000 F360.000
G2 X3.642 Y0.000 Z-23.600 I9.465 J13.034 F360.000
G2 X6.200 Y0.925 Z-23.600 I2.558 J-3.075 F360.000
G1 X19.200 Y0.925 Z-23.600 F360.000
G2 X21.305 Y0.326 Z-23.600 I0.000 J-4.000 F360.000
G2 X24.135 Y-2.301 Z-23.600 I-9.465 J-13.034 F360.000
G1 X24.135 Y-2.301 Z-24.000 F24.000
G2 X21.758 Y-25.400 Z-24.000 I-12.296 J-10.406 F360.000
G2 X19.200 Y-26.325 Z-24.000 I-2.558 J3.075 F360.000
G1 X6.200 Y-26.325 Z-24.000 F360.000
G2 X4.095 Y-25.726 Z-24.000 I-0.000 J4.000 F360.000
G2 X3.642 Y0.000 Z-24.000 I9.465 J13.034 F360.000
G2 X6.200 Y0.925 Z-24.000 I2.558 J-3.075 F360.000
G1 X19.200 Y0.925 Z-24.000 F360.000
G2 X21.305 Y0.326 Z-24.000 I0.000 J-4.000 F360.000
G2 X24.135 Y-2.301 Z-24.000 I-9.465 J-13.034 F360.000
G1 X24.135 Y-2.301 Z-24.400 F24.000
G2 X21.758 Y-25.400 Z-24.400 I-12.296 J-10.406 F360.000
G2 X19.200 Y-26.325 Z-24.400 I-2.558 J3.075 F360.000
G1 X6.200 Y-26.325 Z-24.400 F360.000
G2 X4.095 Y-25.726 Z-24.400 I-0.000 J4.000 F360.000
G2 X3.642 Y0.000 Z-24.400 I9.465 J13.034 F360.000
G2 X6.200 Y0.925 Z-24.400 I2.558 J-3.075 F360.000
G1 X19.200 Y0.925 Z-24.400 F360.000
G2 X21.305 Y0.326 Z-24.400 I0.000 J-4.000 F360.000
G2 X24.135 Y-2.301 Z-24.400 I-9.465 J-13.034 F360.000
G1 X24.135 Y-2.301 Z-24.800 F24.000
G2 X21.758 Y-25.400 Z-24.800 I-12.296 J-10.406 F360.000
G2 X19.200 Y-26.325 Z-24.800 I-2.558 J3.075 F360.000
G1 X6.200 Y-26.325 Z-24.800 F360.000
G2 X4.095 Y-25.726 Z-24.800 I-0.000 J4.000 F360.000
G2 X3.642 Y0.000 Z-24.800 I9.465 J13.034 F360.000
G2 X6.200 Y0.925 Z-24.800 I2.558 J-3.075 F360.000
G1 X19.200 Y0.925 Z-24.800 F360.000
G2 X21.305 Y0.326 Z-24.800 I0.000 J-4.000 F360.000
G2 X24.135 Y-2.301 Z-24.800 I-9.465 J-13.034 F360.000
G1 X24.135 Y-2.301 Z-25.200 F24.000
G2 X21.758 Y-25.400 Z-25.200 I-12.296 J-10.406 F360.000
G2 X19.200 Y-26.325 Z-25.200 I-2.558 J3.075 F360.000
G1 X6.200 Y-26.325 Z-25.200 F360.000
G2 X4.095 Y-25.726 Z-25.200 I-0.000 J4.000 F360.000
G2 X3.642 Y0.000 Z-25.200 I9.465 J13.034 F360.000
G2 X6.200 Y0.925 Z-25.200 I2.558 J-3.075 F360.000
G1 X19.200 Y0.925 Z-25.200 F360.000
G2 X21.305 Y0.326 Z-25.200 I0.000 J-4.000 F360.000
G2 X24.135 Y-2.301 Z-25.200 I-9.465 J-13.034 F360.000
G1 X24.135 Y-2.301 Z-25.600 F24.000
G2 X21.758 Y-25.400 Z-25.600 I-12.296 J-10.406 F360.000
G2 X19.200 Y-26.325 Z-25.600 I-2.558 J3.075 F360.000
G1 X6.200 Y-26.325 Z-25.600 F360.000
G2 X4.095 Y-25.726 Z-25.600 I-0.000 J4.000 F360.000
G2 X3.642 Y0.000 Z-25.600 I9.465 J13.034 F360.000
G2 X6.200 Y0.925 Z-25.600 I2.558 J-3.075 F360.000
G1 X19.200 Y0.925 Z-25.600 F360.000
G2 X21.305 Y0.326 Z-25.600 I0.000 J-4.000 F360.000
G2 X24.135 Y-2.301 Z-25.600 I-9.465 J-13.034 F360.000
G1 X24.135 Y-2.301 Z-26.000 F24.000
G2 X21.758 Y-25.400 Z-26.000 I-12.296 J-10.406 F360.000
G2 X19.200 Y-26.325 Z-26.000 I-2.558 J3.075 F360.000
G1 X6.200 Y-26.325 Z-26.000 F360.000
G2 X4.095 Y-25.726 Z-26.000 I-0.000 J4.000 F360.000
G2 X3.642 Y0.000 Z-26.000 I9.465 J13.034 F360.000
G2 X6.200 Y0.925 Z-26.000 I2.558 J-3.075 F360.000
G1 X19.200 Y0.925 Z-26.000 F360.000
G2 X21.305 Y0.326 Z-26.000 I0.000 J-4.000 F360.000
G2 X24.135 Y-2.301 Z-26.000 I-9.465 J-13.034 F360.000
G1 X24.135 Y-2.301 Z-26.400 F24.000
G2 X21.758 Y-25.400 Z-26.400 I-12.296 J-10.406 F360.000
G2 X19.200 Y-26.325 Z-26.400 I-2.558 J3.075 F360.000
G1 X6.200 Y-26.325 Z-26.400 F360.000
G2 X4.095 Y-25.726 Z-26.400 I-0.000 J4.000 F360.000
G2 X3.642 Y0.000 Z-26.400 I9.465 J13.034 F360.000
G2 X6.200 Y0.925 Z-26.400 I2.558 J-3.075 F360.000
G1 X19.200 Y0.925 Z-26.400 F360.000
G2 X21.305 Y0.326 Z-26.400 I0.000 J-4.000 F360.000
G2 X24.135 Y-2.301 Z-26.400 I-9.465 J-13.034 F360.000
G1 X24.135 Y-2.301 Z-26.800 F24.000
G2 X21.758 Y-25.400 Z-26.800 I-12.296 J-10.406 F360.000
G2 X19.200 Y-26.325 Z-26.800 I-2.558 J3.075 F360.000
G1 X6.200 Y-26.325 Z-26.800 F360.000
G2 X4.095 Y-25.726 Z-26.800 I-0.000 J4.000 F360.000
G2 X3.642 Y0.000 Z-26.800 I9.465 J13.034 F360.000
G2 X6.200 Y0.925 Z-26.800 I2.558 J-3.075 F360.000
G1 X19.200 Y0.925 Z-26.800 F360.000
G2 X21.305 Y0.326 Z-26.800 I0.000 J-4.000 F360.000
G2 X24.135 Y-2.301 Z-26.800 I-9.465 J-13.034 F360.000
G1 X24.135 Y-2.301 Z-27.200 F24.000
G2 X21.758 Y-25.400 Z-27.200 I-12.296 J-10.406 F360.000
G2 X19.200 Y-26.325 Z-27.200 I-2.558 J3.075 F360.000
G1 X6.200 Y-26.325 Z-27.200 F360.000
G2 X4.095 Y-25.726 Z-27.200 I-0.000 J4.000 F360.000
G2 X3.642 Y0.000 Z-27.200 I9.465 J13.034 F360.000
G2 X6.200 Y0.925 Z-27.200 I2.558 J-3.075 F360.000
G1 X19.200 Y0.925 Z-27.200 F360.000
G2 X21.305 Y0.326 Z-27.200 I0.000 J-4.000 F360.000
G2 X24.135 Y-2.301 Z-27.200 I-9.465 J-13.034 F360.000
G1 X24.135 Y-2.301 Z-27.600 F24.000
G2 X21.758 Y-25.400 Z-27.600 I-12.296 J-10.406 F360.000
G2 X19.200 Y-26.325 Z-27.600 I-2.558 J3.075 F360.000
G1 X6.200 Y-26.325 Z-27.600 F360.000
G2 X4.095 Y-25.726 Z-27.600 I-0.000 J4.000 F360.000
G2 X3.642 Y0.000 Z-27.600 I9.465 J13.034 F360.000
G2 X6.200 Y0.925 Z-27.600 I2.558 J-3.075 F360.000
G1 X19.200 Y0.925 Z-27.600 F360.000
G2 X21.305 Y0.326 Z-27.600 I0.000 J-4.000 F360.000
G2 X24.135 Y-2.301 Z-27.600 I-9.465 J-13.034 F360.000
G1 X24.135 Y-2.301 Z-28.000 F24.000
G2 X21.758 Y-25.400 Z-28.000 I-12.296 J-10.406 F360.000
G2 X19.200 Y-26.325 Z-28.000 I-2.558 J3.075 F360.000
G1 X6.200 Y-26.325 Z-28.000 F360.000
G2 X4.095 Y-25.726 Z-28.000 I-0.000 J4.000 F360.000
G2 X3.642 Y0.000 Z-28.000 I9.465 J13.034 F360.000
G2 X6.200 Y0.925 Z-28.000 I2.558 J-3.075 F360.000
G1 X19.200 Y0.925 Z-28.000 F360.000
G2 X21.305 Y0.326 Z-28.000 I0.000 J-4.000 F360.000
G2 X24.135 Y-2.301 Z-28.000 I-9.465 J-13.034 F360.000
G1 X24.135 Y-2.301 Z-28.400 F24.000
G2 X21.758 Y-25.400 Z-28.400 I-12.296 J-10.406 F360.000
G2 X19.200 Y-26.325 Z-28.400 I-2.558 J3.075 F360.000
G1 X6.200 Y-26.325 Z-28.400 F360.000
G2 X4.095 Y-25.726 Z-28.400 I-0.000 J4.000 F360.000
G2 X3.642 Y0.000 Z-28.400 I9.465 J13.034 F360.000
G2 X6.200 Y0.925 Z-28.400 I2.558 J-3.075 F360.000
G1 X19.200 Y0.925 Z-28.400 F360.000
G2 X21.305 Y0.326 Z-28.400 I0.000 J-4.000 F360.000
G2 X24.135 Y-2.301 Z-28.400 I-9.465 J-13.034 F360.000
G1 X24.135 Y-2.301 Z-28.800 F24.000
G2 X21.758 Y-25.400 Z-28.800 I-12.296 J-10.406 F360.000
G2 X19.200 Y-26.325 Z-28.800 I-2.558 J3.075 F360.000
G1 X6.200 Y-26.325 Z-28.800 F360.000
G2 X4.095 Y-25.726 Z-28.800 I-0.000 J4.000 F360.000
G2 X3.642 Y0.000 Z-28.800 I9.465 J13.034 F360.000
G2 X6.200 Y0.925 Z-28.800 I2.558 J-3.075 F360.000
G1 X19.200 Y0.925 Z-28.800 F360.000
G2 X21.305 Y0.326 Z-28.800 I0.000 J-4.000 F360.000
G2 X24.135 Y-2.301 Z-28.800 I-9.465 J-13.034 F360.000
G1 X24.135 Y-2.301 Z-29.200 F24.000
G2 X21.758 Y-25.400 Z-29.200 I-12.296 J-10.406 F360.000
G2 X19.200 Y-26.325 Z-29.200 I-2.558 J3.075 F360.000
G1 X6.200 Y-26.325 Z-29.200 F360.000
G2 X4.095 Y-25.726 Z-29.200 I-0.000 J4.000 F360.000
G2 X3.642 Y0.000 Z-29.200 I9.465 J13.034 F360.000
G2 X6.200 Y0.925 Z-29.200 I2.558 J-3.075 F360.000
G1 X19.200 Y0.925 Z-29.200 F360.000
G2 X21.305 Y0.326 Z-29.200 I0.000 J-4.000 F360.000
G2 X24.135 Y-2.301 Z-29.200 I-9.465 J-13.034 F360.000
G1 X24.135 Y-2.301 Z-29.600 F24.000
G2 X21.758 Y-25.400 Z-29.600 I-12.296 J-10.406 F360.000
G2 X19.200 Y-26.325 Z-29.600 I-2.558 J3.075 F360.000
G1 X6.200 Y-26.325 Z-29.600 F360.000
G2 X4.095 Y-25.726 Z-29.600 I-0.000 J4.000 F360.000
G2 X3.642 Y0.000 Z-29.600 I9.465 J13.034 F360.000
G2 X6.200 Y0.925 Z-29.600 I2.558 J-3.075 F360.000
G1 X19.200 Y0.925 Z-29.600 F360.000
G2 X21.305 Y0.326 Z-29.600 I0.000 J-4.000 F360.000
G2 X24.135 Y-2.301 Z-29.600 I-9.465 J-13.034 F360.000
G1 X24.135 Y-2.301 Z-30.000 F24.000
G2 X21.758 Y-25.400 Z-30.000 I-12.296 J-10.406 F360.000
G2 X19.200 Y-26.325 Z-30.000 I-2.558 J3.075 F360.000
G1 X6.200 Y-26.325 Z-30.000 F360.000
G2 X4.095 Y-25.726 Z-30.000 I-0.000 J4.000 F360.000
G2 X3.642 Y0.000 Z-30.000 I9.465 J13.034 F360.000
G2 X6.200 Y0.925 Z-30.000 I2.558 J-3.075 F360.000
G1 X19.200 Y0.925 Z-30.000 F360.000
G2 X21.305 Y0.326 Z-30.000 I0.000 J-4.000 F360.000
G2 X24.135 Y-2.301 Z-30.000 I-9.465 J-13.034 F360.000
G1 X24.135 Y-2.301 Z-30.400 F24.000
G2 X21.758 Y-25.400 Z-30.400 I-12.296 J-10.406 F360.000
G2 X19.200 Y-26.325 Z-30.400 I-2.558 J3.075 F360.000
G1 X6.200 Y-26.325 Z-30.400 F360.000
G2 X4.095 Y-25.726 Z-30.400 I-0.000 J4.000 F360.000
G2 X3.642 Y0.000 Z-30.400 I9.465 J13.034 F360.000
G2 X6.200 Y0.925 Z-30.400 I2.558 J-3.075 F360.000
G1 X19.200 Y0.925 Z-30.400 F360.000
G2 X21.305 Y0.326 Z-30.400 I0.000 J-4.000 F360.000
G2 X24.135 Y-2.301 Z-30.400 I-9.465 J-13.034 F360.000
G1 X24.135 Y-2.301 Z-30.800 F24.000
G2 X21.758 Y-25.400 Z-30.800 I-12.296 J-10.406 F360.000
G2 X19.200 Y-26.325 Z-30.800 I-2.558 J3.075 F360.000
G1 X6.200 Y-26.325 Z-30.800 F360.000
G2 X4.095 Y-25.726 Z-30.800 I-0.000 J4.000 F360.000
G2 X3.642 Y0.000 Z-30.800 I9.465 J13.034 F360.000
G2 X6.200 Y0.925 Z-30.800 I2.558 J-3.075 F360.000
G1 X19.200 Y0.925 Z-30.800 F360.000
G2 X21.305 Y0.326 Z-30.800 I0.000 J-4.000 F360.000
G2 X24.135 Y-2.301 Z-30.800 I-9.465 J-13.034 F360.000
G1 X24.135 Y-2.301 Z-31.200 F24.000
G2 X21.758 Y-25.400 Z-31.200 I-12.296 J-10.406 F360.000
G2 X19.200 Y-26.325 Z-31.200 I-2.558 J3.075 F360.000
G1 X6.200 Y-26.325 Z-31.200 F360.000
G2 X4.095 Y-25.726 Z-31.200 I-0.000 J4.000 F360.000
G2 X3.642 Y0.000 Z-31.200 I9.465 J13.034 F360.000
G2 X6.200 Y0.925 Z-31.200 I2.558 J-3.075 F360.000
G1 X19.200 Y0.925 Z-31.200 F360.000
G2 X21.305 Y0.326 Z-31.200 I0.000 J-4.000 F360.000
G2 X24.135 Y-2.301 Z-31.200 I-9.465 J-13.034 F360.000
G1 X24.135 Y-2.301 Z-31.600 F24.000
G2 X21.758 Y-25.400 Z-31.600 I-12.296 J-10.406 F360.000
G2 X19.200 Y-26.325 Z-31.600 I-2.558 J3.075 F360.000
G1 X6.200 Y-26.325 Z-31.600 F360.000
G2 X4.095 Y-25.726 Z-31.600 I-0.000 J4.000 F360.000
G2 X3.642 Y0.000 Z-31.600 I9.465 J13.034 F360.000
G2 X6.200 Y0.925 Z-31.600 I2.558 J-3.075 F360.000
G1 X19.200 Y0.925 Z-31.600 F360.000
G2 X21.305 Y0.326 Z-31.600 I0.000 J-4.000 F360.000
G2 X24.135 Y-2.301 Z-31.600 I-9.465 J-13.034 F360.000
G1 X24.135 Y-2.301 Z-32.000 F24.000
G2 X21.758 Y-25.400 Z-32.000 I-12.296 J-10.406 F360.000
G2 X19.200 Y-26.325 Z-32.000 I-2.558 J3.075 F360.000
G1 X6.200 Y-26.325 Z-32.000 F360.000
G2 X4.095 Y-25.726 Z-32.000 I-0.000 J4.000 F360.000
G2 X3.642 Y0.000 Z-32.000 I9.465 J13.034 F360.000
G2 X6.200 Y0.925 Z-32.000 I2.558 J-3.075 F360.000
G1 X19.200 Y0.925 Z-32.000 F360.000
G2 X21.305 Y0.326 Z-32.000 I0.000 J-4.000 F360.000
G2 X24.135 Y-2.301 Z-32.000 I-9.465 J-13.034 F360.000
G1 X24.135 Y-2.301 Z-32.400 F24.000
G2 X21.758 Y-25.400 Z-32.400 I-12.296 J-10.406 F360.000
G2 X19.200 Y-26.325 Z-32.400 I-2.558 J3.075 F360.000
G1 X6.200 Y-26.325 Z-32.400 F360.000
G2 X4.095 Y-25.726 Z-32.400 I-0.000 J4.000 F360.000
G2 X3.642 Y0.000 Z-32.400 I9.465 J13.034 F360.000
G2 X6.200 Y0.925 Z-32.400 I2.558 J-3.075 F360.000
G1 X19.200 Y0.925 Z-32.400 F360.000
G2 X21.305 Y0.326 Z-32.400 I0.000 J-4.000 F360.000
G2 X24.135 Y-2.301 Z-32.400 I-9.465 J-13.034 F360.000
G1 X24.135 Y-2.301 Z-32.800 F24.000
G2 X21.758 Y-25.400 Z-32.800 I-12.296 J-10.406 F360.000
G2 X19.200 Y-26.325 Z-32.800 I-2.558 J3.075 F360.000
G1 X6.200 Y-26.325 Z-32.800 F360.000
G2 X4.095 Y-25.726 Z-32.800 I-0.000 J4.000 F360.000
G2 X3.642 Y0.000 Z-32.800 I9.465 J13.034 F360.000
G2 X6.200 Y0.925 Z-32.800 I2.558 J-3.075 F360.000
G1 X19.200 Y0.925 Z-32.800 F360.000
G2 X21.305 Y0.326 Z-32.800 I0.000 J-4.000 F360.000
G2 X24.135 Y-2.301 Z-32.800 I-9.465 J-13.034 F360.000
G1 X24.135 Y-2.301 Z-33.200 F24.000
G2 X21.758 Y-25.400 Z-33.200 I-12.296 J-10.406 F360.000
G2 X19.200 Y-26.325 Z-33.200 I-2.558 J3.075 F360.000
G1 X6.200 Y-26.325 Z-33.200 F360.000
G2 X4.095 Y-25.726 Z-33.200 I-0.000 J4.000 F360.000
G2 X3.642 Y0.000 Z-33.200 I9.465 J13.034 F360.000
G2 X6.200 Y0.925 Z-33.200 I2.558 J-3.075 F360.000
G1 X19.200 Y0.925 Z-33.200 F360.000
G2 X21.305 Y0.326 Z-33.200 I0.000 J-4.000 F360.000
G2 X24.135 Y-2.301 Z-33.200 I-9.465 J-13.034 F360.000
G1 X24.135 Y-2.301 Z-33.600 F24.000
G2 X21.758 Y-25.400 Z-33.600 I-12.296 J-10.406 F360.000
G2 X19.200 Y-26.325 Z-33.600 I-2.558 J3.075 F360.000
G1 X6.200 Y-26.325 Z-33.600 F360.000
G2 X4.095 Y-25.726 Z-33.600 I-0.000 J4.000 F360.000
G2 X3.642 Y0.000 Z-33.600 I9.465 J13.034 F360.000
G2 X6.200 Y0.925 Z-33.600 I2.558 J-3.075 F360.000
G1 X19.200 Y0.925 Z-33.600 F360.000
G2 X21.305 Y0.326 Z-33.600 I0.000 J-4.000 F360.000
G2 X24.135 Y-2.301 Z-33.600 I-9.465 J-13.034 F360.000
G1 X24.135 Y-2.301 Z-34.000 F24.000
G2 X21.758 Y-25.400 Z-34.000 I-12.296 J-10.406 F360.000
G2 X19.200 Y-26.325 Z-34.000 I-2.558 J3.075 F360.000
G1 X6.200 Y-26.325 Z-34.000 F360.000
G2 X4.095 Y-25.726 Z-34.000 I-0.000 J4.000 F360.000
G2 X3.642 Y0.000 Z-34.000 I9.465 J13.034 F360.000
G2 X6.200 Y0.925 Z-34.000 I2.558 J-3.075 F360.000
G1 X19.200 Y0.925 Z-34.000 F360.000
G2 X21.305 Y0.326 Z-34.000 I0.000 J-4.000 F360.000
G2 X24.135 Y-2.301 Z-34.000 I-9.465 J-13.034 F360.000
G1 X24.135 Y-2.301 Z-34.100 F24.000
G2 X21.758 Y-25.400 Z-34.100 I-12.296 J-10.406 F360.000
G2 X19.200 Y-26.325 Z-34.100 I-2.558 J3.075 F360.000
G1 X6.200 Y-26.325 Z-34.100 F360.000
G2 X4.095 Y-25.726 Z-34.100 I-0.000 J4.000 F360.000
G2 X3.642 Y0.000 Z-34.100 I9.465 J13.034 F360.000
G2 X6.200 Y0.925 Z-34.100 I2.558 J-3.075 F360.000
G1 X19.200 Y0.925 Z-34.100 F360.000
G2 X21.305 Y0.326 Z-34.100 I0.000 J-4.000 F360.000
G2 X24.135 Y-2.301 Z-34.100 I-9.465 J-13.034 F360.000
G0 Z5.000
(finish operation: Profile_Edges001)
(begin postamble)
M05
G17 G54 G90 G80 G40
M2
