(Exported by FreeCAD)
(Post Processor: linuxcnc_post)
(Output Time:2019-09-24 10:14:17.266705)
(begin preamble)
G17 G54 G40 G49 G80 G90
G21
M8
(begin operation: T4: 12mm Endmill)
(machine: not set, mm/min)
(T4: 12mm Endmill)
M6 T4 G43 H4
M3 S3000
(finish operation: T4: 12mm Endmill)
(begin operation: Profile_Edges)
(machine: not set, mm/min)
(Profile_Edges)
(Compensated Tool Path. Diameter: 12.0)
G0 Z5.000
G0 X19.024 Y-1.826
G0 Z3.000
G1 X19.024 Y-1.826 Z-0.400 F30.000
G2 X13.001 Y-20.454 Z-0.400 I-7.774 J-7.774 F720.000
G2 X9.499 Y1.254 Z-0.400 I-1.751 J10.854 F720.000
G2 X19.024 Y-1.826 Z-0.400 I1.751 J-10.854 F720.000
G1 X19.024 Y-1.826 Z-0.800 F30.000
G2 X13.001 Y-20.454 Z-0.800 I-7.774 J-7.774 F720.000
G2 X9.499 Y1.254 Z-0.800 I-1.751 J10.854 F720.000
G2 X19.024 Y-1.826 Z-0.800 I1.751 J-10.854 F720.000
G1 X19.024 Y-1.826 Z-1.200 F30.000
G2 X13.001 Y-20.454 Z-1.200 I-7.774 J-7.774 F720.000
G2 X9.499 Y1.254 Z-1.200 I-1.751 J10.854 F720.000
G2 X19.024 Y-1.826 Z-1.200 I1.751 J-10.854 F720.000
G1 X19.024 Y-1.826 Z-1.600 F30.000
G2 X13.001 Y-20.454 Z-1.600 I-7.774 J-7.774 F720.000
G2 X9.499 Y1.254 Z-1.600 I-1.751 J10.854 F720.000
G2 X19.024 Y-1.826 Z-1.600 I1.751 J-10.854 F720.000
G1 X19.024 Y-1.826 Z-2.000 F30.000
G2 X13.001 Y-20.454 Z-2.000 I-7.774 J-7.774 F720.000
G2 X9.499 Y1.254 Z-2.000 I-1.751 J10.854 F720.000
G2 X19.024 Y-1.826 Z-2.000 I1.751 J-10.854 F720.000
G1 X19.024 Y-1.826 Z-2.400 F30.000
G2 X13.001 Y-20.454 Z-2.400 I-7.774 J-7.774 F720.000
G2 X9.499 Y1.254 Z-2.400 I-1.751 J10.854 F720.000
G2 X19.024 Y-1.826 Z-2.400 I1.751 J-10.854 F720.000
G1 X19.024 Y-1.826 Z-2.800 F30.000
G2 X13.001 Y-20.454 Z-2.800 I-7.774 J-7.774 F720.000
G2 X9.499 Y1.254 Z-2.800 I-1.751 J10.854 F720.000
G2 X19.024 Y-1.826 Z-2.800 I1.751 J-10.854 F720.000
G1 X19.024 Y-1.826 Z-3.200 F30.000
G2 X13.001 Y-20.454 Z-3.200 I-7.774 J-7.774 F720.000
G2 X9.499 Y1.254 Z-3.200 I-1.751 J10.854 F720.000
G2 X19.024 Y-1.826 Z-3.200 I1.751 J-10.854 F720.000
G1 X19.024 Y-1.826 Z-3.600 F30.000
G2 X13.001 Y-20.454 Z-3.600 I-7.774 J-7.774 F720.000
G2 X9.499 Y1.254 Z-3.600 I-1.751 J10.854 F720.000
G2 X19.024 Y-1.826 Z-3.600 I1.751 J-10.854 F720.000
G1 X19.024 Y-1.826 Z-4.000 F30.000
G2 X13.001 Y-20.454 Z-4.000 I-7.774 J-7.774 F720.000
G2 X9.499 Y1.254 Z-4.000 I-1.751 J10.854 F720.000
G2 X19.024 Y-1.826 Z-4.000 I1.751 J-10.854 F720.000
G1 X19.024 Y-1.826 Z-4.400 F30.000
G2 X13.001 Y-20.454 Z-4.400 I-7.774 J-7.774 F720.000
G2 X9.499 Y1.254 Z-4.400 I-1.751 J10.854 F720.000
G2 X19.024 Y-1.826 Z-4.400 I1.751 J-10.854 F720.000
G1 X19.024 Y-1.826 Z-4.800 F30.000
G2 X13.001 Y-20.454 Z-4.800 I-7.774 J-7.774 F720.000
G2 X9.499 Y1.254 Z-4.800 I-1.751 J10.854 F720.000
G2 X19.024 Y-1.826 Z-4.800 I1.751 J-10.854 F720.000
G1 X19.024 Y-1.826 Z-5.200 F30.000
G2 X13.001 Y-20.454 Z-5.200 I-7.774 J-7.774 F720.000
G2 X9.499 Y1.254 Z-5.200 I-1.751 J10.854 F720.000
G2 X19.024 Y-1.826 Z-5.200 I1.751 J-10.854 F720.000
G1 X19.024 Y-1.826 Z-5.600 F30.000
G2 X13.001 Y-20.454 Z-5.600 I-7.774 J-7.774 F720.000
G2 X9.499 Y1.254 Z-5.600 I-1.751 J10.854 F720.000
G2 X19.024 Y-1.826 Z-5.600 I1.751 J-10.854 F720.000
G1 X19.024 Y-1.826 Z-6.000 F30.000
G2 X13.001 Y-20.454 Z-6.000 I-7.774 J-7.774 F720.000
G2 X9.499 Y1.254 Z-6.000 I-1.751 J10.854 F720.000
G2 X19.024 Y-1.826 Z-6.000 I1.751 J-10.854 F720.000
G1 X19.024 Y-1.826 Z-6.400 F30.000
G2 X13.001 Y-20.454 Z-6.400 I-7.774 J-7.774 F720.000
G2 X9.499 Y1.254 Z-6.400 I-1.751 J10.854 F720.000
G2 X19.024 Y-1.826 Z-6.400 I1.751 J-10.854 F720.000
G1 X19.024 Y-1.826 Z-6.800 F30.000
G2 X13.001 Y-20.454 Z-6.800 I-7.774 J-7.774 F720.000
G2 X9.499 Y1.254 Z-6.800 I-1.751 J10.854 F720.000
G2 X19.024 Y-1.826 Z-6.800 I1.751 J-10.854 F720.000
G1 X19.024 Y-1.826 Z-7.200 F30.000
G2 X13.001 Y-20.454 Z-7.200 I-7.774 J-7.774 F720.000
G2 X9.499 Y1.254 Z-7.200 I-1.751 J10.854 F720.000
G2 X19.024 Y-1.826 Z-7.200 I1.751 J-10.854 F720.000
G1 X19.024 Y-1.826 Z-7.600 F30.000
G2 X13.001 Y-20.454 Z-7.600 I-7.774 J-7.774 F720.000
G2 X9.499 Y1.254 Z-7.600 I-1.751 J10.854 F720.000
G2 X19.024 Y-1.826 Z-7.600 I1.751 J-10.854 F720.000
G1 X19.024 Y-1.826 Z-8.000 F30.000
G2 X13.001 Y-20.454 Z-8.000 I-7.774 J-7.774 F720.000
G2 X9.499 Y1.254 Z-8.000 I-1.751 J10.854 F720.000
G2 X19.024 Y-1.826 Z-8.000 I1.751 J-10.854 F720.000
G1 X19.024 Y-1.826 Z-8.400 F30.000
G2 X13.001 Y-20.454 Z-8.400 I-7.774 J-7.774 F720.000
G2 X9.499 Y1.254 Z-8.400 I-1.751 J10.854 F720.000
G2 X19.024 Y-1.826 Z-8.400 I1.751 J-10.854 F720.000
G1 X19.024 Y-1.826 Z-8.800 F30.000
G2 X13.001 Y-20.454 Z-8.800 I-7.774 J-7.774 F720.000
G2 X9.499 Y1.254 Z-8.800 I-1.751 J10.854 F720.000
G2 X19.024 Y-1.826 Z-8.800 I1.751 J-10.854 F720.000
G1 X19.024 Y-1.826 Z-9.200 F30.000
G2 X13.001 Y-20.454 Z-9.200 I-7.774 J-7.774 F720.000
G2 X9.499 Y1.254 Z-9.200 I-1.751 J10.854 F720.000
G2 X19.024 Y-1.826 Z-9.200 I1.751 J-10.854 F720.000
G1 X19.024 Y-1.826 Z-9.600 F30.000
G2 X13.001 Y-20.454 Z-9.600 I-7.774 J-7.774 F720.000
G2 X9.499 Y1.254 Z-9.600 I-1.751 J10.854 F720.000
G2 X19.024 Y-1.826 Z-9.600 I1.751 J-10.854 F720.000
G1 X19.024 Y-1.826 Z-10.000 F30.000
G2 X13.001 Y-20.454 Z-10.000 I-7.774 J-7.774 F720.000
G2 X9.499 Y1.254 Z-10.000 I-1.751 J10.854 F720.000
G2 X19.024 Y-1.826 Z-10.000 I1.751 J-10.854 F720.000
G1 X19.024 Y-1.826 Z-10.400 F30.000
G2 X13.001 Y-20.454 Z-10.400 I-7.774 J-7.774 F720.000
G2 X9.499 Y1.254 Z-10.400 I-1.751 J10.854 F720.000
G2 X19.024 Y-1.826 Z-10.400 I1.751 J-10.854 F720.000
G1 X19.024 Y-1.826 Z-10.800 F30.000
G2 X13.001 Y-20.454 Z-10.800 I-7.774 J-7.774 F720.000
G2 X9.499 Y1.254 Z-10.800 I-1.751 J10.854 F720.000
G2 X19.024 Y-1.826 Z-10.800 I1.751 J-10.854 F720.000
G1 X19.024 Y-1.826 Z-11.200 F30.000
G2 X13.001 Y-20.454 Z-11.200 I-7.774 J-7.774 F720.000
G2 X9.499 Y1.254 Z-11.200 I-1.751 J10.854 F720.000
G2 X19.024 Y-1.826 Z-11.200 I1.751 J-10.854 F720.000
G1 X19.024 Y-1.826 Z-11.600 F30.000
G2 X13.001 Y-20.454 Z-11.600 I-7.774 J-7.774 F720.000
G2 X9.499 Y1.254 Z-11.600 I-1.751 J10.854 F720.000
G2 X19.024 Y-1.826 Z-11.600 I1.751 J-10.854 F720.000
G1 X19.024 Y-1.826 Z-12.000 F30.000
G2 X13.001 Y-20.454 Z-12.000 I-7.774 J-7.774 F720.000
G2 X9.499 Y1.254 Z-12.000 I-1.751 J10.854 F720.000
G2 X19.024 Y-1.826 Z-12.000 I1.751 J-10.854 F720.000
G1 X19.024 Y-1.826 Z-12.400 F30.000
G2 X13.001 Y-20.454 Z-12.400 I-7.774 J-7.774 F720.000
G2 X9.499 Y1.254 Z-12.400 I-1.751 J10.854 F720.000
G2 X19.024 Y-1.826 Z-12.400 I1.751 J-10.854 F720.000
G1 X19.024 Y-1.826 Z-12.800 F30.000
G2 X13.001 Y-20.454 Z-12.800 I-7.774 J-7.774 F720.000
G2 X9.499 Y1.254 Z-12.800 I-1.751 J10.854 F720.000
G2 X19.024 Y-1.826 Z-12.800 I1.751 J-10.854 F720.000
G1 X19.024 Y-1.826 Z-13.200 F30.000
G2 X13.001 Y-20.454 Z-13.200 I-7.774 J-7.774 F720.000
G2 X9.499 Y1.254 Z-13.200 I-1.751 J10.854 F720.000
G2 X19.024 Y-1.826 Z-13.200 I1.751 J-10.854 F720.000
G1 X19.024 Y-1.826 Z-13.600 F30.000
G2 X13.001 Y-20.454 Z-13.600 I-7.774 J-7.774 F720.000
G2 X9.499 Y1.254 Z-13.600 I-1.751 J10.854 F720.000
G2 X19.024 Y-1.826 Z-13.600 I1.751 J-10.854 F720.000
G1 X19.024 Y-1.826 Z-14.000 F30.000
G2 X13.001 Y-20.454 Z-14.000 I-7.774 J-7.774 F720.000
G2 X9.499 Y1.254 Z-14.000 I-1.751 J10.854 F720.000
G2 X19.024 Y-1.826 Z-14.000 I1.751 J-10.854 F720.000
G1 X19.024 Y-1.826 Z-14.400 F30.000
G2 X13.001 Y-20.454 Z-14.400 I-7.774 J-7.774 F720.000
G2 X9.499 Y1.254 Z-14.400 I-1.751 J10.854 F720.000
G2 X19.024 Y-1.826 Z-14.400 I1.751 J-10.854 F720.000
G1 X19.024 Y-1.826 Z-14.800 F30.000
G2 X13.001 Y-20.454 Z-14.800 I-7.774 J-7.774 F720.000
G2 X9.499 Y1.254 Z-14.800 I-1.751 J10.854 F720.000
G2 X19.024 Y-1.826 Z-14.800 I1.751 J-10.854 F720.000
G1 X19.024 Y-1.826 Z-15.200 F30.000
G2 X13.001 Y-20.454 Z-15.200 I-7.774 J-7.774 F720.000
G2 X9.499 Y1.254 Z-15.200 I-1.751 J10.854 F720.000
G2 X19.024 Y-1.826 Z-15.200 I1.751 J-10.854 F720.000
G1 X19.024 Y-1.826 Z-15.600 F30.000
G2 X13.001 Y-20.454 Z-15.600 I-7.774 J-7.774 F720.000
G2 X9.499 Y1.254 Z-15.600 I-1.751 J10.854 F720.000
G2 X19.024 Y-1.826 Z-15.600 I1.751 J-10.854 F720.000
G1 X19.024 Y-1.826 Z-16.000 F30.000
G2 X13.001 Y-20.454 Z-16.000 I-7.774 J-7.774 F720.000
G2 X9.499 Y1.254 Z-16.000 I-1.751 J10.854 F720.000
G2 X19.024 Y-1.826 Z-16.000 I1.751 J-10.854 F720.000
G1 X19.024 Y-1.826 Z-16.400 F30.000
G2 X13.001 Y-20.454 Z-16.400 I-7.774 J-7.774 F720.000
G2 X9.499 Y1.254 Z-16.400 I-1.751 J10.854 F720.000
G2 X19.024 Y-1.826 Z-16.400 I1.751 J-10.854 F720.000
G1 X19.024 Y-1.826 Z-16.800 F30.000
G2 X13.001 Y-20.454 Z-16.800 I-7.774 J-7.774 F720.000
G2 X9.499 Y1.254 Z-16.800 I-1.751 J10.854 F720.000
G2 X19.024 Y-1.826 Z-16.800 I1.751 J-10.854 F720.000
G1 X19.024 Y-1.826 Z-17.200 F30.000
G2 X13.001 Y-20.454 Z-17.200 I-7.774 J-7.774 F720.000
G2 X9.499 Y1.254 Z-17.200 I-1.751 J10.854 F720.000
G2 X19.024 Y-1.826 Z-17.200 I1.751 J-10.854 F720.000
G1 X19.024 Y-1.826 Z-17.600 F30.000
G2 X13.001 Y-20.454 Z-17.600 I-7.774 J-7.774 F720.000
G2 X9.499 Y1.254 Z-17.600 I-1.751 J10.854 F720.000
G2 X19.024 Y-1.826 Z-17.600 I1.751 J-10.854 F720.000
G1 X19.024 Y-1.826 Z-18.000 F30.000
G2 X13.001 Y-20.454 Z-18.000 I-7.774 J-7.774 F720.000
G2 X9.499 Y1.254 Z-18.000 I-1.751 J10.854 F720.000
G2 X19.024 Y-1.826 Z-18.000 I1.751 J-10.854 F720.000
G1 X19.024 Y-1.826 Z-18.400 F30.000
G2 X13.001 Y-20.454 Z-18.400 I-7.774 J-7.774 F720.000
G2 X9.499 Y1.254 Z-18.400 I-1.751 J10.854 F720.000
G2 X19.024 Y-1.826 Z-18.400 I1.751 J-10.854 F720.000
G1 X19.024 Y-1.826 Z-18.800 F30.000
G2 X13.001 Y-20.454 Z-18.800 I-7.774 J-7.774 F720.000
G2 X9.499 Y1.254 Z-18.800 I-1.751 J10.854 F720.000
G2 X19.024 Y-1.826 Z-18.800 I1.751 J-10.854 F720.000
G1 X19.024 Y-1.826 Z-19.200 F30.000
G2 X13.001 Y-20.454 Z-19.200 I-7.774 J-7.774 F720.000
G2 X9.499 Y1.254 Z-19.200 I-1.751 J10.854 F720.000
G2 X19.024 Y-1.826 Z-19.200 I1.751 J-10.854 F720.000
G1 X19.024 Y-1.826 Z-19.600 F30.000
G2 X13.001 Y-20.454 Z-19.600 I-7.774 J-7.774 F720.000
G2 X9.499 Y1.254 Z-19.600 I-1.751 J10.854 F720.000
G2 X19.024 Y-1.826 Z-19.600 I1.751 J-10.854 F720.000
G1 X19.024 Y-1.826 Z-20.000 F30.000
G2 X13.001 Y-20.454 Z-20.000 I-7.774 J-7.774 F720.000
G2 X9.499 Y1.254 Z-20.000 I-1.751 J10.854 F720.000
G2 X19.024 Y-1.826 Z-20.000 I1.751 J-10.854 F720.000
G1 X19.024 Y-1.826 Z-20.400 F30.000
G2 X13.001 Y-20.454 Z-20.400 I-7.774 J-7.774 F720.000
G2 X9.499 Y1.254 Z-20.400 I-1.751 J10.854 F720.000
G2 X19.024 Y-1.826 Z-20.400 I1.751 J-10.854 F720.000
G1 X19.024 Y-1.826 Z-20.700 F30.000
G2 X13.001 Y-20.454 Z-20.700 I-7.774 J-7.774 F720.000
G2 X9.499 Y1.254 Z-20.700 I-1.751 J10.854 F720.000
G2 X19.024 Y-1.826 Z-20.700 I1.751 J-10.854 F720.000
G0 Z5.000
(finish operation: Profile_Edges)
(begin postamble)
M05
G17 G54 G90 G80 G40
M2
