(Exported by FreeCAD)
(Post Processor: linuxcnc_post)
(Output Time:2019-09-24 14:51:27.421863)
(begin preamble)
G17 G54 G40 G49 G80 G90
G21
M8
(begin operation: T4: 12mm Endmill)
(machine: not set, mm/min)
(T4: 12mm Endmill)
M6 T4 G43 H4
M3 S3000
(finish operation: T4: 12mm Endmill)
(begin operation: Profile_Edges)
(machine: not set, mm/min)
(Profile_Edges)
(Compensated Tool Path. Diameter: 12.0)
G0 Z6.000
G0 X23.198 Y-2.220
G0 Z4.000
G1 X23.198 Y-2.220 Z-0.500 F30.000
G2 X14.346 Y-27.473 Z-0.500 I-10.498 J-10.498 F720.000
G2 X11.054 Y2.037 Z-0.500 I-1.646 J14.755 F720.000
G2 X23.198 Y-2.220 Z-0.500 I1.646 J-14.755 F720.000
G1 X23.198 Y-2.220 Z-1.000 F30.000
G2 X14.346 Y-27.473 Z-1.000 I-10.498 J-10.498 F720.000
G2 X11.054 Y2.037 Z-1.000 I-1.646 J14.755 F720.000
G2 X23.198 Y-2.220 Z-1.000 I1.646 J-14.755 F720.000
G1 X23.198 Y-2.220 Z-1.500 F30.000
G2 X14.346 Y-27.473 Z-1.500 I-10.498 J-10.498 F720.000
G2 X11.054 Y2.037 Z-1.500 I-1.646 J14.755 F720.000
G2 X23.198 Y-2.220 Z-1.500 I1.646 J-14.755 F720.000
G1 X23.198 Y-2.220 Z-2.000 F30.000
G2 X14.346 Y-27.473 Z-2.000 I-10.498 J-10.498 F720.000
G2 X11.054 Y2.037 Z-2.000 I-1.646 J14.755 F720.000
G2 X23.198 Y-2.220 Z-2.000 I1.646 J-14.755 F720.000
G1 X23.198 Y-2.220 Z-2.500 F30.000
G2 X14.346 Y-27.473 Z-2.500 I-10.498 J-10.498 F720.000
G2 X11.054 Y2.037 Z-2.500 I-1.646 J14.755 F720.000
G2 X23.198 Y-2.220 Z-2.500 I1.646 J-14.755 F720.000
G1 X23.198 Y-2.220 Z-3.000 F30.000
G2 X14.346 Y-27.473 Z-3.000 I-10.498 J-10.498 F720.000
G2 X11.054 Y2.037 Z-3.000 I-1.646 J14.755 F720.000
G2 X23.198 Y-2.220 Z-3.000 I1.646 J-14.755 F720.000
G1 X23.198 Y-2.220 Z-3.500 F30.000
G2 X14.346 Y-27.473 Z-3.500 I-10.498 J-10.498 F720.000
G2 X11.054 Y2.037 Z-3.500 I-1.646 J14.755 F720.000
G2 X23.198 Y-2.220 Z-3.500 I1.646 J-14.755 F720.000
G1 X23.198 Y-2.220 Z-4.000 F30.000
G2 X14.346 Y-27.473 Z-4.000 I-10.498 J-10.498 F720.000
G2 X11.054 Y2.037 Z-4.000 I-1.646 J14.755 F720.000
G2 X23.198 Y-2.220 Z-4.000 I1.646 J-14.755 F720.000
G1 X23.198 Y-2.220 Z-4.500 F30.000
G2 X14.346 Y-27.473 Z-4.500 I-10.498 J-10.498 F720.000
G2 X11.054 Y2.037 Z-4.500 I-1.646 J14.755 F720.000
G2 X23.198 Y-2.220 Z-4.500 I1.646 J-14.755 F720.000
G1 X23.198 Y-2.220 Z-5.000 F30.000
G2 X14.346 Y-27.473 Z-5.000 I-10.498 J-10.498 F720.000
G2 X11.054 Y2.037 Z-5.000 I-1.646 J14.755 F720.000
G2 X23.198 Y-2.220 Z-5.000 I1.646 J-14.755 F720.000
G1 X23.198 Y-2.220 Z-5.500 F30.000
G2 X14.346 Y-27.473 Z-5.500 I-10.498 J-10.498 F720.000
G2 X11.054 Y2.037 Z-5.500 I-1.646 J14.755 F720.000
G2 X23.198 Y-2.220 Z-5.500 I1.646 J-14.755 F720.000
G1 X23.198 Y-2.220 Z-6.000 F30.000
G2 X14.346 Y-27.473 Z-6.000 I-10.498 J-10.498 F720.000
G2 X11.054 Y2.037 Z-6.000 I-1.646 J14.755 F720.000
G2 X23.198 Y-2.220 Z-6.000 I1.646 J-14.755 F720.000
G1 X23.198 Y-2.220 Z-6.500 F30.000
G2 X14.346 Y-27.473 Z-6.500 I-10.498 J-10.498 F720.000
G2 X11.054 Y2.037 Z-6.500 I-1.646 J14.755 F720.000
G2 X23.198 Y-2.220 Z-6.500 I1.646 J-14.755 F720.000
G1 X23.198 Y-2.220 Z-7.000 F30.000
G2 X14.346 Y-27.473 Z-7.000 I-10.498 J-10.498 F720.000
G2 X11.054 Y2.037 Z-7.000 I-1.646 J14.755 F720.000
G2 X23.198 Y-2.220 Z-7.000 I1.646 J-14.755 F720.000
G1 X23.198 Y-2.220 Z-7.500 F30.000
G2 X14.346 Y-27.473 Z-7.500 I-10.498 J-10.498 F720.000
G2 X11.054 Y2.037 Z-7.500 I-1.646 J14.755 F720.000
G2 X23.198 Y-2.220 Z-7.500 I1.646 J-14.755 F720.000
G1 X23.198 Y-2.220 Z-8.000 F30.000
G2 X14.346 Y-27.473 Z-8.000 I-10.498 J-10.498 F720.000
G2 X11.054 Y2.037 Z-8.000 I-1.646 J14.755 F720.000
G2 X23.198 Y-2.220 Z-8.000 I1.646 J-14.755 F720.000
G1 X23.198 Y-2.220 Z-8.500 F30.000
G2 X14.346 Y-27.473 Z-8.500 I-10.498 J-10.498 F720.000
G2 X11.054 Y2.037 Z-8.500 I-1.646 J14.755 F720.000
G2 X23.198 Y-2.220 Z-8.500 I1.646 J-14.755 F720.000
G1 X23.198 Y-2.220 Z-9.000 F30.000
G2 X14.346 Y-27.473 Z-9.000 I-10.498 J-10.498 F720.000
G2 X11.054 Y2.037 Z-9.000 I-1.646 J14.755 F720.000
G2 X23.198 Y-2.220 Z-9.000 I1.646 J-14.755 F720.000
G1 X23.198 Y-2.220 Z-9.500 F30.000
G2 X14.346 Y-27.473 Z-9.500 I-10.498 J-10.498 F720.000
G2 X11.054 Y2.037 Z-9.500 I-1.646 J14.755 F720.000
G2 X23.198 Y-2.220 Z-9.500 I1.646 J-14.755 F720.000
G1 X23.198 Y-2.220 Z-10.000 F30.000
G2 X14.346 Y-27.473 Z-10.000 I-10.498 J-10.498 F720.000
G2 X11.054 Y2.037 Z-10.000 I-1.646 J14.755 F720.000
G2 X23.198 Y-2.220 Z-10.000 I1.646 J-14.755 F720.000
G1 X23.198 Y-2.220 Z-10.400 F30.000
G2 X14.346 Y-27.473 Z-10.400 I-10.498 J-10.498 F720.000
G2 X11.054 Y2.037 Z-10.400 I-1.646 J14.755 F720.000
G2 X23.198 Y-2.220 Z-10.400 I1.646 J-14.755 F720.000
G0 Z6.000
(finish operation: Profile_Edges)
(begin operation: T18: 4.2mm drill [M5 tap])
(machine: not set, mm/min)
(T18: 4.2mm drill [M5 tap])
M6 T18 G43 H18
M3 S800
(finish operation: T18: 4.2mm drill [M5 tap])
(begin operation: Drilling)
(machine: not set, mm/min)
(Drilling)
(Begin Drilling)
G0 Z6.000
G90
G98
G83 X12.700 Y-12.718 Z-8.000 F60.000 Q0.200 R5.000
G80
G0 Z6.000
(finish operation: Drilling)
(begin operation: T4: 12mm Endmill)
(machine: not set, mm/min)
(T4: 12mm Endmill)
M6 T4 G43 H4
M3 S3000
(finish operation: T4: 12mm Endmill)
(begin operation: Profile_Edges001)
(machine: not set, mm/min)
(Profile_Edges001)
(Compensated Tool Path. Diameter: 12.0)
G0 Z5.000
G0 X26.113 Y1.679
G1 X26.113 Y1.679 Z-10.900 F30.000
G2 X28.595 Y-0.763 Z-10.900 I-13.407 J-16.106 F720.000
G2 X30.150 Y-4.793 Z-10.900 I-4.445 J-4.030 F720.000
G1 X30.150 Y-20.643 Z-10.900 F720.000
G2 X29.025 Y-24.140 Z-10.900 I-6.000 J0.000 F720.000
G2 X14.437 Y-31.893 Z-10.900 I-16.307 J13.082 F720.000
G2 X-3.195 Y-24.673 Z-10.900 I-1.737 J20.898 F720.000
G2 X-4.750 Y-20.643 Z-10.900 I4.445 J4.030 F720.000
G1 X-4.750 Y-4.793 Z-10.900 F720.000
G2 X-3.625 Y-1.296 Z-10.900 I6.000 J0.000 F720.000
G2 X26.113 Y1.679 Z-10.900 I16.332 J-13.131 F720.000
G1 X26.113 Y1.679 Z-11.400 F30.000
G2 X28.595 Y-0.763 Z-11.400 I-13.407 J-16.106 F720.000
G2 X30.150 Y-4.793 Z-11.400 I-4.445 J-4.030 F720.000
G1 X30.150 Y-20.643 Z-11.400 F720.000
G2 X29.025 Y-24.140 Z-11.400 I-6.000 J0.000 F720.000
G2 X14.437 Y-31.893 Z-11.400 I-16.307 J13.082 F720.000
G2 X-3.195 Y-24.673 Z-11.400 I-1.737 J20.898 F720.000
G2 X-4.750 Y-20.643 Z-11.400 I4.445 J4.030 F720.000
G1 X-4.750 Y-4.793 Z-11.400 F720.000
G2 X-3.625 Y-1.296 Z-11.400 I6.000 J0.000 F720.000
G2 X26.113 Y1.679 Z-11.400 I16.332 J-13.131 F720.000
G1 X26.113 Y1.679 Z-11.900 F30.000
G2 X28.595 Y-0.763 Z-11.900 I-13.407 J-16.106 F720.000
G2 X30.150 Y-4.793 Z-11.900 I-4.445 J-4.030 F720.000
G1 X30.150 Y-20.643 Z-11.900 F720.000
G2 X29.025 Y-24.140 Z-11.900 I-6.000 J0.000 F720.000
G2 X14.437 Y-31.893 Z-11.900 I-16.307 J13.082 F720.000
G2 X-3.195 Y-24.673 Z-11.900 I-1.737 J20.898 F720.000
G2 X-4.750 Y-20.643 Z-11.900 I4.445 J4.030 F720.000
G1 X-4.750 Y-4.793 Z-11.900 F720.000
G2 X-3.625 Y-1.296 Z-11.900 I6.000 J0.000 F720.000
G2 X26.113 Y1.679 Z-11.900 I16.332 J-13.131 F720.000
G1 X26.113 Y1.679 Z-12.400 F30.000
G2 X28.595 Y-0.763 Z-12.400 I-13.407 J-16.106 F720.000
G2 X30.150 Y-4.793 Z-12.400 I-4.445 J-4.030 F720.000
G1 X30.150 Y-20.643 Z-12.400 F720.000
G2 X29.025 Y-24.140 Z-12.400 I-6.000 J0.000 F720.000
G2 X14.437 Y-31.893 Z-12.400 I-16.307 J13.082 F720.000
G2 X-3.195 Y-24.673 Z-12.400 I-1.737 J20.898 F720.000
G2 X-4.750 Y-20.643 Z-12.400 I4.445 J4.030 F720.000
G1 X-4.750 Y-4.793 Z-12.400 F720.000
G2 X-3.625 Y-1.296 Z-12.400 I6.000 J0.000 F720.000
G2 X26.113 Y1.679 Z-12.400 I16.332 J-13.131 F720.000
G1 X26.113 Y1.679 Z-12.900 F30.000
G2 X28.595 Y-0.763 Z-12.900 I-13.407 J-16.106 F720.000
G2 X30.150 Y-4.793 Z-12.900 I-4.445 J-4.030 F720.000
G1 X30.150 Y-20.643 Z-12.900 F720.000
G2 X29.025 Y-24.140 Z-12.900 I-6.000 J0.000 F720.000
G2 X14.437 Y-31.893 Z-12.900 I-16.307 J13.082 F720.000
G2 X-3.195 Y-24.673 Z-12.900 I-1.737 J20.898 F720.000
G2 X-4.750 Y-20.643 Z-12.900 I4.445 J4.030 F720.000
G1 X-4.750 Y-4.793 Z-12.900 F720.000
G2 X-3.625 Y-1.296 Z-12.900 I6.000 J0.000 F720.000
G2 X26.113 Y1.679 Z-12.900 I16.332 J-13.131 F720.000
G1 X26.113 Y1.679 Z-13.400 F30.000
G2 X28.595 Y-0.763 Z-13.400 I-13.407 J-16.106 F720.000
G2 X30.150 Y-4.793 Z-13.400 I-4.445 J-4.030 F720.000
G1 X30.150 Y-20.643 Z-13.400 F720.000
G2 X29.025 Y-24.140 Z-13.400 I-6.000 J0.000 F720.000
G2 X14.437 Y-31.893 Z-13.400 I-16.307 J13.082 F720.000
G2 X-3.195 Y-24.673 Z-13.400 I-1.737 J20.898 F720.000
G2 X-4.750 Y-20.643 Z-13.400 I4.445 J4.030 F720.000
G1 X-4.750 Y-4.793 Z-13.400 F720.000
G2 X-3.625 Y-1.296 Z-13.400 I6.000 J0.000 F720.000
G2 X26.113 Y1.679 Z-13.400 I16.332 J-13.131 F720.000
G1 X26.113 Y1.679 Z-13.900 F30.000
G2 X28.595 Y-0.763 Z-13.900 I-13.407 J-16.106 F720.000
G2 X30.150 Y-4.793 Z-13.900 I-4.445 J-4.030 F720.000
G1 X30.150 Y-20.643 Z-13.900 F720.000
G2 X29.025 Y-24.140 Z-13.900 I-6.000 J0.000 F720.000
G2 X14.437 Y-31.893 Z-13.900 I-16.307 J13.082 F720.000
G2 X-3.195 Y-24.673 Z-13.900 I-1.737 J20.898 F720.000
G2 X-4.750 Y-20.643 Z-13.900 I4.445 J4.030 F720.000
G1 X-4.750 Y-4.793 Z-13.900 F720.000
G2 X-3.625 Y-1.296 Z-13.900 I6.000 J0.000 F720.000
G2 X26.113 Y1.679 Z-13.900 I16.332 J-13.131 F720.000
G1 X26.113 Y1.679 Z-14.400 F30.000
G2 X28.595 Y-0.763 Z-14.400 I-13.407 J-16.106 F720.000
G2 X30.150 Y-4.793 Z-14.400 I-4.445 J-4.030 F720.000
G1 X30.150 Y-20.643 Z-14.400 F720.000
G2 X29.025 Y-24.140 Z-14.400 I-6.000 J0.000 F720.000
G2 X14.437 Y-31.893 Z-14.400 I-16.307 J13.082 F720.000
G2 X-3.195 Y-24.673 Z-14.400 I-1.737 J20.898 F720.000
G2 X-4.750 Y-20.643 Z-14.400 I4.445 J4.030 F720.000
G1 X-4.750 Y-4.793 Z-14.400 F720.000
G2 X-3.625 Y-1.296 Z-14.400 I6.000 J0.000 F720.000
G2 X26.113 Y1.679 Z-14.400 I16.332 J-13.131 F720.000
G0 Z5.000
(finish operation: Profile_Edges001)
(begin postamble)
M05
G17 G54 G90 G80 G40
M2
