(Exported by FreeCAD)
(Post Processor: linuxcnc_post)
(Output Time:2019-09-24 14:02:28.975371)
(begin preamble)
G17 G54 G40 G49 G80 G90
G21
M8
(begin operation: T4: 12mm Endmill)
(machine: not set, mm/min)
(T4: 12mm Endmill)
M6 T4 G43 H4
M3 S3000
(finish operation: T4: 12mm Endmill)
(begin operation: Profile_Edges)
(machine: not set, mm/min)
(Profile_Edges)
(Compensated Tool Path. Diameter: 12.0)
G0 Z5.000
G0 X22.597 Y-2.803
G0 Z3.000
G1 X22.597 Y-2.803 Z-0.500 F30.000
G2 X14.365 Y-26.597 Z-0.500 I-9.897 J-9.897 F720.000
G2 X11.035 Y1.197 Z-0.500 I-1.665 J13.897 F720.000
G2 X22.597 Y-2.803 Z-0.500 I1.665 J-13.897 F720.000
G1 X22.597 Y-2.803 Z-1.000 F30.000
G2 X14.365 Y-26.597 Z-1.000 I-9.897 J-9.897 F720.000
G2 X11.035 Y1.197 Z-1.000 I-1.665 J13.897 F720.000
G2 X22.597 Y-2.803 Z-1.000 I1.665 J-13.897 F720.000
G1 X22.597 Y-2.803 Z-1.500 F30.000
G2 X14.365 Y-26.597 Z-1.500 I-9.897 J-9.897 F720.000
G2 X11.035 Y1.197 Z-1.500 I-1.665 J13.897 F720.000
G2 X22.597 Y-2.803 Z-1.500 I1.665 J-13.897 F720.000
G1 X22.597 Y-2.803 Z-2.000 F30.000
G2 X14.365 Y-26.597 Z-2.000 I-9.897 J-9.897 F720.000
G2 X11.035 Y1.197 Z-2.000 I-1.665 J13.897 F720.000
G2 X22.597 Y-2.803 Z-2.000 I1.665 J-13.897 F720.000
G1 X22.597 Y-2.803 Z-2.500 F30.000
G2 X14.365 Y-26.597 Z-2.500 I-9.897 J-9.897 F720.000
G2 X11.035 Y1.197 Z-2.500 I-1.665 J13.897 F720.000
G2 X22.597 Y-2.803 Z-2.500 I1.665 J-13.897 F720.000
G1 X22.597 Y-2.803 Z-3.000 F30.000
G2 X14.365 Y-26.597 Z-3.000 I-9.897 J-9.897 F720.000
G2 X11.035 Y1.197 Z-3.000 I-1.665 J13.897 F720.000
G2 X22.597 Y-2.803 Z-3.000 I1.665 J-13.897 F720.000
G1 X22.597 Y-2.803 Z-3.500 F30.000
G2 X14.365 Y-26.597 Z-3.500 I-9.897 J-9.897 F720.000
G2 X11.035 Y1.197 Z-3.500 I-1.665 J13.897 F720.000
G2 X22.597 Y-2.803 Z-3.500 I1.665 J-13.897 F720.000
G1 X22.597 Y-2.803 Z-4.000 F30.000
G2 X14.365 Y-26.597 Z-4.000 I-9.897 J-9.897 F720.000
G2 X11.035 Y1.197 Z-4.000 I-1.665 J13.897 F720.000
G2 X22.597 Y-2.803 Z-4.000 I1.665 J-13.897 F720.000
G1 X22.597 Y-2.803 Z-4.500 F30.000
G2 X14.365 Y-26.597 Z-4.500 I-9.897 J-9.897 F720.000
G2 X11.035 Y1.197 Z-4.500 I-1.665 J13.897 F720.000
G2 X22.597 Y-2.803 Z-4.500 I1.665 J-13.897 F720.000
G1 X22.597 Y-2.803 Z-5.000 F30.000
G2 X14.365 Y-26.597 Z-5.000 I-9.897 J-9.897 F720.000
G2 X11.035 Y1.197 Z-5.000 I-1.665 J13.897 F720.000
G2 X22.597 Y-2.803 Z-5.000 I1.665 J-13.897 F720.000
G1 X22.597 Y-2.803 Z-5.500 F30.000
G2 X14.365 Y-26.597 Z-5.500 I-9.897 J-9.897 F720.000
G2 X11.035 Y1.197 Z-5.500 I-1.665 J13.897 F720.000
G2 X22.597 Y-2.803 Z-5.500 I1.665 J-13.897 F720.000
G1 X22.597 Y-2.803 Z-6.000 F30.000
G2 X14.365 Y-26.597 Z-6.000 I-9.897 J-9.897 F720.000
G2 X11.035 Y1.197 Z-6.000 I-1.665 J13.897 F720.000
G2 X22.597 Y-2.803 Z-6.000 I1.665 J-13.897 F720.000
G1 X22.597 Y-2.803 Z-6.500 F30.000
G2 X14.365 Y-26.597 Z-6.500 I-9.897 J-9.897 F720.000
G2 X11.035 Y1.197 Z-6.500 I-1.665 J13.897 F720.000
G2 X22.597 Y-2.803 Z-6.500 I1.665 J-13.897 F720.000
G1 X22.597 Y-2.803 Z-7.000 F30.000
G2 X14.365 Y-26.597 Z-7.000 I-9.897 J-9.897 F720.000
G2 X11.035 Y1.197 Z-7.000 I-1.665 J13.897 F720.000
G2 X22.597 Y-2.803 Z-7.000 I1.665 J-13.897 F720.000
G1 X22.597 Y-2.803 Z-7.500 F30.000
G2 X14.365 Y-26.597 Z-7.500 I-9.897 J-9.897 F720.000
G2 X11.035 Y1.197 Z-7.500 I-1.665 J13.897 F720.000
G2 X22.597 Y-2.803 Z-7.500 I1.665 J-13.897 F720.000
G1 X22.597 Y-2.803 Z-8.000 F30.000
G2 X14.365 Y-26.597 Z-8.000 I-9.897 J-9.897 F720.000
G2 X11.035 Y1.197 Z-8.000 I-1.665 J13.897 F720.000
G2 X22.597 Y-2.803 Z-8.000 I1.665 J-13.897 F720.000
G1 X22.597 Y-2.803 Z-8.500 F30.000
G2 X14.365 Y-26.597 Z-8.500 I-9.897 J-9.897 F720.000
G2 X11.035 Y1.197 Z-8.500 I-1.665 J13.897 F720.000
G2 X22.597 Y-2.803 Z-8.500 I1.665 J-13.897 F720.000
G1 X22.597 Y-2.803 Z-9.000 F30.000
G2 X14.365 Y-26.597 Z-9.000 I-9.897 J-9.897 F720.000
G2 X11.035 Y1.197 Z-9.000 I-1.665 J13.897 F720.000
G2 X22.597 Y-2.803 Z-9.000 I1.665 J-13.897 F720.000
G1 X22.597 Y-2.803 Z-9.500 F30.000
G2 X14.365 Y-26.597 Z-9.500 I-9.897 J-9.897 F720.000
G2 X11.035 Y1.197 Z-9.500 I-1.665 J13.897 F720.000
G2 X22.597 Y-2.803 Z-9.500 I1.665 J-13.897 F720.000
G1 X22.597 Y-2.803 Z-10.000 F30.000
G2 X14.365 Y-26.597 Z-10.000 I-9.897 J-9.897 F720.000
G2 X11.035 Y1.197 Z-10.000 I-1.665 J13.897 F720.000
G2 X22.597 Y-2.803 Z-10.000 I1.665 J-13.897 F720.000
G1 X22.597 Y-2.803 Z-10.500 F30.000
G2 X14.365 Y-26.597 Z-10.500 I-9.897 J-9.897 F720.000
G2 X11.035 Y1.197 Z-10.500 I-1.665 J13.897 F720.000
G2 X22.597 Y-2.803 Z-10.500 I1.665 J-13.897 F720.000
G1 X22.597 Y-2.803 Z-11.000 F30.000
G2 X14.365 Y-26.597 Z-11.000 I-9.897 J-9.897 F720.000
G2 X11.035 Y1.197 Z-11.000 I-1.665 J13.897 F720.000
G2 X22.597 Y-2.803 Z-11.000 I1.665 J-13.897 F720.000
G1 X22.597 Y-2.803 Z-11.500 F30.000
G2 X14.365 Y-26.597 Z-11.500 I-9.897 J-9.897 F720.000
G2 X11.035 Y1.197 Z-11.500 I-1.665 J13.897 F720.000
G2 X22.597 Y-2.803 Z-11.500 I1.665 J-13.897 F720.000
G1 X22.597 Y-2.803 Z-12.000 F30.000
G2 X14.365 Y-26.597 Z-12.000 I-9.897 J-9.897 F720.000
G2 X11.035 Y1.197 Z-12.000 I-1.665 J13.897 F720.000
G2 X22.597 Y-2.803 Z-12.000 I1.665 J-13.897 F720.000
G1 X22.597 Y-2.803 Z-12.500 F30.000
G2 X14.365 Y-26.597 Z-12.500 I-9.897 J-9.897 F720.000
G2 X11.035 Y1.197 Z-12.500 I-1.665 J13.897 F720.000
G2 X22.597 Y-2.803 Z-12.500 I1.665 J-13.897 F720.000
G1 X22.597 Y-2.803 Z-13.000 F30.000
G2 X14.365 Y-26.597 Z-13.000 I-9.897 J-9.897 F720.000
G2 X11.035 Y1.197 Z-13.000 I-1.665 J13.897 F720.000
G2 X22.597 Y-2.803 Z-13.000 I1.665 J-13.897 F720.000
G1 X22.597 Y-2.803 Z-13.500 F30.000
G2 X14.365 Y-26.597 Z-13.500 I-9.897 J-9.897 F720.000
G2 X11.035 Y1.197 Z-13.500 I-1.665 J13.897 F720.000
G2 X22.597 Y-2.803 Z-13.500 I1.665 J-13.897 F720.000
G1 X22.597 Y-2.803 Z-14.000 F30.000
G2 X14.365 Y-26.597 Z-14.000 I-9.897 J-9.897 F720.000
G2 X11.035 Y1.197 Z-14.000 I-1.665 J13.897 F720.000
G2 X22.597 Y-2.803 Z-14.000 I1.665 J-13.897 F720.000
G1 X22.597 Y-2.803 Z-14.500 F30.000
G2 X14.365 Y-26.597 Z-14.500 I-9.897 J-9.897 F720.000
G2 X11.035 Y1.197 Z-14.500 I-1.665 J13.897 F720.000
G2 X22.597 Y-2.803 Z-14.500 I1.665 J-13.897 F720.000
G1 X22.597 Y-2.803 Z-15.000 F30.000
G2 X14.365 Y-26.597 Z-15.000 I-9.897 J-9.897 F720.000
G2 X11.035 Y1.197 Z-15.000 I-1.665 J13.897 F720.000
G2 X22.597 Y-2.803 Z-15.000 I1.665 J-13.897 F720.000
G1 X22.597 Y-2.803 Z-15.500 F30.000
G2 X14.365 Y-26.597 Z-15.500 I-9.897 J-9.897 F720.000
G2 X11.035 Y1.197 Z-15.500 I-1.665 J13.897 F720.000
G2 X22.597 Y-2.803 Z-15.500 I1.665 J-13.897 F720.000
G1 X22.597 Y-2.803 Z-16.000 F30.000
G2 X14.365 Y-26.597 Z-16.000 I-9.897 J-9.897 F720.000
G2 X11.035 Y1.197 Z-16.000 I-1.665 J13.897 F720.000
G2 X22.597 Y-2.803 Z-16.000 I1.665 J-13.897 F720.000
G1 X22.597 Y-2.803 Z-16.500 F30.000
G2 X14.365 Y-26.597 Z-16.500 I-9.897 J-9.897 F720.000
G2 X11.035 Y1.197 Z-16.500 I-1.665 J13.897 F720.000
G2 X22.597 Y-2.803 Z-16.500 I1.665 J-13.897 F720.000
G1 X22.597 Y-2.803 Z-17.000 F30.000
G2 X14.365 Y-26.597 Z-17.000 I-9.897 J-9.897 F720.000
G2 X11.035 Y1.197 Z-17.000 I-1.665 J13.897 F720.000
G2 X22.597 Y-2.803 Z-17.000 I1.665 J-13.897 F720.000
G1 X22.597 Y-2.803 Z-17.500 F30.000
G2 X14.365 Y-26.597 Z-17.500 I-9.897 J-9.897 F720.000
G2 X11.035 Y1.197 Z-17.500 I-1.665 J13.897 F720.000
G2 X22.597 Y-2.803 Z-17.500 I1.665 J-13.897 F720.000
G1 X22.597 Y-2.803 Z-18.000 F30.000
G2 X14.365 Y-26.597 Z-18.000 I-9.897 J-9.897 F720.000
G2 X11.035 Y1.197 Z-18.000 I-1.665 J13.897 F720.000
G2 X22.597 Y-2.803 Z-18.000 I1.665 J-13.897 F720.000
G1 X22.597 Y-2.803 Z-18.500 F30.000
G2 X14.365 Y-26.597 Z-18.500 I-9.897 J-9.897 F720.000
G2 X11.035 Y1.197 Z-18.500 I-1.665 J13.897 F720.000
G2 X22.597 Y-2.803 Z-18.500 I1.665 J-13.897 F720.000
G1 X22.597 Y-2.803 Z-19.000 F30.000
G2 X14.365 Y-26.597 Z-19.000 I-9.897 J-9.897 F720.000
G2 X11.035 Y1.197 Z-19.000 I-1.665 J13.897 F720.000
G2 X22.597 Y-2.803 Z-19.000 I1.665 J-13.897 F720.000
G1 X22.597 Y-2.803 Z-19.500 F30.000
G2 X14.365 Y-26.597 Z-19.500 I-9.897 J-9.897 F720.000
G2 X11.035 Y1.197 Z-19.500 I-1.665 J13.897 F720.000
G2 X22.597 Y-2.803 Z-19.500 I1.665 J-13.897 F720.000
G1 X22.597 Y-2.803 Z-20.000 F30.000
G2 X14.365 Y-26.597 Z-20.000 I-9.897 J-9.897 F720.000
G2 X11.035 Y1.197 Z-20.000 I-1.665 J13.897 F720.000
G2 X22.597 Y-2.803 Z-20.000 I1.665 J-13.897 F720.000
G0 Z5.000
(finish operation: Profile_Edges)
(begin postamble)
M05
G17 G54 G90 G80 G40
M2
