(Exported by FreeCAD)
(Post Processor: linuxcnc_post)
(Output Time:2019-09-25 10:49:16.594463)
(begin preamble)
G17 G54 G40 G49 G80 G90
G21
M8
(begin operation: T6: 4mm Endmill)
(machine: not set, mm/min)
(T6: 4mm Endmill)
M6 T6 G43 H6
M3 S3000
(finish operation: T6: 4mm Endmill)
(begin operation: Helix)
(machine: not set, mm/min)
(Helix)
(helix cut operation)
G0 Z5.000
G0 X20.917 Y2.888
G0 Z3.000
G1 Z0.000 F12.000
G2 X18.317 Y2.888 Z-0.098 I-1.300 J0.000 F180.000
G2 X20.917 Y2.888 Z-0.196 I1.300 J0.000 F180.000
G2 X18.317 Y2.888 Z-0.293 I-1.300 J0.000 F180.000
G2 X20.917 Y2.888 Z-0.391 I1.300 J0.000 F180.000
G2 X18.317 Y2.888 Z-0.489 I-1.300 J0.000 F180.000
G2 X20.917 Y2.888 Z-0.587 I1.300 J0.000 F180.000
G2 X18.317 Y2.888 Z-0.685 I-1.300 J0.000 F180.000
G2 X20.917 Y2.888 Z-0.783 I1.300 J0.000 F180.000
G2 X18.317 Y2.888 Z-0.880 I-1.300 J0.000 F180.000
G2 X20.917 Y2.888 Z-0.978 I1.300 J0.000 F180.000
G2 X18.317 Y2.888 Z-1.076 I-1.300 J0.000 F180.000
G2 X20.917 Y2.888 Z-1.174 I1.300 J0.000 F180.000
G2 X18.317 Y2.888 Z-1.272 I-1.300 J0.000 F180.000
G2 X20.917 Y2.888 Z-1.370 I1.300 J0.000 F180.000
G2 X18.317 Y2.888 Z-1.467 I-1.300 J0.000 F180.000
G2 X20.917 Y2.888 Z-1.565 I1.300 J0.000 F180.000
G2 X18.317 Y2.888 Z-1.663 I-1.300 J0.000 F180.000
G2 X20.917 Y2.888 Z-1.761 I1.300 J0.000 F180.000
G2 X18.317 Y2.888 Z-1.859 I-1.300 J0.000 F180.000
G2 X20.917 Y2.888 Z-1.957 I1.300 J0.000 F180.000
G2 X18.317 Y2.888 Z-2.054 I-1.300 J0.000 F180.000
G2 X20.917 Y2.888 Z-2.152 I1.300 J0.000 F180.000
G2 X18.317 Y2.888 Z-2.250 I-1.300 J0.000 F180.000
G2 X20.917 Y2.888 Z-2.348 I1.300 J0.000 F180.000
G2 X18.317 Y2.888 Z-2.446 I-1.300 J0.000 F180.000
G2 X20.917 Y2.888 Z-2.543 I1.300 J0.000 F180.000
G2 X18.317 Y2.888 Z-2.641 I-1.300 J0.000 F180.000
G2 X20.917 Y2.888 Z-2.739 I1.300 J0.000 F180.000
G2 X18.317 Y2.888 Z-2.837 I-1.300 J0.000 F180.000
G2 X20.917 Y2.888 Z-2.935 I1.300 J0.000 F180.000
G2 X18.317 Y2.888 Z-3.033 I-1.300 J0.000 F180.000
G2 X20.917 Y2.888 Z-3.130 I1.300 J0.000 F180.000
G2 X18.317 Y2.888 Z-3.228 I-1.300 J0.000 F180.000
G2 X20.917 Y2.888 Z-3.326 I1.300 J0.000 F180.000
G2 X18.317 Y2.888 Z-3.424 I-1.300 J0.000 F180.000
G2 X20.917 Y2.888 Z-3.522 I1.300 J0.000 F180.000
G2 X18.317 Y2.888 Z-3.620 I-1.300 J0.000 F180.000
G2 X20.917 Y2.888 Z-3.717 I1.300 J0.000 F180.000
G2 X18.317 Y2.888 Z-3.815 I-1.300 J0.000 F180.000
G2 X20.917 Y2.888 Z-3.913 I1.300 J0.000 F180.000
G2 X18.317 Y2.888 Z-4.011 I-1.300 J0.000 F180.000
G2 X20.917 Y2.888 Z-4.109 I1.300 J0.000 F180.000
G2 X18.317 Y2.888 Z-4.207 I-1.300 J0.000 F180.000
G2 X20.917 Y2.888 Z-4.304 I1.300 J0.000 F180.000
G2 X18.317 Y2.888 Z-4.402 I-1.300 J0.000 F180.000
G2 X20.917 Y2.888 Z-4.500 I1.300 J0.000 F180.000
G2 X18.317 Y2.888 Z-4.500 I-1.300 J0.000 F180.000
G2 X20.917 Y2.888 Z-4.500 I1.300 J0.000 F180.000
G0 Z3.000
G0 X20.917 Y-12.888
G0 Z3.000
G1 Z0.000 F12.000
G2 X18.317 Y-12.888 Z-0.098 I-1.300 J0.000 F180.000
G2 X20.917 Y-12.888 Z-0.196 I1.300 J0.000 F180.000
G2 X18.317 Y-12.888 Z-0.293 I-1.300 J0.000 F180.000
G2 X20.917 Y-12.888 Z-0.391 I1.300 J0.000 F180.000
G2 X18.317 Y-12.888 Z-0.489 I-1.300 J0.000 F180.000
G2 X20.917 Y-12.888 Z-0.587 I1.300 J0.000 F180.000
G2 X18.317 Y-12.888 Z-0.685 I-1.300 J0.000 F180.000
G2 X20.917 Y-12.888 Z-0.783 I1.300 J0.000 F180.000
G2 X18.317 Y-12.888 Z-0.880 I-1.300 J0.000 F180.000
G2 X20.917 Y-12.888 Z-0.978 I1.300 J0.000 F180.000
G2 X18.317 Y-12.888 Z-1.076 I-1.300 J0.000 F180.000
G2 X20.917 Y-12.888 Z-1.174 I1.300 J0.000 F180.000
G2 X18.317 Y-12.888 Z-1.272 I-1.300 J0.000 F180.000
G2 X20.917 Y-12.888 Z-1.370 I1.300 J0.000 F180.000
G2 X18.317 Y-12.888 Z-1.467 I-1.300 J0.000 F180.000
G2 X20.917 Y-12.888 Z-1.565 I1.300 J0.000 F180.000
G2 X18.317 Y-12.888 Z-1.663 I-1.300 J0.000 F180.000
G2 X20.917 Y-12.888 Z-1.761 I1.300 J0.000 F180.000
G2 X18.317 Y-12.888 Z-1.859 I-1.300 J0.000 F180.000
G2 X20.917 Y-12.888 Z-1.957 I1.300 J0.000 F180.000
G2 X18.317 Y-12.888 Z-2.054 I-1.300 J0.000 F180.000
G2 X20.917 Y-12.888 Z-2.152 I1.300 J0.000 F180.000
G2 X18.317 Y-12.888 Z-2.250 I-1.300 J0.000 F180.000
G2 X20.917 Y-12.888 Z-2.348 I1.300 J0.000 F180.000
G2 X18.317 Y-12.888 Z-2.446 I-1.300 J0.000 F180.000
G2 X20.917 Y-12.888 Z-2.543 I1.300 J0.000 F180.000
G2 X18.317 Y-12.888 Z-2.641 I-1.300 J0.000 F180.000
G2 X20.917 Y-12.888 Z-2.739 I1.300 J0.000 F180.000
G2 X18.317 Y-12.888 Z-2.837 I-1.300 J0.000 F180.000
G2 X20.917 Y-12.888 Z-2.935 I1.300 J0.000 F180.000
G2 X18.317 Y-12.888 Z-3.033 I-1.300 J0.000 F180.000
G2 X20.917 Y-12.888 Z-3.130 I1.300 J0.000 F180.000
G2 X18.317 Y-12.888 Z-3.228 I-1.300 J0.000 F180.000
G2 X20.917 Y-12.888 Z-3.326 I1.300 J0.000 F180.000
G2 X18.317 Y-12.888 Z-3.424 I-1.300 J0.000 F180.000
G2 X20.917 Y-12.888 Z-3.522 I1.300 J0.000 F180.000
G2 X18.317 Y-12.888 Z-3.620 I-1.300 J0.000 F180.000
G2 X20.917 Y-12.888 Z-3.717 I1.300 J0.000 F180.000
G2 X18.317 Y-12.888 Z-3.815 I-1.300 J0.000 F180.000
G2 X20.917 Y-12.888 Z-3.913 I1.300 J0.000 F180.000
G2 X18.317 Y-12.888 Z-4.011 I-1.300 J0.000 F180.000
G2 X20.917 Y-12.888 Z-4.109 I1.300 J0.000 F180.000
G2 X18.317 Y-12.888 Z-4.207 I-1.300 J0.000 F180.000
G2 X20.917 Y-12.888 Z-4.304 I1.300 J0.000 F180.000
G2 X18.317 Y-12.888 Z-4.402 I-1.300 J0.000 F180.000
G2 X20.917 Y-12.888 Z-4.500 I1.300 J0.000 F180.000
G2 X18.317 Y-12.888 Z-4.500 I-1.300 J0.000 F180.000
G2 X20.917 Y-12.888 Z-4.500 I1.300 J0.000 F180.000
G0 Z3.000
G0 Z5.000
(finish operation: Helix)
(begin postamble)
M05
G17 G54 G90 G80 G40
M2
