(Exported by FreeCAD)
(Post Processor: linuxcnc_post)
(Output Time:2019-09-25 10:47:43.423421)
(begin preamble)
G17 G54 G40 G49 G80 G90
G21
M8
(begin operation: T4: 12mm Endmill)
(machine: not set, mm/min)
(T4: 12mm Endmill)
M6 T4 G43 H4
M3 S3000
(finish operation: T4: 12mm Endmill)
(begin operation: Profile_Edges)
(machine: not set, mm/min)
(Profile_Edges)
(Compensated Tool Path. Diameter: 12.0)
G0 Z5.000
G0 X58.152 Y-1.575
G0 Z3.000
G1 X58.152 Y-1.575 Z-0.500 F30.000
G2 X61.944 Y-8.125 Z-0.500 I-3.749 J-6.543 F720.000
G1 X61.944 Y-23.875 Z-0.500 F720.000
G2 X47.744 Y-27.424 Z-0.500 I-7.542 J-0.006 F720.000
G1 X43.413 Y-27.424 Z-0.500 F720.000
G2 X33.379 Y-37.040 Z-0.500 I-10.043 J0.437 F720.000
G1 X19.379 Y-37.040 Z-0.500 F720.000
G2 X17.785 Y-36.816 Z-0.500 I-0.017 J5.662 F720.000
G2 X16.187 Y-37.040 Z-0.500 I-1.446 J4.504 F720.000
G1 X6.988 Y-37.040 Z-0.500 F720.000
G2 X3.683 Y-36.057 Z-0.500 I-0.000 J6.050 F720.000
G1 X0.877 Y-34.227 Z-0.500 F720.000
G2 X-1.355 Y-31.598 Z-0.500 I3.305 J5.067 F720.000
G1 X-4.366 Y-24.759 Z-0.500 F720.000
G2 X-1.722 Y-16.001 Z-0.500 I6.419 J2.840 F720.000
G2 X-4.366 Y-7.241 Z-0.500 I3.781 J5.920 F720.000
G1 X-1.355 Y-0.402 Z-0.500 F720.000
G2 X0.877 Y2.227 Z-0.500 I5.537 J-2.438 F720.000
G1 X3.683 Y4.057 Z-0.500 F720.000
G2 X6.988 Y5.040 Z-0.500 I3.305 J-5.067 F720.000
G1 X16.187 Y5.040 Z-0.500 F720.000
G2 X17.781 Y4.816 Z-0.500 I0.017 J-5.662 F720.000
G2 X19.379 Y5.040 Z-0.500 I1.446 J-4.504 F720.000
G1 X33.379 Y5.040 Z-0.500 F720.000
G2 X43.413 Y-4.576 Z-0.500 I-0.009 J-10.053 F720.000
G1 X47.745 Y-4.576 Z-0.500 F720.000
G2 X58.152 Y-1.575 Z-0.500 I6.657 J-3.543 F720.000
G0 X58.152 Y-1.575 Z5.000
G0 X25.329 Y-11.060 Z5.000
G0 X25.329 Y-11.060 Z2.500
G1 X25.329 Y-11.060 Z-0.500 F30.000
G1 X12.341 Y-11.060 Z-0.500 F720.000
G2 X8.130 Y-16.000 Z-0.500 I-8.765 J3.206 F720.000
G2 X12.341 Y-20.940 Z-0.500 I-4.494 J-8.094 F720.000
G1 X25.329 Y-20.940 Z-0.500 F720.000
G1 X25.329 Y-11.060 Z-0.500 F720.000
G1 X25.329 Y-11.060 Z-1.000 F30.000
G1 X12.341 Y-11.060 Z-1.000 F720.000
G2 X8.130 Y-16.000 Z-1.000 I-8.765 J3.206 F720.000
G2 X12.341 Y-20.940 Z-1.000 I-4.494 J-8.094 F720.000
G1 X25.329 Y-20.940 Z-1.000 F720.000
G1 X25.329 Y-11.060 Z-1.000 F720.000
G0 X25.329 Y-11.060 Z5.000
G0 X25.329 Y5.040 Z5.000
G0 X25.329 Y5.040 Z2.000
G1 X25.329 Y5.040 Z-1.000 F30.000
G1 X33.379 Y5.040 Z-1.000 F720.000
G2 X43.413 Y-4.576 Z-1.000 I-0.009 J-10.053 F720.000
G1 X47.745 Y-4.576 Z-1.000 F720.000
G2 X61.944 Y-8.125 Z-1.000 I6.657 J-3.543 F720.000
G1 X61.944 Y-23.875 Z-1.000 F720.000
G2 X47.744 Y-27.424 Z-1.000 I-7.542 J-0.006 F720.000
G1 X43.413 Y-27.424 Z-1.000 F720.000
G2 X33.379 Y-37.040 Z-1.000 I-10.043 J0.437 F720.000
G1 X19.379 Y-37.040 Z-1.000 F720.000
G2 X17.785 Y-36.816 Z-1.000 I-0.017 J5.662 F720.000
G2 X16.187 Y-37.040 Z-1.000 I-1.446 J4.504 F720.000
G1 X6.988 Y-37.040 Z-1.000 F720.000
G2 X3.683 Y-36.057 Z-1.000 I-0.000 J6.050 F720.000
G1 X0.877 Y-34.227 Z-1.000 F720.000
G2 X-1.355 Y-31.598 Z-1.000 I3.305 J5.067 F720.000
G1 X-4.366 Y-24.759 Z-1.000 F720.000
G2 X-1.722 Y-16.001 Z-1.000 I6.419 J2.840 F720.000
G2 X-4.366 Y-7.241 Z-1.000 I3.781 J5.920 F720.000
G1 X-1.355 Y-0.402 Z-1.000 F720.000
G2 X0.877 Y2.227 Z-1.000 I5.537 J-2.438 F720.000
G1 X3.683 Y4.057 Z-1.000 F720.000
G2 X6.988 Y5.040 Z-1.000 I3.305 J-5.067 F720.000
G1 X16.187 Y5.040 Z-1.000 F720.000
G2 X17.781 Y4.816 Z-1.000 I0.017 J-5.662 F720.000
G2 X19.379 Y5.040 Z-1.000 I1.446 J-4.504 F720.000
G1 X25.329 Y5.040 Z-1.000 F720.000
G1 X25.329 Y5.040 Z-1.500 F30.000
G1 X33.379 Y5.040 Z-1.500 F720.000
G2 X43.413 Y-4.576 Z-1.500 I-0.009 J-10.053 F720.000
G1 X47.745 Y-4.576 Z-1.500 F720.000
G2 X61.944 Y-8.125 Z-1.500 I6.657 J-3.543 F720.000
G1 X61.944 Y-23.875 Z-1.500 F720.000
G2 X47.744 Y-27.424 Z-1.500 I-7.542 J-0.006 F720.000
G1 X43.413 Y-27.424 Z-1.500 F720.000
G2 X33.379 Y-37.040 Z-1.500 I-10.043 J0.437 F720.000
G1 X19.379 Y-37.040 Z-1.500 F720.000
G2 X17.785 Y-36.816 Z-1.500 I-0.017 J5.662 F720.000
G2 X16.187 Y-37.040 Z-1.500 I-1.446 J4.504 F720.000
G1 X6.988 Y-37.040 Z-1.500 F720.000
G2 X3.683 Y-36.057 Z-1.500 I-0.000 J6.050 F720.000
G1 X0.877 Y-34.227 Z-1.500 F720.000
G2 X-1.355 Y-31.598 Z-1.500 I3.305 J5.067 F720.000
G1 X-4.366 Y-24.759 Z-1.500 F720.000
G2 X-1.722 Y-16.001 Z-1.500 I6.419 J2.840 F720.000
G2 X-4.366 Y-7.241 Z-1.500 I3.781 J5.920 F720.000
G1 X-1.355 Y-0.402 Z-1.500 F720.000
G2 X0.877 Y2.227 Z-1.500 I5.537 J-2.438 F720.000
G1 X3.683 Y4.057 Z-1.500 F720.000
G2 X6.988 Y5.040 Z-1.500 I3.305 J-5.067 F720.000
G1 X16.187 Y5.040 Z-1.500 F720.000
G2 X17.781 Y4.816 Z-1.500 I0.017 J-5.662 F720.000
G2 X19.379 Y5.040 Z-1.500 I1.446 J-4.504 F720.000
G1 X25.329 Y5.040 Z-1.500 F720.000
G0 X25.329 Y5.040 Z5.000
G0 X25.329 Y-11.060 Z5.000
G0 X25.329 Y-11.060 Z1.500
G1 X25.329 Y-11.060 Z-1.500 F30.000
G1 X12.341 Y-11.060 Z-1.500 F720.000
G2 X8.130 Y-16.000 Z-1.500 I-8.765 J3.206 F720.000
G2 X12.341 Y-20.940 Z-1.500 I-4.494 J-8.094 F720.000
G1 X25.329 Y-20.940 Z-1.500 F720.000
G1 X25.329 Y-11.060 Z-1.500 F720.000
G1 X25.329 Y-11.060 Z-2.000 F30.000
G1 X12.341 Y-11.060 Z-2.000 F720.000
G2 X8.130 Y-16.000 Z-2.000 I-8.765 J3.206 F720.000
G2 X12.341 Y-20.940 Z-2.000 I-4.494 J-8.094 F720.000
G1 X25.329 Y-20.940 Z-2.000 F720.000
G1 X25.329 Y-11.060 Z-2.000 F720.000
G0 X25.329 Y-11.060 Z5.000
G0 X25.329 Y5.040 Z5.000
G0 X25.329 Y5.040 Z1.000
G1 X25.329 Y5.040 Z-2.000 F30.000
G1 X33.379 Y5.040 Z-2.000 F720.000
G2 X43.413 Y-4.576 Z-2.000 I-0.009 J-10.053 F720.000
G1 X47.745 Y-4.576 Z-2.000 F720.000
G2 X61.944 Y-8.125 Z-2.000 I6.657 J-3.543 F720.000
G1 X61.944 Y-23.875 Z-2.000 F720.000
G2 X47.744 Y-27.424 Z-2.000 I-7.542 J-0.006 F720.000
G1 X43.413 Y-27.424 Z-2.000 F720.000
G2 X33.379 Y-37.040 Z-2.000 I-10.043 J0.437 F720.000
G1 X19.379 Y-37.040 Z-2.000 F720.000
G2 X17.785 Y-36.816 Z-2.000 I-0.017 J5.662 F720.000
G2 X16.187 Y-37.040 Z-2.000 I-1.446 J4.504 F720.000
G1 X6.988 Y-37.040 Z-2.000 F720.000
G2 X3.683 Y-36.057 Z-2.000 I-0.000 J6.050 F720.000
G1 X0.877 Y-34.227 Z-2.000 F720.000
G2 X-1.355 Y-31.598 Z-2.000 I3.305 J5.067 F720.000
G1 X-4.366 Y-24.759 Z-2.000 F720.000
G2 X-1.722 Y-16.001 Z-2.000 I6.419 J2.840 F720.000
G2 X-4.366 Y-7.241 Z-2.000 I3.781 J5.920 F720.000
G1 X-1.355 Y-0.402 Z-2.000 F720.000
G2 X0.877 Y2.227 Z-2.000 I5.537 J-2.438 F720.000
G1 X3.683 Y4.057 Z-2.000 F720.000
G2 X6.988 Y5.040 Z-2.000 I3.305 J-5.067 F720.000
G1 X16.187 Y5.040 Z-2.000 F720.000
G2 X17.781 Y4.816 Z-2.000 I0.017 J-5.662 F720.000
G2 X19.379 Y5.040 Z-2.000 I1.446 J-4.504 F720.000
G1 X25.329 Y5.040 Z-2.000 F720.000
G1 X25.329 Y5.040 Z-2.500 F30.000
G1 X33.379 Y5.040 Z-2.500 F720.000
G2 X43.413 Y-4.576 Z-2.500 I-0.009 J-10.053 F720.000
G1 X47.745 Y-4.576 Z-2.500 F720.000
G2 X61.944 Y-8.125 Z-2.500 I6.657 J-3.543 F720.000
G1 X61.944 Y-23.875 Z-2.500 F720.000
G2 X47.744 Y-27.424 Z-2.500 I-7.542 J-0.006 F720.000
G1 X43.413 Y-27.424 Z-2.500 F720.000
G2 X33.379 Y-37.040 Z-2.500 I-10.043 J0.437 F720.000
G1 X19.379 Y-37.040 Z-2.500 F720.000
G2 X17.785 Y-36.816 Z-2.500 I-0.017 J5.662 F720.000
G2 X16.187 Y-37.040 Z-2.500 I-1.446 J4.504 F720.000
G1 X6.988 Y-37.040 Z-2.500 F720.000
G2 X3.683 Y-36.057 Z-2.500 I-0.000 J6.050 F720.000
G1 X0.877 Y-34.227 Z-2.500 F720.000
G2 X-1.355 Y-31.598 Z-2.500 I3.305 J5.067 F720.000
G1 X-4.366 Y-24.759 Z-2.500 F720.000
G2 X-1.722 Y-16.001 Z-2.500 I6.419 J2.840 F720.000
G2 X-4.366 Y-7.241 Z-2.500 I3.781 J5.920 F720.000
G1 X-1.355 Y-0.402 Z-2.500 F720.000
G2 X0.877 Y2.227 Z-2.500 I5.537 J-2.438 F720.000
G1 X3.683 Y4.057 Z-2.500 F720.000
G2 X6.988 Y5.040 Z-2.500 I3.305 J-5.067 F720.000
G1 X16.187 Y5.040 Z-2.500 F720.000
G2 X17.781 Y4.816 Z-2.500 I0.017 J-5.662 F720.000
G2 X19.379 Y5.040 Z-2.500 I1.446 J-4.504 F720.000
G1 X25.329 Y5.040 Z-2.500 F720.000
G0 X25.329 Y5.040 Z5.000
G0 X25.329 Y-11.060 Z5.000
G0 X25.329 Y-11.060 Z0.500
G1 X25.329 Y-11.060 Z-2.500 F30.000
G1 X12.341 Y-11.060 Z-2.500 F720.000
G2 X8.130 Y-16.000 Z-2.500 I-8.765 J3.206 F720.000
G2 X12.341 Y-20.940 Z-2.500 I-4.494 J-8.094 F720.000
G1 X25.329 Y-20.940 Z-2.500 F720.000
G1 X25.329 Y-11.060 Z-2.500 F720.000
G1 X25.329 Y-11.060 Z-3.000 F30.000
G1 X12.341 Y-11.060 Z-3.000 F720.000
G2 X8.130 Y-16.000 Z-3.000 I-8.765 J3.206 F720.000
G2 X12.341 Y-20.940 Z-3.000 I-4.494 J-8.094 F720.000
G1 X25.329 Y-20.940 Z-3.000 F720.000
G1 X25.329 Y-11.060 Z-3.000 F720.000
G0 X25.329 Y-11.060 Z5.000
G0 X25.329 Y5.040 Z5.000
G0 X25.329 Y5.040 Z0.000
G1 X25.329 Y5.040 Z-3.000 F30.000
G1 X33.379 Y5.040 Z-3.000 F720.000
G2 X43.413 Y-4.576 Z-3.000 I-0.009 J-10.053 F720.000
G1 X47.745 Y-4.576 Z-3.000 F720.000
G2 X61.944 Y-8.125 Z-3.000 I6.657 J-3.543 F720.000
G1 X61.944 Y-23.875 Z-3.000 F720.000
G2 X47.744 Y-27.424 Z-3.000 I-7.542 J-0.006 F720.000
G1 X43.413 Y-27.424 Z-3.000 F720.000
G2 X33.379 Y-37.040 Z-3.000 I-10.043 J0.437 F720.000
G1 X19.379 Y-37.040 Z-3.000 F720.000
G2 X17.785 Y-36.816 Z-3.000 I-0.017 J5.662 F720.000
G2 X16.187 Y-37.040 Z-3.000 I-1.446 J4.504 F720.000
G1 X6.988 Y-37.040 Z-3.000 F720.000
G2 X3.683 Y-36.057 Z-3.000 I-0.000 J6.050 F720.000
G1 X0.877 Y-34.227 Z-3.000 F720.000
G2 X-1.355 Y-31.598 Z-3.000 I3.305 J5.067 F720.000
G1 X-4.366 Y-24.759 Z-3.000 F720.000
G2 X-1.722 Y-16.001 Z-3.000 I6.419 J2.840 F720.000
G2 X-4.366 Y-7.241 Z-3.000 I3.781 J5.920 F720.000
G1 X-1.355 Y-0.402 Z-3.000 F720.000
G2 X0.877 Y2.227 Z-3.000 I5.537 J-2.438 F720.000
G1 X3.683 Y4.057 Z-3.000 F720.000
G2 X6.988 Y5.040 Z-3.000 I3.305 J-5.067 F720.000
G1 X16.187 Y5.040 Z-3.000 F720.000
G2 X17.781 Y4.816 Z-3.000 I0.017 J-5.662 F720.000
G2 X19.379 Y5.040 Z-3.000 I1.446 J-4.504 F720.000
G1 X25.329 Y5.040 Z-3.000 F720.000
G1 X25.329 Y5.040 Z-3.500 F30.000
G1 X33.379 Y5.040 Z-3.500 F720.000
G2 X43.413 Y-4.576 Z-3.500 I-0.009 J-10.053 F720.000
G1 X47.745 Y-4.576 Z-3.500 F720.000
G2 X61.944 Y-8.125 Z-3.500 I6.657 J-3.543 F720.000
G1 X61.944 Y-23.875 Z-3.500 F720.000
G2 X47.744 Y-27.424 Z-3.500 I-7.542 J-0.006 F720.000
G1 X43.413 Y-27.424 Z-3.500 F720.000
G2 X33.379 Y-37.040 Z-3.500 I-10.043 J0.437 F720.000
G1 X19.379 Y-37.040 Z-3.500 F720.000
G2 X17.785 Y-36.816 Z-3.500 I-0.017 J5.662 F720.000
G2 X16.187 Y-37.040 Z-3.500 I-1.446 J4.504 F720.000
G1 X6.988 Y-37.040 Z-3.500 F720.000
G2 X3.683 Y-36.057 Z-3.500 I-0.000 J6.050 F720.000
G1 X0.877 Y-34.227 Z-3.500 F720.000
G2 X-1.355 Y-31.598 Z-3.500 I3.305 J5.067 F720.000
G1 X-4.366 Y-24.759 Z-3.500 F720.000
G2 X-1.722 Y-16.001 Z-3.500 I6.419 J2.840 F720.000
G2 X-4.366 Y-7.241 Z-3.500 I3.781 J5.920 F720.000
G1 X-1.355 Y-0.402 Z-3.500 F720.000
G2 X0.877 Y2.227 Z-3.500 I5.537 J-2.438 F720.000
G1 X3.683 Y4.057 Z-3.500 F720.000
G2 X6.988 Y5.040 Z-3.500 I3.305 J-5.067 F720.000
G1 X16.187 Y5.040 Z-3.500 F720.000
G2 X17.781 Y4.816 Z-3.500 I0.017 J-5.662 F720.000
G2 X19.379 Y5.040 Z-3.500 I1.446 J-4.504 F720.000
G1 X25.329 Y5.040 Z-3.500 F720.000
G0 X25.329 Y5.040 Z5.000
G0 X25.329 Y-11.060 Z5.000
G0 X25.329 Y-11.060 Z-0.500
G1 X25.329 Y-11.060 Z-3.500 F30.000
G1 X12.341 Y-11.060 Z-3.500 F720.000
G2 X8.130 Y-16.000 Z-3.500 I-8.765 J3.206 F720.000
G2 X12.341 Y-20.940 Z-3.500 I-4.494 J-8.094 F720.000
G1 X25.329 Y-20.940 Z-3.500 F720.000
G1 X25.329 Y-11.060 Z-3.500 F720.000
G1 X25.329 Y-11.060 Z-4.000 F30.000
G1 X12.341 Y-11.060 Z-4.000 F720.000
G2 X8.130 Y-16.000 Z-4.000 I-8.765 J3.206 F720.000
G2 X12.341 Y-20.940 Z-4.000 I-4.494 J-8.094 F720.000
G1 X25.329 Y-20.940 Z-4.000 F720.000
G1 X25.329 Y-11.060 Z-4.000 F720.000
G0 X25.329 Y-11.060 Z5.000
G0 X25.329 Y5.040 Z5.000
G0 X25.329 Y5.040 Z-1.000
G1 X25.329 Y5.040 Z-4.000 F30.000
G1 X33.379 Y5.040 Z-4.000 F720.000
G2 X43.413 Y-4.576 Z-4.000 I-0.009 J-10.053 F720.000
G1 X47.745 Y-4.576 Z-4.000 F720.000
G2 X61.944 Y-8.125 Z-4.000 I6.657 J-3.543 F720.000
G1 X61.944 Y-23.875 Z-4.000 F720.000
G2 X47.744 Y-27.424 Z-4.000 I-7.542 J-0.006 F720.000
G1 X43.413 Y-27.424 Z-4.000 F720.000
G2 X33.379 Y-37.040 Z-4.000 I-10.043 J0.437 F720.000
G1 X19.379 Y-37.040 Z-4.000 F720.000
G2 X17.785 Y-36.816 Z-4.000 I-0.017 J5.662 F720.000
G2 X16.187 Y-37.040 Z-4.000 I-1.446 J4.504 F720.000
G1 X6.988 Y-37.040 Z-4.000 F720.000
G2 X3.683 Y-36.057 Z-4.000 I-0.000 J6.050 F720.000
G1 X0.877 Y-34.227 Z-4.000 F720.000
G2 X-1.355 Y-31.598 Z-4.000 I3.305 J5.067 F720.000
G1 X-4.366 Y-24.759 Z-4.000 F720.000
G2 X-1.722 Y-16.001 Z-4.000 I6.419 J2.840 F720.000
G2 X-4.366 Y-7.241 Z-4.000 I3.781 J5.920 F720.000
G1 X-1.355 Y-0.402 Z-4.000 F720.000
G2 X0.877 Y2.227 Z-4.000 I5.537 J-2.438 F720.000
G1 X3.683 Y4.057 Z-4.000 F720.000
G2 X6.988 Y5.040 Z-4.000 I3.305 J-5.067 F720.000
G1 X16.187 Y5.040 Z-4.000 F720.000
G2 X17.781 Y4.816 Z-4.000 I0.017 J-5.662 F720.000
G2 X19.379 Y5.040 Z-4.000 I1.446 J-4.504 F720.000
G1 X25.329 Y5.040 Z-4.000 F720.000
G1 X25.329 Y5.040 Z-4.500 F30.000
G1 X33.379 Y5.040 Z-4.500 F720.000
G2 X43.413 Y-4.576 Z-4.500 I-0.009 J-10.053 F720.000
G1 X47.745 Y-4.576 Z-4.500 F720.000
G2 X61.944 Y-8.125 Z-4.500 I6.657 J-3.543 F720.000
G1 X61.944 Y-23.875 Z-4.500 F720.000
G2 X47.744 Y-27.424 Z-4.500 I-7.542 J-0.006 F720.000
G1 X43.413 Y-27.424 Z-4.500 F720.000
G2 X33.379 Y-37.040 Z-4.500 I-10.043 J0.437 F720.000
G1 X19.379 Y-37.040 Z-4.500 F720.000
G2 X17.785 Y-36.816 Z-4.500 I-0.017 J5.662 F720.000
G2 X16.187 Y-37.040 Z-4.500 I-1.446 J4.504 F720.000
G1 X6.988 Y-37.040 Z-4.500 F720.000
G2 X3.683 Y-36.057 Z-4.500 I-0.000 J6.050 F720.000
G1 X0.877 Y-34.227 Z-4.500 F720.000
G2 X-1.355 Y-31.598 Z-4.500 I3.305 J5.067 F720.000
G1 X-4.366 Y-24.759 Z-4.500 F720.000
G2 X-1.722 Y-16.001 Z-4.500 I6.419 J2.840 F720.000
G2 X-4.366 Y-7.241 Z-4.500 I3.781 J5.920 F720.000
G1 X-1.355 Y-0.402 Z-4.500 F720.000
G2 X0.877 Y2.227 Z-4.500 I5.537 J-2.438 F720.000
G1 X3.683 Y4.057 Z-4.500 F720.000
G2 X6.988 Y5.040 Z-4.500 I3.305 J-5.067 F720.000
G1 X16.187 Y5.040 Z-4.500 F720.000
G2 X17.781 Y4.816 Z-4.500 I0.017 J-5.662 F720.000
G2 X19.379 Y5.040 Z-4.500 I1.446 J-4.504 F720.000
G1 X25.329 Y5.040 Z-4.500 F720.000
G0 X25.329 Y5.040 Z5.000
G0 X25.329 Y-11.060 Z5.000
G0 X25.329 Y-11.060 Z-1.500
G1 X25.329 Y-11.060 Z-4.500 F30.000
G1 X12.341 Y-11.060 Z-4.500 F720.000
G2 X8.130 Y-16.000 Z-4.500 I-8.765 J3.206 F720.000
G2 X12.341 Y-20.940 Z-4.500 I-4.494 J-8.094 F720.000
G1 X25.329 Y-20.940 Z-4.500 F720.000
G1 X25.329 Y-11.060 Z-4.500 F720.000
G1 X25.329 Y-11.060 Z-5.000 F30.000
G1 X12.341 Y-11.060 Z-5.000 F720.000
G2 X8.130 Y-16.000 Z-5.000 I-8.765 J3.206 F720.000
G2 X12.341 Y-20.940 Z-5.000 I-4.494 J-8.094 F720.000
G1 X25.329 Y-20.940 Z-5.000 F720.000
G1 X25.329 Y-11.060 Z-5.000 F720.000
G0 X25.329 Y-11.060 Z5.000
G0 X25.329 Y5.040 Z5.000
G0 X25.329 Y5.040 Z-2.000
G1 X25.329 Y5.040 Z-5.000 F30.000
G1 X33.379 Y5.040 Z-5.000 F720.000
G2 X43.413 Y-4.576 Z-5.000 I-0.009 J-10.053 F720.000
G1 X47.745 Y-4.576 Z-5.000 F720.000
G2 X61.944 Y-8.125 Z-5.000 I6.657 J-3.543 F720.000
G1 X61.944 Y-23.875 Z-5.000 F720.000
G2 X47.744 Y-27.424 Z-5.000 I-7.542 J-0.006 F720.000
G1 X43.413 Y-27.424 Z-5.000 F720.000
G2 X33.379 Y-37.040 Z-5.000 I-10.043 J0.437 F720.000
G1 X19.379 Y-37.040 Z-5.000 F720.000
G2 X17.785 Y-36.816 Z-5.000 I-0.017 J5.662 F720.000
G2 X16.187 Y-37.040 Z-5.000 I-1.446 J4.504 F720.000
G1 X6.988 Y-37.040 Z-5.000 F720.000
G2 X3.683 Y-36.057 Z-5.000 I-0.000 J6.050 F720.000
G1 X0.877 Y-34.227 Z-5.000 F720.000
G2 X-1.355 Y-31.598 Z-5.000 I3.305 J5.067 F720.000
G1 X-4.366 Y-24.759 Z-5.000 F720.000
G2 X-1.722 Y-16.001 Z-5.000 I6.419 J2.840 F720.000
G2 X-4.366 Y-7.241 Z-5.000 I3.781 J5.920 F720.000
G1 X-1.355 Y-0.402 Z-5.000 F720.000
G2 X0.877 Y2.227 Z-5.000 I5.537 J-2.438 F720.000
G1 X3.683 Y4.057 Z-5.000 F720.000
G2 X6.988 Y5.040 Z-5.000 I3.305 J-5.067 F720.000
G1 X16.187 Y5.040 Z-5.000 F720.000
G2 X17.781 Y4.816 Z-5.000 I0.017 J-5.662 F720.000
G2 X19.379 Y5.040 Z-5.000 I1.446 J-4.504 F720.000
G1 X25.329 Y5.040 Z-5.000 F720.000
G1 X25.329 Y5.040 Z-5.500 F30.000
G1 X33.379 Y5.040 Z-5.500 F720.000
G2 X43.413 Y-4.576 Z-5.500 I-0.009 J-10.053 F720.000
G1 X47.745 Y-4.576 Z-5.500 F720.000
G2 X61.944 Y-8.125 Z-5.500 I6.657 J-3.543 F720.000
G1 X61.944 Y-23.875 Z-5.500 F720.000
G2 X47.744 Y-27.424 Z-5.500 I-7.542 J-0.006 F720.000
G1 X43.413 Y-27.424 Z-5.500 F720.000
G2 X33.379 Y-37.040 Z-5.500 I-10.043 J0.437 F720.000
G1 X19.379 Y-37.040 Z-5.500 F720.000
G2 X17.785 Y-36.816 Z-5.500 I-0.017 J5.662 F720.000
G2 X16.187 Y-37.040 Z-5.500 I-1.446 J4.504 F720.000
G1 X6.988 Y-37.040 Z-5.500 F720.000
G2 X3.683 Y-36.057 Z-5.500 I-0.000 J6.050 F720.000
G1 X0.877 Y-34.227 Z-5.500 F720.000
G2 X-1.355 Y-31.598 Z-5.500 I3.305 J5.067 F720.000
G1 X-4.366 Y-24.759 Z-5.500 F720.000
G2 X-1.722 Y-16.001 Z-5.500 I6.419 J2.840 F720.000
G2 X-4.366 Y-7.241 Z-5.500 I3.781 J5.920 F720.000
G1 X-1.355 Y-0.402 Z-5.500 F720.000
G2 X0.877 Y2.227 Z-5.500 I5.537 J-2.438 F720.000
G1 X3.683 Y4.057 Z-5.500 F720.000
G2 X6.988 Y5.040 Z-5.500 I3.305 J-5.067 F720.000
G1 X16.187 Y5.040 Z-5.500 F720.000
G2 X17.781 Y4.816 Z-5.500 I0.017 J-5.662 F720.000
G2 X19.379 Y5.040 Z-5.500 I1.446 J-4.504 F720.000
G1 X25.329 Y5.040 Z-5.500 F720.000
G0 X25.329 Y5.040 Z5.000
G0 X25.329 Y-11.060 Z5.000
G0 X25.329 Y-11.060 Z-2.500
G1 X25.329 Y-11.060 Z-5.500 F30.000
G1 X12.341 Y-11.060 Z-5.500 F720.000
G2 X8.130 Y-16.000 Z-5.500 I-8.765 J3.206 F720.000
G2 X12.341 Y-20.940 Z-5.500 I-4.494 J-8.094 F720.000
G1 X25.329 Y-20.940 Z-5.500 F720.000
G1 X25.329 Y-11.060 Z-5.500 F720.000
G1 X25.329 Y-11.060 Z-6.000 F30.000
G1 X12.341 Y-11.060 Z-6.000 F720.000
G2 X8.130 Y-16.000 Z-6.000 I-8.765 J3.206 F720.000
G2 X12.341 Y-20.940 Z-6.000 I-4.494 J-8.094 F720.000
G1 X25.329 Y-20.940 Z-6.000 F720.000
G1 X25.329 Y-11.060 Z-6.000 F720.000
G0 X25.329 Y-11.060 Z5.000
G0 X25.329 Y5.040 Z5.000
G0 X25.329 Y5.040 Z-3.000
G1 X25.329 Y5.040 Z-6.000 F30.000
G1 X33.379 Y5.040 Z-6.000 F720.000
G2 X43.413 Y-4.576 Z-6.000 I-0.009 J-10.053 F720.000
G1 X47.745 Y-4.576 Z-6.000 F720.000
G2 X61.944 Y-8.125 Z-6.000 I6.657 J-3.543 F720.000
G1 X61.944 Y-23.875 Z-6.000 F720.000
G2 X47.744 Y-27.424 Z-6.000 I-7.542 J-0.006 F720.000
G1 X43.413 Y-27.424 Z-6.000 F720.000
G2 X33.379 Y-37.040 Z-6.000 I-10.043 J0.437 F720.000
G1 X19.379 Y-37.040 Z-6.000 F720.000
G2 X17.785 Y-36.816 Z-6.000 I-0.017 J5.662 F720.000
G2 X16.187 Y-37.040 Z-6.000 I-1.446 J4.504 F720.000
G1 X6.988 Y-37.040 Z-6.000 F720.000
G2 X3.683 Y-36.057 Z-6.000 I-0.000 J6.050 F720.000
G1 X0.877 Y-34.227 Z-6.000 F720.000
G2 X-1.355 Y-31.598 Z-6.000 I3.305 J5.067 F720.000
G1 X-4.366 Y-24.759 Z-6.000 F720.000
G2 X-1.722 Y-16.001 Z-6.000 I6.419 J2.840 F720.000
G2 X-4.366 Y-7.241 Z-6.000 I3.781 J5.920 F720.000
G1 X-1.355 Y-0.402 Z-6.000 F720.000
G2 X0.877 Y2.227 Z-6.000 I5.537 J-2.438 F720.000
G1 X3.683 Y4.057 Z-6.000 F720.000
G2 X6.988 Y5.040 Z-6.000 I3.305 J-5.067 F720.000
G1 X16.187 Y5.040 Z-6.000 F720.000
G2 X17.781 Y4.816 Z-6.000 I0.017 J-5.662 F720.000
G2 X19.379 Y5.040 Z-6.000 I1.446 J-4.504 F720.000
G1 X25.329 Y5.040 Z-6.000 F720.000
G1 X25.329 Y5.040 Z-6.500 F30.000
G1 X33.379 Y5.040 Z-6.500 F720.000
G2 X43.413 Y-4.576 Z-6.500 I-0.009 J-10.053 F720.000
G1 X47.745 Y-4.576 Z-6.500 F720.000
G2 X61.944 Y-8.125 Z-6.500 I6.657 J-3.543 F720.000
G1 X61.944 Y-23.875 Z-6.500 F720.000
G2 X47.744 Y-27.424 Z-6.500 I-7.542 J-0.006 F720.000
G1 X43.413 Y-27.424 Z-6.500 F720.000
G2 X33.379 Y-37.040 Z-6.500 I-10.043 J0.437 F720.000
G1 X19.379 Y-37.040 Z-6.500 F720.000
G2 X17.785 Y-36.816 Z-6.500 I-0.017 J5.662 F720.000
G2 X16.187 Y-37.040 Z-6.500 I-1.446 J4.504 F720.000
G1 X6.988 Y-37.040 Z-6.500 F720.000
G2 X3.683 Y-36.057 Z-6.500 I-0.000 J6.050 F720.000
G1 X0.877 Y-34.227 Z-6.500 F720.000
G2 X-1.355 Y-31.598 Z-6.500 I3.305 J5.067 F720.000
G1 X-4.366 Y-24.759 Z-6.500 F720.000
G2 X-1.722 Y-16.001 Z-6.500 I6.419 J2.840 F720.000
G2 X-4.366 Y-7.241 Z-6.500 I3.781 J5.920 F720.000
G1 X-1.355 Y-0.402 Z-6.500 F720.000
G2 X0.877 Y2.227 Z-6.500 I5.537 J-2.438 F720.000
G1 X3.683 Y4.057 Z-6.500 F720.000
G2 X6.988 Y5.040 Z-6.500 I3.305 J-5.067 F720.000
G1 X16.187 Y5.040 Z-6.500 F720.000
G2 X17.781 Y4.816 Z-6.500 I0.017 J-5.662 F720.000
G2 X19.379 Y5.040 Z-6.500 I1.446 J-4.504 F720.000
G1 X25.329 Y5.040 Z-6.500 F720.000
G0 X25.329 Y5.040 Z5.000
G0 X25.329 Y-11.060 Z5.000
G0 X25.329 Y-11.060 Z-3.500
G1 X25.329 Y-11.060 Z-6.500 F30.000
G1 X12.341 Y-11.060 Z-6.500 F720.000
G2 X8.130 Y-16.000 Z-6.500 I-8.765 J3.206 F720.000
G2 X12.341 Y-20.940 Z-6.500 I-4.494 J-8.094 F720.000
G1 X25.329 Y-20.940 Z-6.500 F720.000
G1 X25.329 Y-11.060 Z-6.500 F720.000
G1 X25.329 Y-11.060 Z-7.000 F30.000
G1 X12.341 Y-11.060 Z-7.000 F720.000
G2 X8.130 Y-16.000 Z-7.000 I-8.765 J3.206 F720.000
G2 X12.341 Y-20.940 Z-7.000 I-4.494 J-8.094 F720.000
G1 X25.329 Y-20.940 Z-7.000 F720.000
G1 X25.329 Y-11.060 Z-7.000 F720.000
G0 X25.329 Y-11.060 Z5.000
G0 X25.329 Y5.040 Z5.000
G0 X25.329 Y5.040 Z-4.000
G1 X25.329 Y5.040 Z-7.000 F30.000
G1 X33.379 Y5.040 Z-7.000 F720.000
G2 X43.413 Y-4.576 Z-7.000 I-0.009 J-10.053 F720.000
G1 X47.745 Y-4.576 Z-7.000 F720.000
G2 X61.944 Y-8.125 Z-7.000 I6.657 J-3.543 F720.000
G1 X61.944 Y-23.875 Z-7.000 F720.000
G2 X47.744 Y-27.424 Z-7.000 I-7.542 J-0.006 F720.000
G1 X43.413 Y-27.424 Z-7.000 F720.000
G2 X33.379 Y-37.040 Z-7.000 I-10.043 J0.437 F720.000
G1 X19.379 Y-37.040 Z-7.000 F720.000
G2 X17.785 Y-36.816 Z-7.000 I-0.017 J5.662 F720.000
G2 X16.187 Y-37.040 Z-7.000 I-1.446 J4.504 F720.000
G1 X6.988 Y-37.040 Z-7.000 F720.000
G2 X3.683 Y-36.057 Z-7.000 I-0.000 J6.050 F720.000
G1 X0.877 Y-34.227 Z-7.000 F720.000
G2 X-1.355 Y-31.598 Z-7.000 I3.305 J5.067 F720.000
G1 X-4.366 Y-24.759 Z-7.000 F720.000
G2 X-1.722 Y-16.001 Z-7.000 I6.419 J2.840 F720.000
G2 X-4.366 Y-7.241 Z-7.000 I3.781 J5.920 F720.000
G1 X-1.355 Y-0.402 Z-7.000 F720.000
G2 X0.877 Y2.227 Z-7.000 I5.537 J-2.438 F720.000
G1 X3.683 Y4.057 Z-7.000 F720.000
G2 X6.988 Y5.040 Z-7.000 I3.305 J-5.067 F720.000
G1 X16.187 Y5.040 Z-7.000 F720.000
G2 X17.781 Y4.816 Z-7.000 I0.017 J-5.662 F720.000
G2 X19.379 Y5.040 Z-7.000 I1.446 J-4.504 F720.000
G1 X25.329 Y5.040 Z-7.000 F720.000
G1 X25.329 Y5.040 Z-7.500 F30.000
G1 X33.379 Y5.040 Z-7.500 F720.000
G2 X43.413 Y-4.576 Z-7.500 I-0.009 J-10.053 F720.000
G1 X47.745 Y-4.576 Z-7.500 F720.000
G2 X61.944 Y-8.125 Z-7.500 I6.657 J-3.543 F720.000
G1 X61.944 Y-23.875 Z-7.500 F720.000
G2 X47.744 Y-27.424 Z-7.500 I-7.542 J-0.006 F720.000
G1 X43.413 Y-27.424 Z-7.500 F720.000
G2 X33.379 Y-37.040 Z-7.500 I-10.043 J0.437 F720.000
G1 X19.379 Y-37.040 Z-7.500 F720.000
G2 X17.785 Y-36.816 Z-7.500 I-0.017 J5.662 F720.000
G2 X16.187 Y-37.040 Z-7.500 I-1.446 J4.504 F720.000
G1 X6.988 Y-37.040 Z-7.500 F720.000
G2 X3.683 Y-36.057 Z-7.500 I-0.000 J6.050 F720.000
G1 X0.877 Y-34.227 Z-7.500 F720.000
G2 X-1.355 Y-31.598 Z-7.500 I3.305 J5.067 F720.000
G1 X-4.366 Y-24.759 Z-7.500 F720.000
G2 X-1.722 Y-16.001 Z-7.500 I6.419 J2.840 F720.000
G2 X-4.366 Y-7.241 Z-7.500 I3.781 J5.920 F720.000
G1 X-1.355 Y-0.402 Z-7.500 F720.000
G2 X0.877 Y2.227 Z-7.500 I5.537 J-2.438 F720.000
G1 X3.683 Y4.057 Z-7.500 F720.000
G2 X6.988 Y5.040 Z-7.500 I3.305 J-5.067 F720.000
G1 X16.187 Y5.040 Z-7.500 F720.000
G2 X17.781 Y4.816 Z-7.500 I0.017 J-5.662 F720.000
G2 X19.379 Y5.040 Z-7.500 I1.446 J-4.504 F720.000
G1 X25.329 Y5.040 Z-7.500 F720.000
G0 X25.329 Y5.040 Z5.000
G0 X25.329 Y-11.060 Z5.000
G0 X25.329 Y-11.060 Z-4.500
G1 X25.329 Y-11.060 Z-7.500 F30.000
G1 X12.341 Y-11.060 Z-7.500 F720.000
G2 X8.130 Y-16.000 Z-7.500 I-8.765 J3.206 F720.000
G2 X12.341 Y-20.940 Z-7.500 I-4.494 J-8.094 F720.000
G1 X25.329 Y-20.940 Z-7.500 F720.000
G1 X25.329 Y-11.060 Z-7.500 F720.000
G1 X25.329 Y-11.060 Z-8.000 F30.000
G1 X12.341 Y-11.060 Z-8.000 F720.000
G2 X8.130 Y-16.000 Z-8.000 I-8.765 J3.206 F720.000
G2 X12.341 Y-20.940 Z-8.000 I-4.494 J-8.094 F720.000
G1 X25.329 Y-20.940 Z-8.000 F720.000
G1 X25.329 Y-11.060 Z-8.000 F720.000
G0 X25.329 Y-11.060 Z5.000
G0 X25.329 Y5.040 Z5.000
G0 X25.329 Y5.040 Z-5.000
G1 X25.329 Y5.040 Z-8.000 F30.000
G1 X33.379 Y5.040 Z-8.000 F720.000
G2 X43.413 Y-4.576 Z-8.000 I-0.009 J-10.053 F720.000
G1 X47.745 Y-4.576 Z-8.000 F720.000
G2 X61.944 Y-8.125 Z-8.000 I6.657 J-3.543 F720.000
G1 X61.944 Y-23.875 Z-8.000 F720.000
G2 X47.744 Y-27.424 Z-8.000 I-7.542 J-0.006 F720.000
G1 X43.413 Y-27.424 Z-8.000 F720.000
G2 X33.379 Y-37.040 Z-8.000 I-10.043 J0.437 F720.000
G1 X19.379 Y-37.040 Z-8.000 F720.000
G2 X17.785 Y-36.816 Z-8.000 I-0.017 J5.662 F720.000
G2 X16.187 Y-37.040 Z-8.000 I-1.446 J4.504 F720.000
G1 X6.988 Y-37.040 Z-8.000 F720.000
G2 X3.683 Y-36.057 Z-8.000 I-0.000 J6.050 F720.000
G1 X0.877 Y-34.227 Z-8.000 F720.000
G2 X-1.355 Y-31.598 Z-8.000 I3.305 J5.067 F720.000
G1 X-4.366 Y-24.759 Z-8.000 F720.000
G2 X-1.722 Y-16.001 Z-8.000 I6.419 J2.840 F720.000
G2 X-4.366 Y-7.241 Z-8.000 I3.781 J5.920 F720.000
G1 X-1.355 Y-0.402 Z-8.000 F720.000
G2 X0.877 Y2.227 Z-8.000 I5.537 J-2.438 F720.000
G1 X3.683 Y4.057 Z-8.000 F720.000
G2 X6.988 Y5.040 Z-8.000 I3.305 J-5.067 F720.000
G1 X16.187 Y5.040 Z-8.000 F720.000
G2 X17.781 Y4.816 Z-8.000 I0.017 J-5.662 F720.000
G2 X19.379 Y5.040 Z-8.000 I1.446 J-4.504 F720.000
G1 X25.329 Y5.040 Z-8.000 F720.000
G1 X25.329 Y5.040 Z-8.500 F30.000
G1 X33.379 Y5.040 Z-8.500 F720.000
G2 X43.413 Y-4.576 Z-8.500 I-0.009 J-10.053 F720.000
G1 X47.745 Y-4.576 Z-8.500 F720.000
G2 X61.944 Y-8.125 Z-8.500 I6.657 J-3.543 F720.000
G1 X61.944 Y-23.875 Z-8.500 F720.000
G2 X47.744 Y-27.424 Z-8.500 I-7.542 J-0.006 F720.000
G1 X43.413 Y-27.424 Z-8.500 F720.000
G2 X33.379 Y-37.040 Z-8.500 I-10.043 J0.437 F720.000
G1 X19.379 Y-37.040 Z-8.500 F720.000
G2 X17.785 Y-36.816 Z-8.500 I-0.017 J5.662 F720.000
G2 X16.187 Y-37.040 Z-8.500 I-1.446 J4.504 F720.000
G1 X6.988 Y-37.040 Z-8.500 F720.000
G2 X3.683 Y-36.057 Z-8.500 I-0.000 J6.050 F720.000
G1 X0.877 Y-34.227 Z-8.500 F720.000
G2 X-1.355 Y-31.598 Z-8.500 I3.305 J5.067 F720.000
G1 X-4.366 Y-24.759 Z-8.500 F720.000
G2 X-1.722 Y-16.001 Z-8.500 I6.419 J2.840 F720.000
G2 X-4.366 Y-7.241 Z-8.500 I3.781 J5.920 F720.000
G1 X-1.355 Y-0.402 Z-8.500 F720.000
G2 X0.877 Y2.227 Z-8.500 I5.537 J-2.438 F720.000
G1 X3.683 Y4.057 Z-8.500 F720.000
G2 X6.988 Y5.040 Z-8.500 I3.305 J-5.067 F720.000
G1 X16.187 Y5.040 Z-8.500 F720.000
G2 X17.781 Y4.816 Z-8.500 I0.017 J-5.662 F720.000
G2 X19.379 Y5.040 Z-8.500 I1.446 J-4.504 F720.000
G1 X25.329 Y5.040 Z-8.500 F720.000
G0 X25.329 Y5.040 Z5.000
G0 X25.329 Y-11.060 Z5.000
G0 X25.329 Y-11.060 Z-5.500
G1 X25.329 Y-11.060 Z-8.500 F30.000
G1 X12.341 Y-11.060 Z-8.500 F720.000
G2 X8.130 Y-16.000 Z-8.500 I-8.765 J3.206 F720.000
G2 X12.341 Y-20.940 Z-8.500 I-4.494 J-8.094 F720.000
G1 X25.329 Y-20.940 Z-8.500 F720.000
G1 X25.329 Y-11.060 Z-8.500 F720.000
G1 X25.329 Y-11.060 Z-9.000 F30.000
G1 X12.341 Y-11.060 Z-9.000 F720.000
G2 X8.130 Y-16.000 Z-9.000 I-8.765 J3.206 F720.000
G2 X12.341 Y-20.940 Z-9.000 I-4.494 J-8.094 F720.000
G1 X25.329 Y-20.940 Z-9.000 F720.000
G1 X25.329 Y-11.060 Z-9.000 F720.000
G0 X25.329 Y-11.060 Z5.000
G0 X25.329 Y5.040 Z5.000
G0 X25.329 Y5.040 Z-6.000
G1 X25.329 Y5.040 Z-9.000 F30.000
G1 X33.379 Y5.040 Z-9.000 F720.000
G2 X43.413 Y-4.576 Z-9.000 I-0.009 J-10.053 F720.000
G1 X47.745 Y-4.576 Z-9.000 F720.000
G2 X61.944 Y-8.125 Z-9.000 I6.657 J-3.543 F720.000
G1 X61.944 Y-23.875 Z-9.000 F720.000
G2 X47.744 Y-27.424 Z-9.000 I-7.542 J-0.006 F720.000
G1 X43.413 Y-27.424 Z-9.000 F720.000
G2 X33.379 Y-37.040 Z-9.000 I-10.043 J0.437 F720.000
G1 X19.379 Y-37.040 Z-9.000 F720.000
G2 X17.785 Y-36.816 Z-9.000 I-0.017 J5.662 F720.000
G2 X16.187 Y-37.040 Z-9.000 I-1.446 J4.504 F720.000
G1 X6.988 Y-37.040 Z-9.000 F720.000
G2 X3.683 Y-36.057 Z-9.000 I-0.000 J6.050 F720.000
G1 X0.877 Y-34.227 Z-9.000 F720.000
G2 X-1.355 Y-31.598 Z-9.000 I3.305 J5.067 F720.000
G1 X-4.366 Y-24.759 Z-9.000 F720.000
G2 X-1.722 Y-16.001 Z-9.000 I6.419 J2.840 F720.000
G2 X-4.366 Y-7.241 Z-9.000 I3.781 J5.920 F720.000
G1 X-1.355 Y-0.402 Z-9.000 F720.000
G2 X0.877 Y2.227 Z-9.000 I5.537 J-2.438 F720.000
G1 X3.683 Y4.057 Z-9.000 F720.000
G2 X6.988 Y5.040 Z-9.000 I3.305 J-5.067 F720.000
G1 X16.187 Y5.040 Z-9.000 F720.000
G2 X17.781 Y4.816 Z-9.000 I0.017 J-5.662 F720.000
G2 X19.379 Y5.040 Z-9.000 I1.446 J-4.504 F720.000
G1 X25.329 Y5.040 Z-9.000 F720.000
G1 X25.329 Y5.040 Z-9.500 F30.000
G1 X33.379 Y5.040 Z-9.500 F720.000
G2 X43.413 Y-4.576 Z-9.500 I-0.009 J-10.053 F720.000
G1 X47.745 Y-4.576 Z-9.500 F720.000
G2 X61.944 Y-8.125 Z-9.500 I6.657 J-3.543 F720.000
G1 X61.944 Y-23.875 Z-9.500 F720.000
G2 X47.744 Y-27.424 Z-9.500 I-7.542 J-0.006 F720.000
G1 X43.413 Y-27.424 Z-9.500 F720.000
G2 X33.379 Y-37.040 Z-9.500 I-10.043 J0.437 F720.000
G1 X19.379 Y-37.040 Z-9.500 F720.000
G2 X17.785 Y-36.816 Z-9.500 I-0.017 J5.662 F720.000
G2 X16.187 Y-37.040 Z-9.500 I-1.446 J4.504 F720.000
G1 X6.988 Y-37.040 Z-9.500 F720.000
G2 X3.683 Y-36.057 Z-9.500 I-0.000 J6.050 F720.000
G1 X0.877 Y-34.227 Z-9.500 F720.000
G2 X-1.355 Y-31.598 Z-9.500 I3.305 J5.067 F720.000
G1 X-4.366 Y-24.759 Z-9.500 F720.000
G2 X-1.722 Y-16.001 Z-9.500 I6.419 J2.840 F720.000
G2 X-4.366 Y-7.241 Z-9.500 I3.781 J5.920 F720.000
G1 X-1.355 Y-0.402 Z-9.500 F720.000
G2 X0.877 Y2.227 Z-9.500 I5.537 J-2.438 F720.000
G1 X3.683 Y4.057 Z-9.500 F720.000
G2 X6.988 Y5.040 Z-9.500 I3.305 J-5.067 F720.000
G1 X16.187 Y5.040 Z-9.500 F720.000
G2 X17.781 Y4.816 Z-9.500 I0.017 J-5.662 F720.000
G2 X19.379 Y5.040 Z-9.500 I1.446 J-4.504 F720.000
G1 X25.329 Y5.040 Z-9.500 F720.000
G0 X25.329 Y5.040 Z5.000
G0 X25.329 Y-11.060 Z5.000
G0 X25.329 Y-11.060 Z-6.500
G1 X25.329 Y-11.060 Z-9.500 F30.000
G1 X12.341 Y-11.060 Z-9.500 F720.000
G2 X8.130 Y-16.000 Z-9.500 I-8.765 J3.206 F720.000
G2 X12.341 Y-20.940 Z-9.500 I-4.494 J-8.094 F720.000
G1 X25.329 Y-20.940 Z-9.500 F720.000
G1 X25.329 Y-11.060 Z-9.500 F720.000
G1 X25.329 Y-11.060 Z-10.000 F30.000
G1 X12.341 Y-11.060 Z-10.000 F720.000
G2 X8.130 Y-16.000 Z-10.000 I-8.765 J3.206 F720.000
G2 X12.341 Y-20.940 Z-10.000 I-4.494 J-8.094 F720.000
G1 X25.329 Y-20.940 Z-10.000 F720.000
G1 X25.329 Y-11.060 Z-10.000 F720.000
G0 X25.329 Y-11.060 Z5.000
G0 X25.329 Y5.040 Z5.000
G0 X25.329 Y5.040 Z-7.000
G1 X25.329 Y5.040 Z-10.000 F30.000
G1 X33.379 Y5.040 Z-10.000 F720.000
G2 X43.413 Y-4.576 Z-10.000 I-0.009 J-10.053 F720.000
G1 X47.745 Y-4.576 Z-10.000 F720.000
G2 X61.944 Y-8.125 Z-10.000 I6.657 J-3.543 F720.000
G1 X61.944 Y-23.875 Z-10.000 F720.000
G2 X47.744 Y-27.424 Z-10.000 I-7.542 J-0.006 F720.000
G1 X43.413 Y-27.424 Z-10.000 F720.000
G2 X33.379 Y-37.040 Z-10.000 I-10.043 J0.437 F720.000
G1 X19.379 Y-37.040 Z-10.000 F720.000
G2 X17.785 Y-36.816 Z-10.000 I-0.017 J5.662 F720.000
G2 X16.187 Y-37.040 Z-10.000 I-1.446 J4.504 F720.000
G1 X6.988 Y-37.040 Z-10.000 F720.000
G2 X3.683 Y-36.057 Z-10.000 I-0.000 J6.050 F720.000
G1 X0.877 Y-34.227 Z-10.000 F720.000
G2 X-1.355 Y-31.598 Z-10.000 I3.305 J5.067 F720.000
G1 X-4.366 Y-24.759 Z-10.000 F720.000
G2 X-1.722 Y-16.001 Z-10.000 I6.419 J2.840 F720.000
G2 X-4.366 Y-7.241 Z-10.000 I3.781 J5.920 F720.000
G1 X-1.355 Y-0.402 Z-10.000 F720.000
G2 X0.877 Y2.227 Z-10.000 I5.537 J-2.438 F720.000
G1 X3.683 Y4.057 Z-10.000 F720.000
G2 X6.988 Y5.040 Z-10.000 I3.305 J-5.067 F720.000
G1 X16.187 Y5.040 Z-10.000 F720.000
G2 X17.781 Y4.816 Z-10.000 I0.017 J-5.662 F720.000
G2 X19.379 Y5.040 Z-10.000 I1.446 J-4.504 F720.000
G1 X25.329 Y5.040 Z-10.000 F720.000
G1 X25.329 Y5.040 Z-10.500 F30.000
G1 X33.379 Y5.040 Z-10.500 F720.000
G2 X43.413 Y-4.576 Z-10.500 I-0.009 J-10.053 F720.000
G1 X47.745 Y-4.576 Z-10.500 F720.000
G2 X61.944 Y-8.125 Z-10.500 I6.657 J-3.543 F720.000
G1 X61.944 Y-23.875 Z-10.500 F720.000
G2 X47.744 Y-27.424 Z-10.500 I-7.542 J-0.006 F720.000
G1 X43.413 Y-27.424 Z-10.500 F720.000
G2 X33.379 Y-37.040 Z-10.500 I-10.043 J0.437 F720.000
G1 X19.379 Y-37.040 Z-10.500 F720.000
G2 X17.785 Y-36.816 Z-10.500 I-0.017 J5.662 F720.000
G2 X16.187 Y-37.040 Z-10.500 I-1.446 J4.504 F720.000
G1 X6.988 Y-37.040 Z-10.500 F720.000
G2 X3.683 Y-36.057 Z-10.500 I-0.000 J6.050 F720.000
G1 X0.877 Y-34.227 Z-10.500 F720.000
G2 X-1.355 Y-31.598 Z-10.500 I3.305 J5.067 F720.000
G1 X-4.366 Y-24.759 Z-10.500 F720.000
G2 X-1.722 Y-16.001 Z-10.500 I6.419 J2.840 F720.000
G2 X-4.366 Y-7.241 Z-10.500 I3.781 J5.920 F720.000
G1 X-1.355 Y-0.402 Z-10.500 F720.000
G2 X0.877 Y2.227 Z-10.500 I5.537 J-2.438 F720.000
G1 X3.683 Y4.057 Z-10.500 F720.000
G2 X6.988 Y5.040 Z-10.500 I3.305 J-5.067 F720.000
G1 X16.187 Y5.040 Z-10.500 F720.000
G2 X17.781 Y4.816 Z-10.500 I0.017 J-5.662 F720.000
G2 X19.379 Y5.040 Z-10.500 I1.446 J-4.504 F720.000
G1 X25.329 Y5.040 Z-10.500 F720.000
G0 X25.329 Y5.040 Z5.000
G0 X25.329 Y-11.060 Z5.000
G0 X25.329 Y-11.060 Z-7.500
G1 X25.329 Y-11.060 Z-10.500 F30.000
G1 X12.341 Y-11.060 Z-10.500 F720.000
G2 X8.130 Y-16.000 Z-10.500 I-8.765 J3.206 F720.000
G2 X12.341 Y-20.940 Z-10.500 I-4.494 J-8.094 F720.000
G1 X25.329 Y-20.940 Z-10.500 F720.000
G1 X25.329 Y-11.060 Z-10.500 F720.000
G0 Z5.000
(finish operation: Profile_Edges)
(begin operation: T6: 4mm Endmill)
(machine: not set, mm/min)
(T6: 4mm Endmill)
M6 T6 G43 H6
M3 S3000
(finish operation: T6: 4mm Endmill)
(begin operation: Profile_Edges001)
(machine: not set, mm/min)
(Profile_Edges001)
(Compensated Tool Path. Diameter: 4.0)
G0 Z5.000
G0 X55.648 Y-4.863
G0 Z3.000
G1 X55.648 Y-4.863 Z-0.250 F12.000
G2 X57.894 Y-8.125 Z-0.250 I-1.253 J-3.267 F240.000
G1 X57.894 Y-23.875 Z-0.250 F240.000
G2 X52.046 Y-26.461 Z-0.250 I-3.498 J0.006 F240.000
G2 X50.895 Y-23.374 Z-0.250 I2.496 J2.689 F240.000
G1 X41.444 Y-23.374 Z-0.250 F240.000
G3 X39.400 Y-25.114 Z-0.250 I-0.055 J-2.006 F240.000
G3 X39.379 Y-26.990 Z-0.250 I14.302 J-1.101 F240.000
G2 X33.510 Y-32.986 Z-0.250 I-6.002 J0.005 F240.000
G1 X19.379 Y-32.990 Z-0.250 F240.000
G2 X18.540 Y-32.806 Z-0.250 I0.000 J2.000 F240.000
G3 X17.326 Y-32.667 Z-0.250 I-0.746 J-1.149 F240.000
G2 X16.187 Y-32.990 Z-0.250 I-1.305 J2.430 F240.000
G1 X6.988 Y-32.990 Z-0.250 F240.000
G2 X5.895 Y-32.665 Z-0.250 I-0.000 J2.000 F240.000
G1 X3.089 Y-30.835 Z-0.250 F240.000
G2 X2.352 Y-29.966 Z-0.250 I1.093 J1.675 F240.000
G1 X-0.660 Y-23.127 Z-0.250 F240.000
G2 X1.838 Y-18.933 Z-0.250 I2.750 J1.203 F240.000
G2 X3.763 Y-18.918 Z-0.250 I1.086 J-15.485 F240.000
G2 X8.276 Y-21.773 Z-0.250 I-0.008 J-5.007 F240.000
G1 X9.406 Y-24.325 Z-0.250 F240.000
G3 X10.423 Y-24.990 Z-0.250 I0.967 J0.369 F240.000
G1 X27.313 Y-24.990 Z-0.250 F240.000
G3 X29.379 Y-22.925 Z-0.250 I0.053 J2.012 F240.000
G1 X29.379 Y-9.075 Z-0.250 F240.000
G3 X27.313 Y-7.010 Z-0.250 I-2.012 J0.053 F240.000
G1 X10.423 Y-7.010 Z-0.250 F240.000
G3 X9.407 Y-7.673 Z-0.250 I-0.051 J-1.033 F240.000
G1 X8.339 Y-10.097 Z-0.250 F240.000
G2 X3.908 Y-13.077 Z-0.250 I-4.579 J2.025 F240.000
G1 X2.086 Y-13.082 Z-0.250 F240.000
G2 X-0.660 Y-8.873 Z-0.250 I0.010 J3.006 F240.000
G1 X2.352 Y-2.034 Z-0.250 F240.000
G2 X3.089 Y-1.165 Z-0.250 I1.830 J-0.806 F240.000
G1 X5.895 Y0.665 Z-0.250 F240.000
G2 X6.988 Y0.990 Z-0.250 I1.093 J-1.675 F240.000
G1 X16.187 Y0.990 Z-0.250 F240.000
G2 X17.026 Y0.806 Z-0.250 I-0.000 J-2.000 F240.000
G3 X18.240 Y0.667 Z-0.250 I0.746 J1.149 F240.000
G2 X19.379 Y0.990 Z-0.250 I1.305 J-2.430 F240.000
G1 X33.379 Y0.990 Z-0.250 F240.000
G2 X39.340 Y-4.357 Z-0.250 I-0.005 J-6.003 F240.000
G2 X39.379 Y-6.558 Z-0.250 I-17.424 J-1.404 F240.000
G3 X41.444 Y-8.626 Z-0.250 I2.012 J-0.056 F240.000
G1 X50.895 Y-8.626 Z-0.250 F240.000
G1 X50.896 Y-8.121 Z-0.250 F240.000
G2 X55.648 Y-4.863 Z-0.250 I3.499 J-0.009 F240.000
G1 X55.648 Y-4.863 Z-0.500 F12.000
G2 X57.894 Y-8.125 Z-0.500 I-1.253 J-3.267 F240.000
G1 X57.894 Y-23.875 Z-0.500 F240.000
G2 X52.046 Y-26.461 Z-0.500 I-3.498 J0.006 F240.000
G2 X50.895 Y-23.374 Z-0.500 I2.496 J2.689 F240.000
G1 X41.444 Y-23.374 Z-0.500 F240.000
G3 X39.400 Y-25.114 Z-0.500 I-0.055 J-2.006 F240.000
G3 X39.379 Y-26.990 Z-0.500 I14.302 J-1.101 F240.000
G2 X33.510 Y-32.986 Z-0.500 I-6.002 J0.005 F240.000
G1 X19.379 Y-32.990 Z-0.500 F240.000
G2 X18.540 Y-32.806 Z-0.500 I0.000 J2.000 F240.000
G3 X17.326 Y-32.667 Z-0.500 I-0.746 J-1.149 F240.000
G2 X16.187 Y-32.990 Z-0.500 I-1.305 J2.430 F240.000
G1 X6.988 Y-32.990 Z-0.500 F240.000
G2 X5.895 Y-32.665 Z-0.500 I-0.000 J2.000 F240.000
G1 X3.089 Y-30.835 Z-0.500 F240.000
G2 X2.352 Y-29.966 Z-0.500 I1.093 J1.675 F240.000
G1 X-0.660 Y-23.127 Z-0.500 F240.000
G2 X1.838 Y-18.933 Z-0.500 I2.750 J1.203 F240.000
G2 X3.763 Y-18.918 Z-0.500 I1.086 J-15.485 F240.000
G2 X8.276 Y-21.773 Z-0.500 I-0.008 J-5.007 F240.000
G1 X9.406 Y-24.325 Z-0.500 F240.000
G3 X10.423 Y-24.990 Z-0.500 I0.967 J0.369 F240.000
G1 X27.313 Y-24.990 Z-0.500 F240.000
G3 X29.379 Y-22.925 Z-0.500 I0.053 J2.012 F240.000
G1 X29.379 Y-9.075 Z-0.500 F240.000
G3 X27.313 Y-7.010 Z-0.500 I-2.012 J0.053 F240.000
G1 X10.423 Y-7.010 Z-0.500 F240.000
G3 X9.407 Y-7.673 Z-0.500 I-0.051 J-1.033 F240.000
G1 X8.339 Y-10.097 Z-0.500 F240.000
G2 X3.908 Y-13.077 Z-0.500 I-4.579 J2.025 F240.000
G1 X2.086 Y-13.082 Z-0.500 F240.000
G2 X-0.660 Y-8.873 Z-0.500 I0.010 J3.006 F240.000
G1 X2.352 Y-2.034 Z-0.500 F240.000
G2 X3.089 Y-1.165 Z-0.500 I1.830 J-0.806 F240.000
G1 X5.895 Y0.665 Z-0.500 F240.000
G2 X6.988 Y0.990 Z-0.500 I1.093 J-1.675 F240.000
G1 X16.187 Y0.990 Z-0.500 F240.000
G2 X17.026 Y0.806 Z-0.500 I-0.000 J-2.000 F240.000
G3 X18.240 Y0.667 Z-0.500 I0.746 J1.149 F240.000
G2 X19.379 Y0.990 Z-0.500 I1.305 J-2.430 F240.000
G1 X33.379 Y0.990 Z-0.500 F240.000
G2 X39.340 Y-4.357 Z-0.500 I-0.005 J-6.003 F240.000
G2 X39.379 Y-6.558 Z-0.500 I-17.424 J-1.404 F240.000
G3 X41.444 Y-8.626 Z-0.500 I2.012 J-0.056 F240.000
G1 X50.895 Y-8.626 Z-0.500 F240.000
G1 X50.896 Y-8.121 Z-0.500 F240.000
G2 X55.648 Y-4.863 Z-0.500 I3.499 J-0.009 F240.000
G1 X55.648 Y-4.863 Z-0.750 F12.000
G2 X57.894 Y-8.125 Z-0.750 I-1.253 J-3.267 F240.000
G1 X57.894 Y-23.875 Z-0.750 F240.000
G2 X52.046 Y-26.461 Z-0.750 I-3.498 J0.006 F240.000
G2 X50.895 Y-23.374 Z-0.750 I2.496 J2.689 F240.000
G1 X41.444 Y-23.374 Z-0.750 F240.000
G3 X39.400 Y-25.114 Z-0.750 I-0.055 J-2.006 F240.000
G3 X39.379 Y-26.990 Z-0.750 I14.302 J-1.101 F240.000
G2 X33.510 Y-32.986 Z-0.750 I-6.002 J0.005 F240.000
G1 X19.379 Y-32.990 Z-0.750 F240.000
G2 X18.540 Y-32.806 Z-0.750 I0.000 J2.000 F240.000
G3 X17.326 Y-32.667 Z-0.750 I-0.746 J-1.149 F240.000
G2 X16.187 Y-32.990 Z-0.750 I-1.305 J2.430 F240.000
G1 X6.988 Y-32.990 Z-0.750 F240.000
G2 X5.895 Y-32.665 Z-0.750 I-0.000 J2.000 F240.000
G1 X3.089 Y-30.835 Z-0.750 F240.000
G2 X2.352 Y-29.966 Z-0.750 I1.093 J1.675 F240.000
G1 X-0.660 Y-23.127 Z-0.750 F240.000
G2 X1.838 Y-18.933 Z-0.750 I2.750 J1.203 F240.000
G2 X3.763 Y-18.918 Z-0.750 I1.086 J-15.485 F240.000
G2 X8.276 Y-21.773 Z-0.750 I-0.008 J-5.007 F240.000
G1 X9.406 Y-24.325 Z-0.750 F240.000
G3 X10.423 Y-24.990 Z-0.750 I0.967 J0.369 F240.000
G1 X27.313 Y-24.990 Z-0.750 F240.000
G3 X29.379 Y-22.925 Z-0.750 I0.053 J2.012 F240.000
G1 X29.379 Y-9.075 Z-0.750 F240.000
G3 X27.313 Y-7.010 Z-0.750 I-2.012 J0.053 F240.000
G1 X10.423 Y-7.010 Z-0.750 F240.000
G3 X9.407 Y-7.673 Z-0.750 I-0.051 J-1.033 F240.000
G1 X8.339 Y-10.097 Z-0.750 F240.000
G2 X3.908 Y-13.077 Z-0.750 I-4.579 J2.025 F240.000
G1 X2.086 Y-13.082 Z-0.750 F240.000
G2 X-0.660 Y-8.873 Z-0.750 I0.010 J3.006 F240.000
G1 X2.352 Y-2.034 Z-0.750 F240.000
G2 X3.089 Y-1.165 Z-0.750 I1.830 J-0.806 F240.000
G1 X5.895 Y0.665 Z-0.750 F240.000
G2 X6.988 Y0.990 Z-0.750 I1.093 J-1.675 F240.000
G1 X16.187 Y0.990 Z-0.750 F240.000
G2 X17.026 Y0.806 Z-0.750 I-0.000 J-2.000 F240.000
G3 X18.240 Y0.667 Z-0.750 I0.746 J1.149 F240.000
G2 X19.379 Y0.990 Z-0.750 I1.305 J-2.430 F240.000
G1 X33.379 Y0.990 Z-0.750 F240.000
G2 X39.340 Y-4.357 Z-0.750 I-0.005 J-6.003 F240.000
G2 X39.379 Y-6.558 Z-0.750 I-17.424 J-1.404 F240.000
G3 X41.444 Y-8.626 Z-0.750 I2.012 J-0.056 F240.000
G1 X50.895 Y-8.626 Z-0.750 F240.000
G1 X50.896 Y-8.121 Z-0.750 F240.000
G2 X55.648 Y-4.863 Z-0.750 I3.499 J-0.009 F240.000
G1 X55.648 Y-4.863 Z-1.000 F12.000
G2 X57.894 Y-8.125 Z-1.000 I-1.253 J-3.267 F240.000
G1 X57.894 Y-23.875 Z-1.000 F240.000
G2 X52.046 Y-26.461 Z-1.000 I-3.498 J0.006 F240.000
G2 X50.895 Y-23.374 Z-1.000 I2.496 J2.689 F240.000
G1 X41.444 Y-23.374 Z-1.000 F240.000
G3 X39.400 Y-25.114 Z-1.000 I-0.055 J-2.006 F240.000
G3 X39.379 Y-26.990 Z-1.000 I14.302 J-1.101 F240.000
G2 X33.510 Y-32.986 Z-1.000 I-6.002 J0.005 F240.000
G1 X19.379 Y-32.990 Z-1.000 F240.000
G2 X18.540 Y-32.806 Z-1.000 I0.000 J2.000 F240.000
G3 X17.326 Y-32.667 Z-1.000 I-0.746 J-1.149 F240.000
G2 X16.187 Y-32.990 Z-1.000 I-1.305 J2.430 F240.000
G1 X6.988 Y-32.990 Z-1.000 F240.000
G2 X5.895 Y-32.665 Z-1.000 I-0.000 J2.000 F240.000
G1 X3.089 Y-30.835 Z-1.000 F240.000
G2 X2.352 Y-29.966 Z-1.000 I1.093 J1.675 F240.000
G1 X-0.660 Y-23.127 Z-1.000 F240.000
G2 X1.838 Y-18.933 Z-1.000 I2.750 J1.203 F240.000
G2 X3.763 Y-18.918 Z-1.000 I1.086 J-15.485 F240.000
G2 X8.276 Y-21.773 Z-1.000 I-0.008 J-5.007 F240.000
G1 X9.406 Y-24.325 Z-1.000 F240.000
G3 X10.423 Y-24.990 Z-1.000 I0.967 J0.369 F240.000
G1 X27.313 Y-24.990 Z-1.000 F240.000
G3 X29.379 Y-22.925 Z-1.000 I0.053 J2.012 F240.000
G1 X29.379 Y-9.075 Z-1.000 F240.000
G3 X27.313 Y-7.010 Z-1.000 I-2.012 J0.053 F240.000
G1 X10.423 Y-7.010 Z-1.000 F240.000
G3 X9.407 Y-7.673 Z-1.000 I-0.051 J-1.033 F240.000
G1 X8.339 Y-10.097 Z-1.000 F240.000
G2 X3.908 Y-13.077 Z-1.000 I-4.579 J2.025 F240.000
G1 X2.086 Y-13.082 Z-1.000 F240.000
G2 X-0.660 Y-8.873 Z-1.000 I0.010 J3.006 F240.000
G1 X2.352 Y-2.034 Z-1.000 F240.000
G2 X3.089 Y-1.165 Z-1.000 I1.830 J-0.806 F240.000
G1 X5.895 Y0.665 Z-1.000 F240.000
G2 X6.988 Y0.990 Z-1.000 I1.093 J-1.675 F240.000
G1 X16.187 Y0.990 Z-1.000 F240.000
G2 X17.026 Y0.806 Z-1.000 I-0.000 J-2.000 F240.000
G3 X18.240 Y0.667 Z-1.000 I0.746 J1.149 F240.000
G2 X19.379 Y0.990 Z-1.000 I1.305 J-2.430 F240.000
G1 X33.379 Y0.990 Z-1.000 F240.000
G2 X39.340 Y-4.357 Z-1.000 I-0.005 J-6.003 F240.000
G2 X39.379 Y-6.558 Z-1.000 I-17.424 J-1.404 F240.000
G3 X41.444 Y-8.626 Z-1.000 I2.012 J-0.056 F240.000
G1 X50.895 Y-8.626 Z-1.000 F240.000
G1 X50.896 Y-8.121 Z-1.000 F240.000
G2 X55.648 Y-4.863 Z-1.000 I3.499 J-0.009 F240.000
G1 X55.648 Y-4.863 Z-1.250 F12.000
G2 X57.894 Y-8.125 Z-1.250 I-1.253 J-3.267 F240.000
G1 X57.894 Y-23.875 Z-1.250 F240.000
G2 X52.046 Y-26.461 Z-1.250 I-3.498 J0.006 F240.000
G2 X50.895 Y-23.374 Z-1.250 I2.496 J2.689 F240.000
G1 X41.444 Y-23.374 Z-1.250 F240.000
G3 X39.400 Y-25.114 Z-1.250 I-0.055 J-2.006 F240.000
G3 X39.379 Y-26.990 Z-1.250 I14.302 J-1.101 F240.000
G2 X33.510 Y-32.986 Z-1.250 I-6.002 J0.005 F240.000
G1 X19.379 Y-32.990 Z-1.250 F240.000
G2 X18.540 Y-32.806 Z-1.250 I0.000 J2.000 F240.000
G3 X17.326 Y-32.667 Z-1.250 I-0.746 J-1.149 F240.000
G2 X16.187 Y-32.990 Z-1.250 I-1.305 J2.430 F240.000
G1 X6.988 Y-32.990 Z-1.250 F240.000
G2 X5.895 Y-32.665 Z-1.250 I-0.000 J2.000 F240.000
G1 X3.089 Y-30.835 Z-1.250 F240.000
G2 X2.352 Y-29.966 Z-1.250 I1.093 J1.675 F240.000
G1 X-0.660 Y-23.127 Z-1.250 F240.000
G2 X1.838 Y-18.933 Z-1.250 I2.750 J1.203 F240.000
G2 X3.763 Y-18.918 Z-1.250 I1.086 J-15.485 F240.000
G2 X8.276 Y-21.773 Z-1.250 I-0.008 J-5.007 F240.000
G1 X9.406 Y-24.325 Z-1.250 F240.000
G3 X10.423 Y-24.990 Z-1.250 I0.967 J0.369 F240.000
G1 X27.313 Y-24.990 Z-1.250 F240.000
G3 X29.379 Y-22.925 Z-1.250 I0.053 J2.012 F240.000
G1 X29.379 Y-9.075 Z-1.250 F240.000
G3 X27.313 Y-7.010 Z-1.250 I-2.012 J0.053 F240.000
G1 X10.423 Y-7.010 Z-1.250 F240.000
G3 X9.407 Y-7.673 Z-1.250 I-0.051 J-1.033 F240.000
G1 X8.339 Y-10.097 Z-1.250 F240.000
G2 X3.908 Y-13.077 Z-1.250 I-4.579 J2.025 F240.000
G1 X2.086 Y-13.082 Z-1.250 F240.000
G2 X-0.660 Y-8.873 Z-1.250 I0.010 J3.006 F240.000
G1 X2.352 Y-2.034 Z-1.250 F240.000
G2 X3.089 Y-1.165 Z-1.250 I1.830 J-0.806 F240.000
G1 X5.895 Y0.665 Z-1.250 F240.000
G2 X6.988 Y0.990 Z-1.250 I1.093 J-1.675 F240.000
G1 X16.187 Y0.990 Z-1.250 F240.000
G2 X17.026 Y0.806 Z-1.250 I-0.000 J-2.000 F240.000
G3 X18.240 Y0.667 Z-1.250 I0.746 J1.149 F240.000
G2 X19.379 Y0.990 Z-1.250 I1.305 J-2.430 F240.000
G1 X33.379 Y0.990 Z-1.250 F240.000
G2 X39.340 Y-4.357 Z-1.250 I-0.005 J-6.003 F240.000
G2 X39.379 Y-6.558 Z-1.250 I-17.424 J-1.404 F240.000
G3 X41.444 Y-8.626 Z-1.250 I2.012 J-0.056 F240.000
G1 X50.895 Y-8.626 Z-1.250 F240.000
G1 X50.896 Y-8.121 Z-1.250 F240.000
G2 X55.648 Y-4.863 Z-1.250 I3.499 J-0.009 F240.000
G1 X55.648 Y-4.863 Z-1.500 F12.000
G2 X57.894 Y-8.125 Z-1.500 I-1.253 J-3.267 F240.000
G1 X57.894 Y-23.875 Z-1.500 F240.000
G2 X52.046 Y-26.461 Z-1.500 I-3.498 J0.006 F240.000
G2 X50.895 Y-23.374 Z-1.500 I2.496 J2.689 F240.000
G1 X41.444 Y-23.374 Z-1.500 F240.000
G3 X39.400 Y-25.114 Z-1.500 I-0.055 J-2.006 F240.000
G3 X39.379 Y-26.990 Z-1.500 I14.302 J-1.101 F240.000
G2 X33.510 Y-32.986 Z-1.500 I-6.002 J0.005 F240.000
G1 X19.379 Y-32.990 Z-1.500 F240.000
G2 X18.540 Y-32.806 Z-1.500 I0.000 J2.000 F240.000
G3 X17.326 Y-32.667 Z-1.500 I-0.746 J-1.149 F240.000
G2 X16.187 Y-32.990 Z-1.500 I-1.305 J2.430 F240.000
G1 X6.988 Y-32.990 Z-1.500 F240.000
G2 X5.895 Y-32.665 Z-1.500 I-0.000 J2.000 F240.000
G1 X3.089 Y-30.835 Z-1.500 F240.000
G2 X2.352 Y-29.966 Z-1.500 I1.093 J1.675 F240.000
G1 X-0.660 Y-23.127 Z-1.500 F240.000
G2 X1.838 Y-18.933 Z-1.500 I2.750 J1.203 F240.000
G2 X3.763 Y-18.918 Z-1.500 I1.086 J-15.485 F240.000
G2 X8.276 Y-21.773 Z-1.500 I-0.008 J-5.007 F240.000
G1 X9.406 Y-24.325 Z-1.500 F240.000
G3 X10.423 Y-24.990 Z-1.500 I0.967 J0.369 F240.000
G1 X27.313 Y-24.990 Z-1.500 F240.000
G3 X29.379 Y-22.925 Z-1.500 I0.053 J2.012 F240.000
G1 X29.379 Y-9.075 Z-1.500 F240.000
G3 X27.313 Y-7.010 Z-1.500 I-2.012 J0.053 F240.000
G1 X10.423 Y-7.010 Z-1.500 F240.000
G3 X9.407 Y-7.673 Z-1.500 I-0.051 J-1.033 F240.000
G1 X8.339 Y-10.097 Z-1.500 F240.000
G2 X3.908 Y-13.077 Z-1.500 I-4.579 J2.025 F240.000
G1 X2.086 Y-13.082 Z-1.500 F240.000
G2 X-0.660 Y-8.873 Z-1.500 I0.010 J3.006 F240.000
G1 X2.352 Y-2.034 Z-1.500 F240.000
G2 X3.089 Y-1.165 Z-1.500 I1.830 J-0.806 F240.000
G1 X5.895 Y0.665 Z-1.500 F240.000
G2 X6.988 Y0.990 Z-1.500 I1.093 J-1.675 F240.000
G1 X16.187 Y0.990 Z-1.500 F240.000
G2 X17.026 Y0.806 Z-1.500 I-0.000 J-2.000 F240.000
G3 X18.240 Y0.667 Z-1.500 I0.746 J1.149 F240.000
G2 X19.379 Y0.990 Z-1.500 I1.305 J-2.430 F240.000
G1 X33.379 Y0.990 Z-1.500 F240.000
G2 X39.340 Y-4.357 Z-1.500 I-0.005 J-6.003 F240.000
G2 X39.379 Y-6.558 Z-1.500 I-17.424 J-1.404 F240.000
G3 X41.444 Y-8.626 Z-1.500 I2.012 J-0.056 F240.000
G1 X50.895 Y-8.626 Z-1.500 F240.000
G1 X50.896 Y-8.121 Z-1.500 F240.000
G2 X55.648 Y-4.863 Z-1.500 I3.499 J-0.009 F240.000
G1 X55.648 Y-4.863 Z-1.750 F12.000
G2 X57.894 Y-8.125 Z-1.750 I-1.253 J-3.267 F240.000
G1 X57.894 Y-23.875 Z-1.750 F240.000
G2 X52.046 Y-26.461 Z-1.750 I-3.498 J0.006 F240.000
G2 X50.895 Y-23.374 Z-1.750 I2.496 J2.689 F240.000
G1 X41.444 Y-23.374 Z-1.750 F240.000
G3 X39.400 Y-25.114 Z-1.750 I-0.055 J-2.006 F240.000
G3 X39.379 Y-26.990 Z-1.750 I14.302 J-1.101 F240.000
G2 X33.510 Y-32.986 Z-1.750 I-6.002 J0.005 F240.000
G1 X19.379 Y-32.990 Z-1.750 F240.000
G2 X18.540 Y-32.806 Z-1.750 I0.000 J2.000 F240.000
G3 X17.326 Y-32.667 Z-1.750 I-0.746 J-1.149 F240.000
G2 X16.187 Y-32.990 Z-1.750 I-1.305 J2.430 F240.000
G1 X6.988 Y-32.990 Z-1.750 F240.000
G2 X5.895 Y-32.665 Z-1.750 I-0.000 J2.000 F240.000
G1 X3.089 Y-30.835 Z-1.750 F240.000
G2 X2.352 Y-29.966 Z-1.750 I1.093 J1.675 F240.000
G1 X-0.660 Y-23.127 Z-1.750 F240.000
G2 X1.838 Y-18.933 Z-1.750 I2.750 J1.203 F240.000
G2 X3.763 Y-18.918 Z-1.750 I1.086 J-15.485 F240.000
G2 X8.276 Y-21.773 Z-1.750 I-0.008 J-5.007 F240.000
G1 X9.406 Y-24.325 Z-1.750 F240.000
G3 X10.423 Y-24.990 Z-1.750 I0.967 J0.369 F240.000
G1 X27.313 Y-24.990 Z-1.750 F240.000
G3 X29.379 Y-22.925 Z-1.750 I0.053 J2.012 F240.000
G1 X29.379 Y-9.075 Z-1.750 F240.000
G3 X27.313 Y-7.010 Z-1.750 I-2.012 J0.053 F240.000
G1 X10.423 Y-7.010 Z-1.750 F240.000
G3 X9.407 Y-7.673 Z-1.750 I-0.051 J-1.033 F240.000
G1 X8.339 Y-10.097 Z-1.750 F240.000
G2 X3.908 Y-13.077 Z-1.750 I-4.579 J2.025 F240.000
G1 X2.086 Y-13.082 Z-1.750 F240.000
G2 X-0.660 Y-8.873 Z-1.750 I0.010 J3.006 F240.000
G1 X2.352 Y-2.034 Z-1.750 F240.000
G2 X3.089 Y-1.165 Z-1.750 I1.830 J-0.806 F240.000
G1 X5.895 Y0.665 Z-1.750 F240.000
G2 X6.988 Y0.990 Z-1.750 I1.093 J-1.675 F240.000
G1 X16.187 Y0.990 Z-1.750 F240.000
G2 X17.026 Y0.806 Z-1.750 I-0.000 J-2.000 F240.000
G3 X18.240 Y0.667 Z-1.750 I0.746 J1.149 F240.000
G2 X19.379 Y0.990 Z-1.750 I1.305 J-2.430 F240.000
G1 X33.379 Y0.990 Z-1.750 F240.000
G2 X39.340 Y-4.357 Z-1.750 I-0.005 J-6.003 F240.000
G2 X39.379 Y-6.558 Z-1.750 I-17.424 J-1.404 F240.000
G3 X41.444 Y-8.626 Z-1.750 I2.012 J-0.056 F240.000
G1 X50.895 Y-8.626 Z-1.750 F240.000
G1 X50.896 Y-8.121 Z-1.750 F240.000
G2 X55.648 Y-4.863 Z-1.750 I3.499 J-0.009 F240.000
G1 X55.648 Y-4.863 Z-2.000 F12.000
G2 X57.894 Y-8.125 Z-2.000 I-1.253 J-3.267 F240.000
G1 X57.894 Y-23.875 Z-2.000 F240.000
G2 X52.046 Y-26.461 Z-2.000 I-3.498 J0.006 F240.000
G2 X50.895 Y-23.374 Z-2.000 I2.496 J2.689 F240.000
G1 X41.444 Y-23.374 Z-2.000 F240.000
G3 X39.400 Y-25.114 Z-2.000 I-0.055 J-2.006 F240.000
G3 X39.379 Y-26.990 Z-2.000 I14.302 J-1.101 F240.000
G2 X33.510 Y-32.986 Z-2.000 I-6.002 J0.005 F240.000
G1 X19.379 Y-32.990 Z-2.000 F240.000
G2 X18.540 Y-32.806 Z-2.000 I0.000 J2.000 F240.000
G3 X17.326 Y-32.667 Z-2.000 I-0.746 J-1.149 F240.000
G2 X16.187 Y-32.990 Z-2.000 I-1.305 J2.430 F240.000
G1 X6.988 Y-32.990 Z-2.000 F240.000
G2 X5.895 Y-32.665 Z-2.000 I-0.000 J2.000 F240.000
G1 X3.089 Y-30.835 Z-2.000 F240.000
G2 X2.352 Y-29.966 Z-2.000 I1.093 J1.675 F240.000
G1 X-0.660 Y-23.127 Z-2.000 F240.000
G2 X1.838 Y-18.933 Z-2.000 I2.750 J1.203 F240.000
G2 X3.763 Y-18.918 Z-2.000 I1.086 J-15.485 F240.000
G2 X8.276 Y-21.773 Z-2.000 I-0.008 J-5.007 F240.000
G1 X9.406 Y-24.325 Z-2.000 F240.000
G3 X10.423 Y-24.990 Z-2.000 I0.967 J0.369 F240.000
G1 X27.313 Y-24.990 Z-2.000 F240.000
G3 X29.379 Y-22.925 Z-2.000 I0.053 J2.012 F240.000
G1 X29.379 Y-9.075 Z-2.000 F240.000
G3 X27.313 Y-7.010 Z-2.000 I-2.012 J0.053 F240.000
G1 X10.423 Y-7.010 Z-2.000 F240.000
G3 X9.407 Y-7.673 Z-2.000 I-0.051 J-1.033 F240.000
G1 X8.339 Y-10.097 Z-2.000 F240.000
G2 X3.908 Y-13.077 Z-2.000 I-4.579 J2.025 F240.000
G1 X2.086 Y-13.082 Z-2.000 F240.000
G2 X-0.660 Y-8.873 Z-2.000 I0.010 J3.006 F240.000
G1 X2.352 Y-2.034 Z-2.000 F240.000
G2 X3.089 Y-1.165 Z-2.000 I1.830 J-0.806 F240.000
G1 X5.895 Y0.665 Z-2.000 F240.000
G2 X6.988 Y0.990 Z-2.000 I1.093 J-1.675 F240.000
G1 X16.187 Y0.990 Z-2.000 F240.000
G2 X17.026 Y0.806 Z-2.000 I-0.000 J-2.000 F240.000
G3 X18.240 Y0.667 Z-2.000 I0.746 J1.149 F240.000
G2 X19.379 Y0.990 Z-2.000 I1.305 J-2.430 F240.000
G1 X33.379 Y0.990 Z-2.000 F240.000
G2 X39.340 Y-4.357 Z-2.000 I-0.005 J-6.003 F240.000
G2 X39.379 Y-6.558 Z-2.000 I-17.424 J-1.404 F240.000
G3 X41.444 Y-8.626 Z-2.000 I2.012 J-0.056 F240.000
G1 X50.895 Y-8.626 Z-2.000 F240.000
G1 X50.896 Y-8.121 Z-2.000 F240.000
G2 X55.648 Y-4.863 Z-2.000 I3.499 J-0.009 F240.000
G1 X55.648 Y-4.863 Z-2.250 F12.000
G2 X57.894 Y-8.125 Z-2.250 I-1.253 J-3.267 F240.000
G1 X57.894 Y-23.875 Z-2.250 F240.000
G2 X52.046 Y-26.461 Z-2.250 I-3.498 J0.006 F240.000
G2 X50.895 Y-23.374 Z-2.250 I2.496 J2.689 F240.000
G1 X41.444 Y-23.374 Z-2.250 F240.000
G3 X39.400 Y-25.114 Z-2.250 I-0.055 J-2.006 F240.000
G3 X39.379 Y-26.990 Z-2.250 I14.302 J-1.101 F240.000
G2 X33.510 Y-32.986 Z-2.250 I-6.002 J0.005 F240.000
G1 X19.379 Y-32.990 Z-2.250 F240.000
G2 X18.540 Y-32.806 Z-2.250 I0.000 J2.000 F240.000
G3 X17.326 Y-32.667 Z-2.250 I-0.746 J-1.149 F240.000
G2 X16.187 Y-32.990 Z-2.250 I-1.305 J2.430 F240.000
G1 X6.988 Y-32.990 Z-2.250 F240.000
G2 X5.895 Y-32.665 Z-2.250 I-0.000 J2.000 F240.000
G1 X3.089 Y-30.835 Z-2.250 F240.000
G2 X2.352 Y-29.966 Z-2.250 I1.093 J1.675 F240.000
G1 X-0.660 Y-23.127 Z-2.250 F240.000
G2 X1.838 Y-18.933 Z-2.250 I2.750 J1.203 F240.000
G2 X3.763 Y-18.918 Z-2.250 I1.086 J-15.485 F240.000
G2 X8.276 Y-21.773 Z-2.250 I-0.008 J-5.007 F240.000
G1 X9.406 Y-24.325 Z-2.250 F240.000
G3 X10.423 Y-24.990 Z-2.250 I0.967 J0.369 F240.000
G1 X27.313 Y-24.990 Z-2.250 F240.000
G3 X29.379 Y-22.925 Z-2.250 I0.053 J2.012 F240.000
G1 X29.379 Y-9.075 Z-2.250 F240.000
G3 X27.313 Y-7.010 Z-2.250 I-2.012 J0.053 F240.000
G1 X10.423 Y-7.010 Z-2.250 F240.000
G3 X9.407 Y-7.673 Z-2.250 I-0.051 J-1.033 F240.000
G1 X8.339 Y-10.097 Z-2.250 F240.000
G2 X3.908 Y-13.077 Z-2.250 I-4.579 J2.025 F240.000
G1 X2.086 Y-13.082 Z-2.250 F240.000
G2 X-0.660 Y-8.873 Z-2.250 I0.010 J3.006 F240.000
G1 X2.352 Y-2.034 Z-2.250 F240.000
G2 X3.089 Y-1.165 Z-2.250 I1.830 J-0.806 F240.000
G1 X5.895 Y0.665 Z-2.250 F240.000
G2 X6.988 Y0.990 Z-2.250 I1.093 J-1.675 F240.000
G1 X16.187 Y0.990 Z-2.250 F240.000
G2 X17.026 Y0.806 Z-2.250 I-0.000 J-2.000 F240.000
G3 X18.240 Y0.667 Z-2.250 I0.746 J1.149 F240.000
G2 X19.379 Y0.990 Z-2.250 I1.305 J-2.430 F240.000
G1 X33.379 Y0.990 Z-2.250 F240.000
G2 X39.340 Y-4.357 Z-2.250 I-0.005 J-6.003 F240.000
G2 X39.379 Y-6.558 Z-2.250 I-17.424 J-1.404 F240.000
G3 X41.444 Y-8.626 Z-2.250 I2.012 J-0.056 F240.000
G1 X50.895 Y-8.626 Z-2.250 F240.000
G1 X50.896 Y-8.121 Z-2.250 F240.000
G2 X55.648 Y-4.863 Z-2.250 I3.499 J-0.009 F240.000
G1 X55.648 Y-4.863 Z-2.500 F12.000
G2 X57.894 Y-8.125 Z-2.500 I-1.253 J-3.267 F240.000
G1 X57.894 Y-23.875 Z-2.500 F240.000
G2 X52.046 Y-26.461 Z-2.500 I-3.498 J0.006 F240.000
G2 X50.895 Y-23.374 Z-2.500 I2.496 J2.689 F240.000
G1 X41.444 Y-23.374 Z-2.500 F240.000
G3 X39.400 Y-25.114 Z-2.500 I-0.055 J-2.006 F240.000
G3 X39.379 Y-26.990 Z-2.500 I14.302 J-1.101 F240.000
G2 X33.510 Y-32.986 Z-2.500 I-6.002 J0.005 F240.000
G1 X19.379 Y-32.990 Z-2.500 F240.000
G2 X18.540 Y-32.806 Z-2.500 I0.000 J2.000 F240.000
G3 X17.326 Y-32.667 Z-2.500 I-0.746 J-1.149 F240.000
G2 X16.187 Y-32.990 Z-2.500 I-1.305 J2.430 F240.000
G1 X6.988 Y-32.990 Z-2.500 F240.000
G2 X5.895 Y-32.665 Z-2.500 I-0.000 J2.000 F240.000
G1 X3.089 Y-30.835 Z-2.500 F240.000
G2 X2.352 Y-29.966 Z-2.500 I1.093 J1.675 F240.000
G1 X-0.660 Y-23.127 Z-2.500 F240.000
G2 X1.838 Y-18.933 Z-2.500 I2.750 J1.203 F240.000
G2 X3.763 Y-18.918 Z-2.500 I1.086 J-15.485 F240.000
G2 X8.276 Y-21.773 Z-2.500 I-0.008 J-5.007 F240.000
G1 X9.406 Y-24.325 Z-2.500 F240.000
G3 X10.423 Y-24.990 Z-2.500 I0.967 J0.369 F240.000
G1 X27.313 Y-24.990 Z-2.500 F240.000
G3 X29.379 Y-22.925 Z-2.500 I0.053 J2.012 F240.000
G1 X29.379 Y-9.075 Z-2.500 F240.000
G3 X27.313 Y-7.010 Z-2.500 I-2.012 J0.053 F240.000
G1 X10.423 Y-7.010 Z-2.500 F240.000
G3 X9.407 Y-7.673 Z-2.500 I-0.051 J-1.033 F240.000
G1 X8.339 Y-10.097 Z-2.500 F240.000
G2 X3.908 Y-13.077 Z-2.500 I-4.579 J2.025 F240.000
G1 X2.086 Y-13.082 Z-2.500 F240.000
G2 X-0.660 Y-8.873 Z-2.500 I0.010 J3.006 F240.000
G1 X2.352 Y-2.034 Z-2.500 F240.000
G2 X3.089 Y-1.165 Z-2.500 I1.830 J-0.806 F240.000
G1 X5.895 Y0.665 Z-2.500 F240.000
G2 X6.988 Y0.990 Z-2.500 I1.093 J-1.675 F240.000
G1 X16.187 Y0.990 Z-2.500 F240.000
G2 X17.026 Y0.806 Z-2.500 I-0.000 J-2.000 F240.000
G3 X18.240 Y0.667 Z-2.500 I0.746 J1.149 F240.000
G2 X19.379 Y0.990 Z-2.500 I1.305 J-2.430 F240.000
G1 X33.379 Y0.990 Z-2.500 F240.000
G2 X39.340 Y-4.357 Z-2.500 I-0.005 J-6.003 F240.000
G2 X39.379 Y-6.558 Z-2.500 I-17.424 J-1.404 F240.000
G3 X41.444 Y-8.626 Z-2.500 I2.012 J-0.056 F240.000
G1 X50.895 Y-8.626 Z-2.500 F240.000
G1 X50.896 Y-8.121 Z-2.500 F240.000
G2 X55.648 Y-4.863 Z-2.500 I3.499 J-0.009 F240.000
G1 X55.648 Y-4.863 Z-2.750 F12.000
G2 X57.894 Y-8.125 Z-2.750 I-1.253 J-3.267 F240.000
G1 X57.894 Y-23.875 Z-2.750 F240.000
G2 X52.046 Y-26.461 Z-2.750 I-3.498 J0.006 F240.000
G2 X50.895 Y-23.374 Z-2.750 I2.496 J2.689 F240.000
G1 X41.444 Y-23.374 Z-2.750 F240.000
G3 X39.400 Y-25.114 Z-2.750 I-0.055 J-2.006 F240.000
G3 X39.379 Y-26.990 Z-2.750 I14.302 J-1.101 F240.000
G2 X33.510 Y-32.986 Z-2.750 I-6.002 J0.005 F240.000
G1 X19.379 Y-32.990 Z-2.750 F240.000
G2 X18.540 Y-32.806 Z-2.750 I0.000 J2.000 F240.000
G3 X17.326 Y-32.667 Z-2.750 I-0.746 J-1.149 F240.000
G2 X16.187 Y-32.990 Z-2.750 I-1.305 J2.430 F240.000
G1 X6.988 Y-32.990 Z-2.750 F240.000
G2 X5.895 Y-32.665 Z-2.750 I-0.000 J2.000 F240.000
G1 X3.089 Y-30.835 Z-2.750 F240.000
G2 X2.352 Y-29.966 Z-2.750 I1.093 J1.675 F240.000
G1 X-0.660 Y-23.127 Z-2.750 F240.000
G2 X1.838 Y-18.933 Z-2.750 I2.750 J1.203 F240.000
G2 X3.763 Y-18.918 Z-2.750 I1.086 J-15.485 F240.000
G2 X8.276 Y-21.773 Z-2.750 I-0.008 J-5.007 F240.000
G1 X9.406 Y-24.325 Z-2.750 F240.000
G3 X10.423 Y-24.990 Z-2.750 I0.967 J0.369 F240.000
G1 X27.313 Y-24.990 Z-2.750 F240.000
G3 X29.379 Y-22.925 Z-2.750 I0.053 J2.012 F240.000
G1 X29.379 Y-9.075 Z-2.750 F240.000
G3 X27.313 Y-7.010 Z-2.750 I-2.012 J0.053 F240.000
G1 X10.423 Y-7.010 Z-2.750 F240.000
G3 X9.407 Y-7.673 Z-2.750 I-0.051 J-1.033 F240.000
G1 X8.339 Y-10.097 Z-2.750 F240.000
G2 X3.908 Y-13.077 Z-2.750 I-4.579 J2.025 F240.000
G1 X2.086 Y-13.082 Z-2.750 F240.000
G2 X-0.660 Y-8.873 Z-2.750 I0.010 J3.006 F240.000
G1 X2.352 Y-2.034 Z-2.750 F240.000
G2 X3.089 Y-1.165 Z-2.750 I1.830 J-0.806 F240.000
G1 X5.895 Y0.665 Z-2.750 F240.000
G2 X6.988 Y0.990 Z-2.750 I1.093 J-1.675 F240.000
G1 X16.187 Y0.990 Z-2.750 F240.000
G2 X17.026 Y0.806 Z-2.750 I-0.000 J-2.000 F240.000
G3 X18.240 Y0.667 Z-2.750 I0.746 J1.149 F240.000
G2 X19.379 Y0.990 Z-2.750 I1.305 J-2.430 F240.000
G1 X33.379 Y0.990 Z-2.750 F240.000
G2 X39.340 Y-4.357 Z-2.750 I-0.005 J-6.003 F240.000
G2 X39.379 Y-6.558 Z-2.750 I-17.424 J-1.404 F240.000
G3 X41.444 Y-8.626 Z-2.750 I2.012 J-0.056 F240.000
G1 X50.895 Y-8.626 Z-2.750 F240.000
G1 X50.896 Y-8.121 Z-2.750 F240.000
G2 X55.648 Y-4.863 Z-2.750 I3.499 J-0.009 F240.000
G1 X55.648 Y-4.863 Z-3.000 F12.000
G2 X57.894 Y-8.125 Z-3.000 I-1.253 J-3.267 F240.000
G1 X57.894 Y-23.875 Z-3.000 F240.000
G2 X52.046 Y-26.461 Z-3.000 I-3.498 J0.006 F240.000
G2 X50.895 Y-23.374 Z-3.000 I2.496 J2.689 F240.000
G1 X41.444 Y-23.374 Z-3.000 F240.000
G3 X39.400 Y-25.114 Z-3.000 I-0.055 J-2.006 F240.000
G3 X39.379 Y-26.990 Z-3.000 I14.302 J-1.101 F240.000
G2 X33.510 Y-32.986 Z-3.000 I-6.002 J0.005 F240.000
G1 X19.379 Y-32.990 Z-3.000 F240.000
G2 X18.540 Y-32.806 Z-3.000 I0.000 J2.000 F240.000
G3 X17.326 Y-32.667 Z-3.000 I-0.746 J-1.149 F240.000
G2 X16.187 Y-32.990 Z-3.000 I-1.305 J2.430 F240.000
G1 X6.988 Y-32.990 Z-3.000 F240.000
G2 X5.895 Y-32.665 Z-3.000 I-0.000 J2.000 F240.000
G1 X3.089 Y-30.835 Z-3.000 F240.000
G2 X2.352 Y-29.966 Z-3.000 I1.093 J1.675 F240.000
G1 X-0.660 Y-23.127 Z-3.000 F240.000
G2 X1.838 Y-18.933 Z-3.000 I2.750 J1.203 F240.000
G2 X3.763 Y-18.918 Z-3.000 I1.086 J-15.485 F240.000
G2 X8.276 Y-21.773 Z-3.000 I-0.008 J-5.007 F240.000
G1 X9.406 Y-24.325 Z-3.000 F240.000
G3 X10.423 Y-24.990 Z-3.000 I0.967 J0.369 F240.000
G1 X27.313 Y-24.990 Z-3.000 F240.000
G3 X29.379 Y-22.925 Z-3.000 I0.053 J2.012 F240.000
G1 X29.379 Y-9.075 Z-3.000 F240.000
G3 X27.313 Y-7.010 Z-3.000 I-2.012 J0.053 F240.000
G1 X10.423 Y-7.010 Z-3.000 F240.000
G3 X9.407 Y-7.673 Z-3.000 I-0.051 J-1.033 F240.000
G1 X8.339 Y-10.097 Z-3.000 F240.000
G2 X3.908 Y-13.077 Z-3.000 I-4.579 J2.025 F240.000
G1 X2.086 Y-13.082 Z-3.000 F240.000
G2 X-0.660 Y-8.873 Z-3.000 I0.010 J3.006 F240.000
G1 X2.352 Y-2.034 Z-3.000 F240.000
G2 X3.089 Y-1.165 Z-3.000 I1.830 J-0.806 F240.000
G1 X5.895 Y0.665 Z-3.000 F240.000
G2 X6.988 Y0.990 Z-3.000 I1.093 J-1.675 F240.000
G1 X16.187 Y0.990 Z-3.000 F240.000
G2 X17.026 Y0.806 Z-3.000 I-0.000 J-2.000 F240.000
G3 X18.240 Y0.667 Z-3.000 I0.746 J1.149 F240.000
G2 X19.379 Y0.990 Z-3.000 I1.305 J-2.430 F240.000
G1 X33.379 Y0.990 Z-3.000 F240.000
G2 X39.340 Y-4.357 Z-3.000 I-0.005 J-6.003 F240.000
G2 X39.379 Y-6.558 Z-3.000 I-17.424 J-1.404 F240.000
G3 X41.444 Y-8.626 Z-3.000 I2.012 J-0.056 F240.000
G1 X50.895 Y-8.626 Z-3.000 F240.000
G1 X50.896 Y-8.121 Z-3.000 F240.000
G2 X55.648 Y-4.863 Z-3.000 I3.499 J-0.009 F240.000
G1 X55.648 Y-4.863 Z-3.250 F12.000
G2 X57.894 Y-8.125 Z-3.250 I-1.253 J-3.267 F240.000
G1 X57.894 Y-23.875 Z-3.250 F240.000
G2 X52.046 Y-26.461 Z-3.250 I-3.498 J0.006 F240.000
G2 X50.895 Y-23.374 Z-3.250 I2.496 J2.689 F240.000
G1 X41.444 Y-23.374 Z-3.250 F240.000
G3 X39.400 Y-25.114 Z-3.250 I-0.055 J-2.006 F240.000
G3 X39.379 Y-26.990 Z-3.250 I14.302 J-1.101 F240.000
G2 X33.510 Y-32.986 Z-3.250 I-6.002 J0.005 F240.000
G1 X19.379 Y-32.990 Z-3.250 F240.000
G2 X18.540 Y-32.806 Z-3.250 I0.000 J2.000 F240.000
G3 X17.326 Y-32.667 Z-3.250 I-0.746 J-1.149 F240.000
G2 X16.187 Y-32.990 Z-3.250 I-1.305 J2.430 F240.000
G1 X6.988 Y-32.990 Z-3.250 F240.000
G2 X5.895 Y-32.665 Z-3.250 I-0.000 J2.000 F240.000
G1 X3.089 Y-30.835 Z-3.250 F240.000
G2 X2.352 Y-29.966 Z-3.250 I1.093 J1.675 F240.000
G1 X-0.660 Y-23.127 Z-3.250 F240.000
G2 X1.838 Y-18.933 Z-3.250 I2.750 J1.203 F240.000
G2 X3.763 Y-18.918 Z-3.250 I1.086 J-15.485 F240.000
G2 X8.276 Y-21.773 Z-3.250 I-0.008 J-5.007 F240.000
G1 X9.406 Y-24.325 Z-3.250 F240.000
G3 X10.423 Y-24.990 Z-3.250 I0.967 J0.369 F240.000
G1 X27.313 Y-24.990 Z-3.250 F240.000
G3 X29.379 Y-22.925 Z-3.250 I0.053 J2.012 F240.000
G1 X29.379 Y-9.075 Z-3.250 F240.000
G3 X27.313 Y-7.010 Z-3.250 I-2.012 J0.053 F240.000
G1 X10.423 Y-7.010 Z-3.250 F240.000
G3 X9.407 Y-7.673 Z-3.250 I-0.051 J-1.033 F240.000
G1 X8.339 Y-10.097 Z-3.250 F240.000
G2 X3.908 Y-13.077 Z-3.250 I-4.579 J2.025 F240.000
G1 X2.086 Y-13.082 Z-3.250 F240.000
G2 X-0.660 Y-8.873 Z-3.250 I0.010 J3.006 F240.000
G1 X2.352 Y-2.034 Z-3.250 F240.000
G2 X3.089 Y-1.165 Z-3.250 I1.830 J-0.806 F240.000
G1 X5.895 Y0.665 Z-3.250 F240.000
G2 X6.988 Y0.990 Z-3.250 I1.093 J-1.675 F240.000
G1 X16.187 Y0.990 Z-3.250 F240.000
G2 X17.026 Y0.806 Z-3.250 I-0.000 J-2.000 F240.000
G3 X18.240 Y0.667 Z-3.250 I0.746 J1.149 F240.000
G2 X19.379 Y0.990 Z-3.250 I1.305 J-2.430 F240.000
G1 X33.379 Y0.990 Z-3.250 F240.000
G2 X39.340 Y-4.357 Z-3.250 I-0.005 J-6.003 F240.000
G2 X39.379 Y-6.558 Z-3.250 I-17.424 J-1.404 F240.000
G3 X41.444 Y-8.626 Z-3.250 I2.012 J-0.056 F240.000
G1 X50.895 Y-8.626 Z-3.250 F240.000
G1 X50.896 Y-8.121 Z-3.250 F240.000
G2 X55.648 Y-4.863 Z-3.250 I3.499 J-0.009 F240.000
G1 X55.648 Y-4.863 Z-3.500 F12.000
G2 X57.894 Y-8.125 Z-3.500 I-1.253 J-3.267 F240.000
G1 X57.894 Y-23.875 Z-3.500 F240.000
G2 X52.046 Y-26.461 Z-3.500 I-3.498 J0.006 F240.000
G2 X50.895 Y-23.374 Z-3.500 I2.496 J2.689 F240.000
G1 X41.444 Y-23.374 Z-3.500 F240.000
G3 X39.400 Y-25.114 Z-3.500 I-0.055 J-2.006 F240.000
G3 X39.379 Y-26.990 Z-3.500 I14.302 J-1.101 F240.000
G2 X33.510 Y-32.986 Z-3.500 I-6.002 J0.005 F240.000
G1 X19.379 Y-32.990 Z-3.500 F240.000
G2 X18.540 Y-32.806 Z-3.500 I0.000 J2.000 F240.000
G3 X17.326 Y-32.667 Z-3.500 I-0.746 J-1.149 F240.000
G2 X16.187 Y-32.990 Z-3.500 I-1.305 J2.430 F240.000
G1 X6.988 Y-32.990 Z-3.500 F240.000
G2 X5.895 Y-32.665 Z-3.500 I-0.000 J2.000 F240.000
G1 X3.089 Y-30.835 Z-3.500 F240.000
G2 X2.352 Y-29.966 Z-3.500 I1.093 J1.675 F240.000
G1 X-0.660 Y-23.127 Z-3.500 F240.000
G2 X1.838 Y-18.933 Z-3.500 I2.750 J1.203 F240.000
G2 X3.763 Y-18.918 Z-3.500 I1.086 J-15.485 F240.000
G2 X8.276 Y-21.773 Z-3.500 I-0.008 J-5.007 F240.000
G1 X9.406 Y-24.325 Z-3.500 F240.000
G3 X10.423 Y-24.990 Z-3.500 I0.967 J0.369 F240.000
G1 X27.313 Y-24.990 Z-3.500 F240.000
G3 X29.379 Y-22.925 Z-3.500 I0.053 J2.012 F240.000
G1 X29.379 Y-9.075 Z-3.500 F240.000
G3 X27.313 Y-7.010 Z-3.500 I-2.012 J0.053 F240.000
G1 X10.423 Y-7.010 Z-3.500 F240.000
G3 X9.407 Y-7.673 Z-3.500 I-0.051 J-1.033 F240.000
G1 X8.339 Y-10.097 Z-3.500 F240.000
G2 X3.908 Y-13.077 Z-3.500 I-4.579 J2.025 F240.000
G1 X2.086 Y-13.082 Z-3.500 F240.000
G2 X-0.660 Y-8.873 Z-3.500 I0.010 J3.006 F240.000
G1 X2.352 Y-2.034 Z-3.500 F240.000
G2 X3.089 Y-1.165 Z-3.500 I1.830 J-0.806 F240.000
G1 X5.895 Y0.665 Z-3.500 F240.000
G2 X6.988 Y0.990 Z-3.500 I1.093 J-1.675 F240.000
G1 X16.187 Y0.990 Z-3.500 F240.000
G2 X17.026 Y0.806 Z-3.500 I-0.000 J-2.000 F240.000
G3 X18.240 Y0.667 Z-3.500 I0.746 J1.149 F240.000
G2 X19.379 Y0.990 Z-3.500 I1.305 J-2.430 F240.000
G1 X33.379 Y0.990 Z-3.500 F240.000
G2 X39.340 Y-4.357 Z-3.500 I-0.005 J-6.003 F240.000
G2 X39.379 Y-6.558 Z-3.500 I-17.424 J-1.404 F240.000
G3 X41.444 Y-8.626 Z-3.500 I2.012 J-0.056 F240.000
G1 X50.895 Y-8.626 Z-3.500 F240.000
G1 X50.896 Y-8.121 Z-3.500 F240.000
G2 X55.648 Y-4.863 Z-3.500 I3.499 J-0.009 F240.000
G1 X55.648 Y-4.863 Z-3.750 F12.000
G2 X57.894 Y-8.125 Z-3.750 I-1.253 J-3.267 F240.000
G1 X57.894 Y-23.875 Z-3.750 F240.000
G2 X52.046 Y-26.461 Z-3.750 I-3.498 J0.006 F240.000
G2 X50.895 Y-23.374 Z-3.750 I2.496 J2.689 F240.000
G1 X41.444 Y-23.374 Z-3.750 F240.000
G3 X39.400 Y-25.114 Z-3.750 I-0.055 J-2.006 F240.000
G3 X39.379 Y-26.990 Z-3.750 I14.302 J-1.101 F240.000
G2 X33.510 Y-32.986 Z-3.750 I-6.002 J0.005 F240.000
G1 X19.379 Y-32.990 Z-3.750 F240.000
G2 X18.540 Y-32.806 Z-3.750 I0.000 J2.000 F240.000
G3 X17.326 Y-32.667 Z-3.750 I-0.746 J-1.149 F240.000
G2 X16.187 Y-32.990 Z-3.750 I-1.305 J2.430 F240.000
G1 X6.988 Y-32.990 Z-3.750 F240.000
G2 X5.895 Y-32.665 Z-3.750 I-0.000 J2.000 F240.000
G1 X3.089 Y-30.835 Z-3.750 F240.000
G2 X2.352 Y-29.966 Z-3.750 I1.093 J1.675 F240.000
G1 X-0.660 Y-23.127 Z-3.750 F240.000
G2 X1.838 Y-18.933 Z-3.750 I2.750 J1.203 F240.000
G2 X3.763 Y-18.918 Z-3.750 I1.086 J-15.485 F240.000
G2 X8.276 Y-21.773 Z-3.750 I-0.008 J-5.007 F240.000
G1 X9.406 Y-24.325 Z-3.750 F240.000
G3 X10.423 Y-24.990 Z-3.750 I0.967 J0.369 F240.000
G1 X27.313 Y-24.990 Z-3.750 F240.000
G3 X29.379 Y-22.925 Z-3.750 I0.053 J2.012 F240.000
G1 X29.379 Y-9.075 Z-3.750 F240.000
G3 X27.313 Y-7.010 Z-3.750 I-2.012 J0.053 F240.000
G1 X10.423 Y-7.010 Z-3.750 F240.000
G3 X9.407 Y-7.673 Z-3.750 I-0.051 J-1.033 F240.000
G1 X8.339 Y-10.097 Z-3.750 F240.000
G2 X3.908 Y-13.077 Z-3.750 I-4.579 J2.025 F240.000
G1 X2.086 Y-13.082 Z-3.750 F240.000
G2 X-0.660 Y-8.873 Z-3.750 I0.010 J3.006 F240.000
G1 X2.352 Y-2.034 Z-3.750 F240.000
G2 X3.089 Y-1.165 Z-3.750 I1.830 J-0.806 F240.000
G1 X5.895 Y0.665 Z-3.750 F240.000
G2 X6.988 Y0.990 Z-3.750 I1.093 J-1.675 F240.000
G1 X16.187 Y0.990 Z-3.750 F240.000
G2 X17.026 Y0.806 Z-3.750 I-0.000 J-2.000 F240.000
G3 X18.240 Y0.667 Z-3.750 I0.746 J1.149 F240.000
G2 X19.379 Y0.990 Z-3.750 I1.305 J-2.430 F240.000
G1 X33.379 Y0.990 Z-3.750 F240.000
G2 X39.340 Y-4.357 Z-3.750 I-0.005 J-6.003 F240.000
G2 X39.379 Y-6.558 Z-3.750 I-17.424 J-1.404 F240.000
G3 X41.444 Y-8.626 Z-3.750 I2.012 J-0.056 F240.000
G1 X50.895 Y-8.626 Z-3.750 F240.000
G1 X50.896 Y-8.121 Z-3.750 F240.000
G2 X55.648 Y-4.863 Z-3.750 I3.499 J-0.009 F240.000
G1 X55.648 Y-4.863 Z-4.000 F12.000
G2 X57.894 Y-8.125 Z-4.000 I-1.253 J-3.267 F240.000
G1 X57.894 Y-23.875 Z-4.000 F240.000
G2 X52.046 Y-26.461 Z-4.000 I-3.498 J0.006 F240.000
G2 X50.895 Y-23.374 Z-4.000 I2.496 J2.689 F240.000
G1 X41.444 Y-23.374 Z-4.000 F240.000
G3 X39.400 Y-25.114 Z-4.000 I-0.055 J-2.006 F240.000
G3 X39.379 Y-26.990 Z-4.000 I14.302 J-1.101 F240.000
G2 X33.510 Y-32.986 Z-4.000 I-6.002 J0.005 F240.000
G1 X19.379 Y-32.990 Z-4.000 F240.000
G2 X18.540 Y-32.806 Z-4.000 I0.000 J2.000 F240.000
G3 X17.326 Y-32.667 Z-4.000 I-0.746 J-1.149 F240.000
G2 X16.187 Y-32.990 Z-4.000 I-1.305 J2.430 F240.000
G1 X6.988 Y-32.990 Z-4.000 F240.000
G2 X5.895 Y-32.665 Z-4.000 I-0.000 J2.000 F240.000
G1 X3.089 Y-30.835 Z-4.000 F240.000
G2 X2.352 Y-29.966 Z-4.000 I1.093 J1.675 F240.000
G1 X-0.660 Y-23.127 Z-4.000 F240.000
G2 X1.838 Y-18.933 Z-4.000 I2.750 J1.203 F240.000
G2 X3.763 Y-18.918 Z-4.000 I1.086 J-15.485 F240.000
G2 X8.276 Y-21.773 Z-4.000 I-0.008 J-5.007 F240.000
G1 X9.406 Y-24.325 Z-4.000 F240.000
G3 X10.423 Y-24.990 Z-4.000 I0.967 J0.369 F240.000
G1 X27.313 Y-24.990 Z-4.000 F240.000
G3 X29.379 Y-22.925 Z-4.000 I0.053 J2.012 F240.000
G1 X29.379 Y-9.075 Z-4.000 F240.000
G3 X27.313 Y-7.010 Z-4.000 I-2.012 J0.053 F240.000
G1 X10.423 Y-7.010 Z-4.000 F240.000
G3 X9.407 Y-7.673 Z-4.000 I-0.051 J-1.033 F240.000
G1 X8.339 Y-10.097 Z-4.000 F240.000
G2 X3.908 Y-13.077 Z-4.000 I-4.579 J2.025 F240.000
G1 X2.086 Y-13.082 Z-4.000 F240.000
G2 X-0.660 Y-8.873 Z-4.000 I0.010 J3.006 F240.000
G1 X2.352 Y-2.034 Z-4.000 F240.000
G2 X3.089 Y-1.165 Z-4.000 I1.830 J-0.806 F240.000
G1 X5.895 Y0.665 Z-4.000 F240.000
G2 X6.988 Y0.990 Z-4.000 I1.093 J-1.675 F240.000
G1 X16.187 Y0.990 Z-4.000 F240.000
G2 X17.026 Y0.806 Z-4.000 I-0.000 J-2.000 F240.000
G3 X18.240 Y0.667 Z-4.000 I0.746 J1.149 F240.000
G2 X19.379 Y0.990 Z-4.000 I1.305 J-2.430 F240.000
G1 X33.379 Y0.990 Z-4.000 F240.000
G2 X39.340 Y-4.357 Z-4.000 I-0.005 J-6.003 F240.000
G2 X39.379 Y-6.558 Z-4.000 I-17.424 J-1.404 F240.000
G3 X41.444 Y-8.626 Z-4.000 I2.012 J-0.056 F240.000
G1 X50.895 Y-8.626 Z-4.000 F240.000
G1 X50.896 Y-8.121 Z-4.000 F240.000
G2 X55.648 Y-4.863 Z-4.000 I3.499 J-0.009 F240.000
G1 X55.648 Y-4.863 Z-4.250 F12.000
G2 X57.894 Y-8.125 Z-4.250 I-1.253 J-3.267 F240.000
G1 X57.894 Y-23.875 Z-4.250 F240.000
G2 X52.046 Y-26.461 Z-4.250 I-3.498 J0.006 F240.000
G2 X50.895 Y-23.374 Z-4.250 I2.496 J2.689 F240.000
G1 X41.444 Y-23.374 Z-4.250 F240.000
G3 X39.400 Y-25.114 Z-4.250 I-0.055 J-2.006 F240.000
G3 X39.379 Y-26.990 Z-4.250 I14.302 J-1.101 F240.000
G2 X33.510 Y-32.986 Z-4.250 I-6.002 J0.005 F240.000
G1 X19.379 Y-32.990 Z-4.250 F240.000
G2 X18.540 Y-32.806 Z-4.250 I0.000 J2.000 F240.000
G3 X17.326 Y-32.667 Z-4.250 I-0.746 J-1.149 F240.000
G2 X16.187 Y-32.990 Z-4.250 I-1.305 J2.430 F240.000
G1 X6.988 Y-32.990 Z-4.250 F240.000
G2 X5.895 Y-32.665 Z-4.250 I-0.000 J2.000 F240.000
G1 X3.089 Y-30.835 Z-4.250 F240.000
G2 X2.352 Y-29.966 Z-4.250 I1.093 J1.675 F240.000
G1 X-0.660 Y-23.127 Z-4.250 F240.000
G2 X1.838 Y-18.933 Z-4.250 I2.750 J1.203 F240.000
G2 X3.763 Y-18.918 Z-4.250 I1.086 J-15.485 F240.000
G2 X8.276 Y-21.773 Z-4.250 I-0.008 J-5.007 F240.000
G1 X9.406 Y-24.325 Z-4.250 F240.000
G3 X10.423 Y-24.990 Z-4.250 I0.967 J0.369 F240.000
G1 X27.313 Y-24.990 Z-4.250 F240.000
G3 X29.379 Y-22.925 Z-4.250 I0.053 J2.012 F240.000
G1 X29.379 Y-9.075 Z-4.250 F240.000
G3 X27.313 Y-7.010 Z-4.250 I-2.012 J0.053 F240.000
G1 X10.423 Y-7.010 Z-4.250 F240.000
G3 X9.407 Y-7.673 Z-4.250 I-0.051 J-1.033 F240.000
G1 X8.339 Y-10.097 Z-4.250 F240.000
G2 X3.908 Y-13.077 Z-4.250 I-4.579 J2.025 F240.000
G1 X2.086 Y-13.082 Z-4.250 F240.000
G2 X-0.660 Y-8.873 Z-4.250 I0.010 J3.006 F240.000
G1 X2.352 Y-2.034 Z-4.250 F240.000
G2 X3.089 Y-1.165 Z-4.250 I1.830 J-0.806 F240.000
G1 X5.895 Y0.665 Z-4.250 F240.000
G2 X6.988 Y0.990 Z-4.250 I1.093 J-1.675 F240.000
G1 X16.187 Y0.990 Z-4.250 F240.000
G2 X17.026 Y0.806 Z-4.250 I-0.000 J-2.000 F240.000
G3 X18.240 Y0.667 Z-4.250 I0.746 J1.149 F240.000
G2 X19.379 Y0.990 Z-4.250 I1.305 J-2.430 F240.000
G1 X33.379 Y0.990 Z-4.250 F240.000
G2 X39.340 Y-4.357 Z-4.250 I-0.005 J-6.003 F240.000
G2 X39.379 Y-6.558 Z-4.250 I-17.424 J-1.404 F240.000
G3 X41.444 Y-8.626 Z-4.250 I2.012 J-0.056 F240.000
G1 X50.895 Y-8.626 Z-4.250 F240.000
G1 X50.896 Y-8.121 Z-4.250 F240.000
G2 X55.648 Y-4.863 Z-4.250 I3.499 J-0.009 F240.000
G1 X55.648 Y-4.863 Z-4.500 F12.000
G2 X57.894 Y-8.125 Z-4.500 I-1.253 J-3.267 F240.000
G1 X57.894 Y-23.875 Z-4.500 F240.000
G2 X52.046 Y-26.461 Z-4.500 I-3.498 J0.006 F240.000
G2 X50.895 Y-23.374 Z-4.500 I2.496 J2.689 F240.000
G1 X41.444 Y-23.374 Z-4.500 F240.000
G3 X39.400 Y-25.114 Z-4.500 I-0.055 J-2.006 F240.000
G3 X39.379 Y-26.990 Z-4.500 I14.302 J-1.101 F240.000
G2 X33.510 Y-32.986 Z-4.500 I-6.002 J0.005 F240.000
G1 X19.379 Y-32.990 Z-4.500 F240.000
G2 X18.540 Y-32.806 Z-4.500 I0.000 J2.000 F240.000
G3 X17.326 Y-32.667 Z-4.500 I-0.746 J-1.149 F240.000
G2 X16.187 Y-32.990 Z-4.500 I-1.305 J2.430 F240.000
G1 X6.988 Y-32.990 Z-4.500 F240.000
G2 X5.895 Y-32.665 Z-4.500 I-0.000 J2.000 F240.000
G1 X3.089 Y-30.835 Z-4.500 F240.000
G2 X2.352 Y-29.966 Z-4.500 I1.093 J1.675 F240.000
G1 X-0.660 Y-23.127 Z-4.500 F240.000
G2 X1.838 Y-18.933 Z-4.500 I2.750 J1.203 F240.000
G2 X3.763 Y-18.918 Z-4.500 I1.086 J-15.485 F240.000
G2 X8.276 Y-21.773 Z-4.500 I-0.008 J-5.007 F240.000
G1 X9.406 Y-24.325 Z-4.500 F240.000
G3 X10.423 Y-24.990 Z-4.500 I0.967 J0.369 F240.000
G1 X27.313 Y-24.990 Z-4.500 F240.000
G3 X29.379 Y-22.925 Z-4.500 I0.053 J2.012 F240.000
G1 X29.379 Y-9.075 Z-4.500 F240.000
G3 X27.313 Y-7.010 Z-4.500 I-2.012 J0.053 F240.000
G1 X10.423 Y-7.010 Z-4.500 F240.000
G3 X9.407 Y-7.673 Z-4.500 I-0.051 J-1.033 F240.000
G1 X8.339 Y-10.097 Z-4.500 F240.000
G2 X3.908 Y-13.077 Z-4.500 I-4.579 J2.025 F240.000
G1 X2.086 Y-13.082 Z-4.500 F240.000
G2 X-0.660 Y-8.873 Z-4.500 I0.010 J3.006 F240.000
G1 X2.352 Y-2.034 Z-4.500 F240.000
G2 X3.089 Y-1.165 Z-4.500 I1.830 J-0.806 F240.000
G1 X5.895 Y0.665 Z-4.500 F240.000
G2 X6.988 Y0.990 Z-4.500 I1.093 J-1.675 F240.000
G1 X16.187 Y0.990 Z-4.500 F240.000
G2 X17.026 Y0.806 Z-4.500 I-0.000 J-2.000 F240.000
G3 X18.240 Y0.667 Z-4.500 I0.746 J1.149 F240.000
G2 X19.379 Y0.990 Z-4.500 I1.305 J-2.430 F240.000
G1 X33.379 Y0.990 Z-4.500 F240.000
G2 X39.340 Y-4.357 Z-4.500 I-0.005 J-6.003 F240.000
G2 X39.379 Y-6.558 Z-4.500 I-17.424 J-1.404 F240.000
G3 X41.444 Y-8.626 Z-4.500 I2.012 J-0.056 F240.000
G1 X50.895 Y-8.626 Z-4.500 F240.000
G1 X50.896 Y-8.121 Z-4.500 F240.000
G2 X55.648 Y-4.863 Z-4.500 I3.499 J-0.009 F240.000
G1 X55.648 Y-4.863 Z-4.750 F12.000
G2 X57.894 Y-8.125 Z-4.750 I-1.253 J-3.267 F240.000
G1 X57.894 Y-23.875 Z-4.750 F240.000
G2 X52.046 Y-26.461 Z-4.750 I-3.498 J0.006 F240.000
G2 X50.895 Y-23.374 Z-4.750 I2.496 J2.689 F240.000
G1 X41.444 Y-23.374 Z-4.750 F240.000
G3 X39.400 Y-25.114 Z-4.750 I-0.055 J-2.006 F240.000
G3 X39.379 Y-26.990 Z-4.750 I14.302 J-1.101 F240.000
G2 X33.510 Y-32.986 Z-4.750 I-6.002 J0.005 F240.000
G1 X19.379 Y-32.990 Z-4.750 F240.000
G2 X18.540 Y-32.806 Z-4.750 I0.000 J2.000 F240.000
G3 X17.326 Y-32.667 Z-4.750 I-0.746 J-1.149 F240.000
G2 X16.187 Y-32.990 Z-4.750 I-1.305 J2.430 F240.000
G1 X6.988 Y-32.990 Z-4.750 F240.000
G2 X5.895 Y-32.665 Z-4.750 I-0.000 J2.000 F240.000
G1 X3.089 Y-30.835 Z-4.750 F240.000
G2 X2.352 Y-29.966 Z-4.750 I1.093 J1.675 F240.000
G1 X-0.660 Y-23.127 Z-4.750 F240.000
G2 X1.838 Y-18.933 Z-4.750 I2.750 J1.203 F240.000
G2 X3.763 Y-18.918 Z-4.750 I1.086 J-15.485 F240.000
G2 X8.276 Y-21.773 Z-4.750 I-0.008 J-5.007 F240.000
G1 X9.406 Y-24.325 Z-4.750 F240.000
G3 X10.423 Y-24.990 Z-4.750 I0.967 J0.369 F240.000
G1 X27.313 Y-24.990 Z-4.750 F240.000
G3 X29.379 Y-22.925 Z-4.750 I0.053 J2.012 F240.000
G1 X29.379 Y-9.075 Z-4.750 F240.000
G3 X27.313 Y-7.010 Z-4.750 I-2.012 J0.053 F240.000
G1 X10.423 Y-7.010 Z-4.750 F240.000
G3 X9.407 Y-7.673 Z-4.750 I-0.051 J-1.033 F240.000
G1 X8.339 Y-10.097 Z-4.750 F240.000
G2 X3.908 Y-13.077 Z-4.750 I-4.579 J2.025 F240.000
G1 X2.086 Y-13.082 Z-4.750 F240.000
G2 X-0.660 Y-8.873 Z-4.750 I0.010 J3.006 F240.000
G1 X2.352 Y-2.034 Z-4.750 F240.000
G2 X3.089 Y-1.165 Z-4.750 I1.830 J-0.806 F240.000
G1 X5.895 Y0.665 Z-4.750 F240.000
G2 X6.988 Y0.990 Z-4.750 I1.093 J-1.675 F240.000
G1 X16.187 Y0.990 Z-4.750 F240.000
G2 X17.026 Y0.806 Z-4.750 I-0.000 J-2.000 F240.000
G3 X18.240 Y0.667 Z-4.750 I0.746 J1.149 F240.000
G2 X19.379 Y0.990 Z-4.750 I1.305 J-2.430 F240.000
G1 X33.379 Y0.990 Z-4.750 F240.000
G2 X39.340 Y-4.357 Z-4.750 I-0.005 J-6.003 F240.000
G2 X39.379 Y-6.558 Z-4.750 I-17.424 J-1.404 F240.000
G3 X41.444 Y-8.626 Z-4.750 I2.012 J-0.056 F240.000
G1 X50.895 Y-8.626 Z-4.750 F240.000
G1 X50.896 Y-8.121 Z-4.750 F240.000
G2 X55.648 Y-4.863 Z-4.750 I3.499 J-0.009 F240.000
G1 X55.648 Y-4.863 Z-5.000 F12.000
G2 X57.894 Y-8.125 Z-5.000 I-1.253 J-3.267 F240.000
G1 X57.894 Y-23.875 Z-5.000 F240.000
G2 X52.046 Y-26.461 Z-5.000 I-3.498 J0.006 F240.000
G2 X50.895 Y-23.374 Z-5.000 I2.496 J2.689 F240.000
G1 X41.444 Y-23.374 Z-5.000 F240.000
G3 X39.400 Y-25.114 Z-5.000 I-0.055 J-2.006 F240.000
G3 X39.379 Y-26.990 Z-5.000 I14.302 J-1.101 F240.000
G2 X33.510 Y-32.986 Z-5.000 I-6.002 J0.005 F240.000
G1 X19.379 Y-32.990 Z-5.000 F240.000
G2 X18.540 Y-32.806 Z-5.000 I0.000 J2.000 F240.000
G3 X17.326 Y-32.667 Z-5.000 I-0.746 J-1.149 F240.000
G2 X16.187 Y-32.990 Z-5.000 I-1.305 J2.430 F240.000
G1 X6.988 Y-32.990 Z-5.000 F240.000
G2 X5.895 Y-32.665 Z-5.000 I-0.000 J2.000 F240.000
G1 X3.089 Y-30.835 Z-5.000 F240.000
G2 X2.352 Y-29.966 Z-5.000 I1.093 J1.675 F240.000
G1 X-0.660 Y-23.127 Z-5.000 F240.000
G2 X1.838 Y-18.933 Z-5.000 I2.750 J1.203 F240.000
G2 X3.763 Y-18.918 Z-5.000 I1.086 J-15.485 F240.000
G2 X8.276 Y-21.773 Z-5.000 I-0.008 J-5.007 F240.000
G1 X9.406 Y-24.325 Z-5.000 F240.000
G3 X10.423 Y-24.990 Z-5.000 I0.967 J0.369 F240.000
G1 X27.313 Y-24.990 Z-5.000 F240.000
G3 X29.379 Y-22.925 Z-5.000 I0.053 J2.012 F240.000
G1 X29.379 Y-9.075 Z-5.000 F240.000
G3 X27.313 Y-7.010 Z-5.000 I-2.012 J0.053 F240.000
G1 X10.423 Y-7.010 Z-5.000 F240.000
G3 X9.407 Y-7.673 Z-5.000 I-0.051 J-1.033 F240.000
G1 X8.339 Y-10.097 Z-5.000 F240.000
G2 X3.908 Y-13.077 Z-5.000 I-4.579 J2.025 F240.000
G1 X2.086 Y-13.082 Z-5.000 F240.000
G2 X-0.660 Y-8.873 Z-5.000 I0.010 J3.006 F240.000
G1 X2.352 Y-2.034 Z-5.000 F240.000
G2 X3.089 Y-1.165 Z-5.000 I1.830 J-0.806 F240.000
G1 X5.895 Y0.665 Z-5.000 F240.000
G2 X6.988 Y0.990 Z-5.000 I1.093 J-1.675 F240.000
G1 X16.187 Y0.990 Z-5.000 F240.000
G2 X17.026 Y0.806 Z-5.000 I-0.000 J-2.000 F240.000
G3 X18.240 Y0.667 Z-5.000 I0.746 J1.149 F240.000
G2 X19.379 Y0.990 Z-5.000 I1.305 J-2.430 F240.000
G1 X33.379 Y0.990 Z-5.000 F240.000
G2 X39.340 Y-4.357 Z-5.000 I-0.005 J-6.003 F240.000
G2 X39.379 Y-6.558 Z-5.000 I-17.424 J-1.404 F240.000
G3 X41.444 Y-8.626 Z-5.000 I2.012 J-0.056 F240.000
G1 X50.895 Y-8.626 Z-5.000 F240.000
G1 X50.896 Y-8.121 Z-5.000 F240.000
G2 X55.648 Y-4.863 Z-5.000 I3.499 J-0.009 F240.000
G1 X55.648 Y-4.863 Z-5.250 F12.000
G2 X57.894 Y-8.125 Z-5.250 I-1.253 J-3.267 F240.000
G1 X57.894 Y-23.875 Z-5.250 F240.000
G2 X52.046 Y-26.461 Z-5.250 I-3.498 J0.006 F240.000
G2 X50.895 Y-23.374 Z-5.250 I2.496 J2.689 F240.000
G1 X41.444 Y-23.374 Z-5.250 F240.000
G3 X39.400 Y-25.114 Z-5.250 I-0.055 J-2.006 F240.000
G3 X39.379 Y-26.990 Z-5.250 I14.302 J-1.101 F240.000
G2 X33.510 Y-32.986 Z-5.250 I-6.002 J0.005 F240.000
G1 X19.379 Y-32.990 Z-5.250 F240.000
G2 X18.540 Y-32.806 Z-5.250 I0.000 J2.000 F240.000
G3 X17.326 Y-32.667 Z-5.250 I-0.746 J-1.149 F240.000
G2 X16.187 Y-32.990 Z-5.250 I-1.305 J2.430 F240.000
G1 X6.988 Y-32.990 Z-5.250 F240.000
G2 X5.895 Y-32.665 Z-5.250 I-0.000 J2.000 F240.000
G1 X3.089 Y-30.835 Z-5.250 F240.000
G2 X2.352 Y-29.966 Z-5.250 I1.093 J1.675 F240.000
G1 X-0.660 Y-23.127 Z-5.250 F240.000
G2 X1.838 Y-18.933 Z-5.250 I2.750 J1.203 F240.000
G2 X3.763 Y-18.918 Z-5.250 I1.086 J-15.485 F240.000
G2 X8.276 Y-21.773 Z-5.250 I-0.008 J-5.007 F240.000
G1 X9.406 Y-24.325 Z-5.250 F240.000
G3 X10.423 Y-24.990 Z-5.250 I0.967 J0.369 F240.000
G1 X27.313 Y-24.990 Z-5.250 F240.000
G3 X29.379 Y-22.925 Z-5.250 I0.053 J2.012 F240.000
G1 X29.379 Y-9.075 Z-5.250 F240.000
G3 X27.313 Y-7.010 Z-5.250 I-2.012 J0.053 F240.000
G1 X10.423 Y-7.010 Z-5.250 F240.000
G3 X9.407 Y-7.673 Z-5.250 I-0.051 J-1.033 F240.000
G1 X8.339 Y-10.097 Z-5.250 F240.000
G2 X3.908 Y-13.077 Z-5.250 I-4.579 J2.025 F240.000
G1 X2.086 Y-13.082 Z-5.250 F240.000
G2 X-0.660 Y-8.873 Z-5.250 I0.010 J3.006 F240.000
G1 X2.352 Y-2.034 Z-5.250 F240.000
G2 X3.089 Y-1.165 Z-5.250 I1.830 J-0.806 F240.000
G1 X5.895 Y0.665 Z-5.250 F240.000
G2 X6.988 Y0.990 Z-5.250 I1.093 J-1.675 F240.000
G1 X16.187 Y0.990 Z-5.250 F240.000
G2 X17.026 Y0.806 Z-5.250 I-0.000 J-2.000 F240.000
G3 X18.240 Y0.667 Z-5.250 I0.746 J1.149 F240.000
G2 X19.379 Y0.990 Z-5.250 I1.305 J-2.430 F240.000
G1 X33.379 Y0.990 Z-5.250 F240.000
G2 X39.340 Y-4.357 Z-5.250 I-0.005 J-6.003 F240.000
G2 X39.379 Y-6.558 Z-5.250 I-17.424 J-1.404 F240.000
G3 X41.444 Y-8.626 Z-5.250 I2.012 J-0.056 F240.000
G1 X50.895 Y-8.626 Z-5.250 F240.000
G1 X50.896 Y-8.121 Z-5.250 F240.000
G2 X55.648 Y-4.863 Z-5.250 I3.499 J-0.009 F240.000
G1 X55.648 Y-4.863 Z-5.500 F12.000
G2 X57.894 Y-8.125 Z-5.500 I-1.253 J-3.267 F240.000
G1 X57.894 Y-23.875 Z-5.500 F240.000
G2 X52.046 Y-26.461 Z-5.500 I-3.498 J0.006 F240.000
G2 X50.895 Y-23.374 Z-5.500 I2.496 J2.689 F240.000
G1 X41.444 Y-23.374 Z-5.500 F240.000
G3 X39.400 Y-25.114 Z-5.500 I-0.055 J-2.006 F240.000
G3 X39.379 Y-26.990 Z-5.500 I14.302 J-1.101 F240.000
G2 X33.510 Y-32.986 Z-5.500 I-6.002 J0.005 F240.000
G1 X19.379 Y-32.990 Z-5.500 F240.000
G2 X18.540 Y-32.806 Z-5.500 I0.000 J2.000 F240.000
G3 X17.326 Y-32.667 Z-5.500 I-0.746 J-1.149 F240.000
G2 X16.187 Y-32.990 Z-5.500 I-1.305 J2.430 F240.000
G1 X6.988 Y-32.990 Z-5.500 F240.000
G2 X5.895 Y-32.665 Z-5.500 I-0.000 J2.000 F240.000
G1 X3.089 Y-30.835 Z-5.500 F240.000
G2 X2.352 Y-29.966 Z-5.500 I1.093 J1.675 F240.000
G1 X-0.660 Y-23.127 Z-5.500 F240.000
G2 X1.838 Y-18.933 Z-5.500 I2.750 J1.203 F240.000
G2 X3.763 Y-18.918 Z-5.500 I1.086 J-15.485 F240.000
G2 X8.276 Y-21.773 Z-5.500 I-0.008 J-5.007 F240.000
G1 X9.406 Y-24.325 Z-5.500 F240.000
G3 X10.423 Y-24.990 Z-5.500 I0.967 J0.369 F240.000
G1 X27.313 Y-24.990 Z-5.500 F240.000
G3 X29.379 Y-22.925 Z-5.500 I0.053 J2.012 F240.000
G1 X29.379 Y-9.075 Z-5.500 F240.000
G3 X27.313 Y-7.010 Z-5.500 I-2.012 J0.053 F240.000
G1 X10.423 Y-7.010 Z-5.500 F240.000
G3 X9.407 Y-7.673 Z-5.500 I-0.051 J-1.033 F240.000
G1 X8.339 Y-10.097 Z-5.500 F240.000
G2 X3.908 Y-13.077 Z-5.500 I-4.579 J2.025 F240.000
G1 X2.086 Y-13.082 Z-5.500 F240.000
G2 X-0.660 Y-8.873 Z-5.500 I0.010 J3.006 F240.000
G1 X2.352 Y-2.034 Z-5.500 F240.000
G2 X3.089 Y-1.165 Z-5.500 I1.830 J-0.806 F240.000
G1 X5.895 Y0.665 Z-5.500 F240.000
G2 X6.988 Y0.990 Z-5.500 I1.093 J-1.675 F240.000
G1 X16.187 Y0.990 Z-5.500 F240.000
G2 X17.026 Y0.806 Z-5.500 I-0.000 J-2.000 F240.000
G3 X18.240 Y0.667 Z-5.500 I0.746 J1.149 F240.000
G2 X19.379 Y0.990 Z-5.500 I1.305 J-2.430 F240.000
G1 X33.379 Y0.990 Z-5.500 F240.000
G2 X39.340 Y-4.357 Z-5.500 I-0.005 J-6.003 F240.000
G2 X39.379 Y-6.558 Z-5.500 I-17.424 J-1.404 F240.000
G3 X41.444 Y-8.626 Z-5.500 I2.012 J-0.056 F240.000
G1 X50.895 Y-8.626 Z-5.500 F240.000
G1 X50.896 Y-8.121 Z-5.500 F240.000
G2 X55.648 Y-4.863 Z-5.500 I3.499 J-0.009 F240.000
G1 X55.648 Y-4.863 Z-5.750 F12.000
G2 X57.894 Y-8.125 Z-5.750 I-1.253 J-3.267 F240.000
G1 X57.894 Y-23.875 Z-5.750 F240.000
G2 X52.046 Y-26.461 Z-5.750 I-3.498 J0.006 F240.000
G2 X50.895 Y-23.374 Z-5.750 I2.496 J2.689 F240.000
G1 X41.444 Y-23.374 Z-5.750 F240.000
G3 X39.400 Y-25.114 Z-5.750 I-0.055 J-2.006 F240.000
G3 X39.379 Y-26.990 Z-5.750 I14.302 J-1.101 F240.000
G2 X33.510 Y-32.986 Z-5.750 I-6.002 J0.005 F240.000
G1 X19.379 Y-32.990 Z-5.750 F240.000
G2 X18.540 Y-32.806 Z-5.750 I0.000 J2.000 F240.000
G3 X17.326 Y-32.667 Z-5.750 I-0.746 J-1.149 F240.000
G2 X16.187 Y-32.990 Z-5.750 I-1.305 J2.430 F240.000
G1 X6.988 Y-32.990 Z-5.750 F240.000
G2 X5.895 Y-32.665 Z-5.750 I-0.000 J2.000 F240.000
G1 X3.089 Y-30.835 Z-5.750 F240.000
G2 X2.352 Y-29.966 Z-5.750 I1.093 J1.675 F240.000
G1 X-0.660 Y-23.127 Z-5.750 F240.000
G2 X1.838 Y-18.933 Z-5.750 I2.750 J1.203 F240.000
G2 X3.763 Y-18.918 Z-5.750 I1.086 J-15.485 F240.000
G2 X8.276 Y-21.773 Z-5.750 I-0.008 J-5.007 F240.000
G1 X9.406 Y-24.325 Z-5.750 F240.000
G3 X10.423 Y-24.990 Z-5.750 I0.967 J0.369 F240.000
G1 X27.313 Y-24.990 Z-5.750 F240.000
G3 X29.379 Y-22.925 Z-5.750 I0.053 J2.012 F240.000
G1 X29.379 Y-9.075 Z-5.750 F240.000
G3 X27.313 Y-7.010 Z-5.750 I-2.012 J0.053 F240.000
G1 X10.423 Y-7.010 Z-5.750 F240.000
G3 X9.407 Y-7.673 Z-5.750 I-0.051 J-1.033 F240.000
G1 X8.339 Y-10.097 Z-5.750 F240.000
G2 X3.908 Y-13.077 Z-5.750 I-4.579 J2.025 F240.000
G1 X2.086 Y-13.082 Z-5.750 F240.000
G2 X-0.660 Y-8.873 Z-5.750 I0.010 J3.006 F240.000
G1 X2.352 Y-2.034 Z-5.750 F240.000
G2 X3.089 Y-1.165 Z-5.750 I1.830 J-0.806 F240.000
G1 X5.895 Y0.665 Z-5.750 F240.000
G2 X6.988 Y0.990 Z-5.750 I1.093 J-1.675 F240.000
G1 X16.187 Y0.990 Z-5.750 F240.000
G2 X17.026 Y0.806 Z-5.750 I-0.000 J-2.000 F240.000
G3 X18.240 Y0.667 Z-5.750 I0.746 J1.149 F240.000
G2 X19.379 Y0.990 Z-5.750 I1.305 J-2.430 F240.000
G1 X33.379 Y0.990 Z-5.750 F240.000
G2 X39.340 Y-4.357 Z-5.750 I-0.005 J-6.003 F240.000
G2 X39.379 Y-6.558 Z-5.750 I-17.424 J-1.404 F240.000
G3 X41.444 Y-8.626 Z-5.750 I2.012 J-0.056 F240.000
G1 X50.895 Y-8.626 Z-5.750 F240.000
G1 X50.896 Y-8.121 Z-5.750 F240.000
G2 X55.648 Y-4.863 Z-5.750 I3.499 J-0.009 F240.000
G1 X55.648 Y-4.863 Z-6.000 F12.000
G2 X57.894 Y-8.125 Z-6.000 I-1.253 J-3.267 F240.000
G1 X57.894 Y-23.875 Z-6.000 F240.000
G2 X52.046 Y-26.461 Z-6.000 I-3.498 J0.006 F240.000
G2 X50.895 Y-23.374 Z-6.000 I2.496 J2.689 F240.000
G1 X41.444 Y-23.374 Z-6.000 F240.000
G3 X39.400 Y-25.114 Z-6.000 I-0.055 J-2.006 F240.000
G3 X39.379 Y-26.990 Z-6.000 I14.302 J-1.101 F240.000
G2 X33.510 Y-32.986 Z-6.000 I-6.002 J0.005 F240.000
G1 X19.379 Y-32.990 Z-6.000 F240.000
G2 X18.540 Y-32.806 Z-6.000 I0.000 J2.000 F240.000
G3 X17.326 Y-32.667 Z-6.000 I-0.746 J-1.149 F240.000
G2 X16.187 Y-32.990 Z-6.000 I-1.305 J2.430 F240.000
G1 X6.988 Y-32.990 Z-6.000 F240.000
G2 X5.895 Y-32.665 Z-6.000 I-0.000 J2.000 F240.000
G1 X3.089 Y-30.835 Z-6.000 F240.000
G2 X2.352 Y-29.966 Z-6.000 I1.093 J1.675 F240.000
G1 X-0.660 Y-23.127 Z-6.000 F240.000
G2 X1.838 Y-18.933 Z-6.000 I2.750 J1.203 F240.000
G2 X3.763 Y-18.918 Z-6.000 I1.086 J-15.485 F240.000
G2 X8.276 Y-21.773 Z-6.000 I-0.008 J-5.007 F240.000
G1 X9.406 Y-24.325 Z-6.000 F240.000
G3 X10.423 Y-24.990 Z-6.000 I0.967 J0.369 F240.000
G1 X27.313 Y-24.990 Z-6.000 F240.000
G3 X29.379 Y-22.925 Z-6.000 I0.053 J2.012 F240.000
G1 X29.379 Y-9.075 Z-6.000 F240.000
G3 X27.313 Y-7.010 Z-6.000 I-2.012 J0.053 F240.000
G1 X10.423 Y-7.010 Z-6.000 F240.000
G3 X9.407 Y-7.673 Z-6.000 I-0.051 J-1.033 F240.000
G1 X8.339 Y-10.097 Z-6.000 F240.000
G2 X3.908 Y-13.077 Z-6.000 I-4.579 J2.025 F240.000
G1 X2.086 Y-13.082 Z-6.000 F240.000
G2 X-0.660 Y-8.873 Z-6.000 I0.010 J3.006 F240.000
G1 X2.352 Y-2.034 Z-6.000 F240.000
G2 X3.089 Y-1.165 Z-6.000 I1.830 J-0.806 F240.000
G1 X5.895 Y0.665 Z-6.000 F240.000
G2 X6.988 Y0.990 Z-6.000 I1.093 J-1.675 F240.000
G1 X16.187 Y0.990 Z-6.000 F240.000
G2 X17.026 Y0.806 Z-6.000 I-0.000 J-2.000 F240.000
G3 X18.240 Y0.667 Z-6.000 I0.746 J1.149 F240.000
G2 X19.379 Y0.990 Z-6.000 I1.305 J-2.430 F240.000
G1 X33.379 Y0.990 Z-6.000 F240.000
G2 X39.340 Y-4.357 Z-6.000 I-0.005 J-6.003 F240.000
G2 X39.379 Y-6.558 Z-6.000 I-17.424 J-1.404 F240.000
G3 X41.444 Y-8.626 Z-6.000 I2.012 J-0.056 F240.000
G1 X50.895 Y-8.626 Z-6.000 F240.000
G1 X50.896 Y-8.121 Z-6.000 F240.000
G2 X55.648 Y-4.863 Z-6.000 I3.499 J-0.009 F240.000
G1 X55.648 Y-4.863 Z-6.250 F12.000
G2 X57.894 Y-8.125 Z-6.250 I-1.253 J-3.267 F240.000
G1 X57.894 Y-23.875 Z-6.250 F240.000
G2 X52.046 Y-26.461 Z-6.250 I-3.498 J0.006 F240.000
G2 X50.895 Y-23.374 Z-6.250 I2.496 J2.689 F240.000
G1 X41.444 Y-23.374 Z-6.250 F240.000
G3 X39.400 Y-25.114 Z-6.250 I-0.055 J-2.006 F240.000
G3 X39.379 Y-26.990 Z-6.250 I14.302 J-1.101 F240.000
G2 X33.510 Y-32.986 Z-6.250 I-6.002 J0.005 F240.000
G1 X19.379 Y-32.990 Z-6.250 F240.000
G2 X18.540 Y-32.806 Z-6.250 I0.000 J2.000 F240.000
G3 X17.326 Y-32.667 Z-6.250 I-0.746 J-1.149 F240.000
G2 X16.187 Y-32.990 Z-6.250 I-1.305 J2.430 F240.000
G1 X6.988 Y-32.990 Z-6.250 F240.000
G2 X5.895 Y-32.665 Z-6.250 I-0.000 J2.000 F240.000
G1 X3.089 Y-30.835 Z-6.250 F240.000
G2 X2.352 Y-29.966 Z-6.250 I1.093 J1.675 F240.000
G1 X-0.660 Y-23.127 Z-6.250 F240.000
G2 X1.838 Y-18.933 Z-6.250 I2.750 J1.203 F240.000
G2 X3.763 Y-18.918 Z-6.250 I1.086 J-15.485 F240.000
G2 X8.276 Y-21.773 Z-6.250 I-0.008 J-5.007 F240.000
G1 X9.406 Y-24.325 Z-6.250 F240.000
G3 X10.423 Y-24.990 Z-6.250 I0.967 J0.369 F240.000
G1 X27.313 Y-24.990 Z-6.250 F240.000
G3 X29.379 Y-22.925 Z-6.250 I0.053 J2.012 F240.000
G1 X29.379 Y-9.075 Z-6.250 F240.000
G3 X27.313 Y-7.010 Z-6.250 I-2.012 J0.053 F240.000
G1 X10.423 Y-7.010 Z-6.250 F240.000
G3 X9.407 Y-7.673 Z-6.250 I-0.051 J-1.033 F240.000
G1 X8.339 Y-10.097 Z-6.250 F240.000
G2 X3.908 Y-13.077 Z-6.250 I-4.579 J2.025 F240.000
G1 X2.086 Y-13.082 Z-6.250 F240.000
G2 X-0.660 Y-8.873 Z-6.250 I0.010 J3.006 F240.000
G1 X2.352 Y-2.034 Z-6.250 F240.000
G2 X3.089 Y-1.165 Z-6.250 I1.830 J-0.806 F240.000
G1 X5.895 Y0.665 Z-6.250 F240.000
G2 X6.988 Y0.990 Z-6.250 I1.093 J-1.675 F240.000
G1 X16.187 Y0.990 Z-6.250 F240.000
G2 X17.026 Y0.806 Z-6.250 I-0.000 J-2.000 F240.000
G3 X18.240 Y0.667 Z-6.250 I0.746 J1.149 F240.000
G2 X19.379 Y0.990 Z-6.250 I1.305 J-2.430 F240.000
G1 X33.379 Y0.990 Z-6.250 F240.000
G2 X39.340 Y-4.357 Z-6.250 I-0.005 J-6.003 F240.000
G2 X39.379 Y-6.558 Z-6.250 I-17.424 J-1.404 F240.000
G3 X41.444 Y-8.626 Z-6.250 I2.012 J-0.056 F240.000
G1 X50.895 Y-8.626 Z-6.250 F240.000
G1 X50.896 Y-8.121 Z-6.250 F240.000
G2 X55.648 Y-4.863 Z-6.250 I3.499 J-0.009 F240.000
G1 X55.648 Y-4.863 Z-6.500 F12.000
G2 X57.894 Y-8.125 Z-6.500 I-1.253 J-3.267 F240.000
G1 X57.894 Y-23.875 Z-6.500 F240.000
G2 X52.046 Y-26.461 Z-6.500 I-3.498 J0.006 F240.000
G2 X50.895 Y-23.374 Z-6.500 I2.496 J2.689 F240.000
G1 X41.444 Y-23.374 Z-6.500 F240.000
G3 X39.400 Y-25.114 Z-6.500 I-0.055 J-2.006 F240.000
G3 X39.379 Y-26.990 Z-6.500 I14.302 J-1.101 F240.000
G2 X33.510 Y-32.986 Z-6.500 I-6.002 J0.005 F240.000
G1 X19.379 Y-32.990 Z-6.500 F240.000
G2 X18.540 Y-32.806 Z-6.500 I0.000 J2.000 F240.000
G3 X17.326 Y-32.667 Z-6.500 I-0.746 J-1.149 F240.000
G2 X16.187 Y-32.990 Z-6.500 I-1.305 J2.430 F240.000
G1 X6.988 Y-32.990 Z-6.500 F240.000
G2 X5.895 Y-32.665 Z-6.500 I-0.000 J2.000 F240.000
G1 X3.089 Y-30.835 Z-6.500 F240.000
G2 X2.352 Y-29.966 Z-6.500 I1.093 J1.675 F240.000
G1 X-0.660 Y-23.127 Z-6.500 F240.000
G2 X1.838 Y-18.933 Z-6.500 I2.750 J1.203 F240.000
G2 X3.763 Y-18.918 Z-6.500 I1.086 J-15.485 F240.000
G2 X8.276 Y-21.773 Z-6.500 I-0.008 J-5.007 F240.000
G1 X9.406 Y-24.325 Z-6.500 F240.000
G3 X10.423 Y-24.990 Z-6.500 I0.967 J0.369 F240.000
G1 X27.313 Y-24.990 Z-6.500 F240.000
G3 X29.379 Y-22.925 Z-6.500 I0.053 J2.012 F240.000
G1 X29.379 Y-9.075 Z-6.500 F240.000
G3 X27.313 Y-7.010 Z-6.500 I-2.012 J0.053 F240.000
G1 X10.423 Y-7.010 Z-6.500 F240.000
G3 X9.407 Y-7.673 Z-6.500 I-0.051 J-1.033 F240.000
G1 X8.339 Y-10.097 Z-6.500 F240.000
G2 X3.908 Y-13.077 Z-6.500 I-4.579 J2.025 F240.000
G1 X2.086 Y-13.082 Z-6.500 F240.000
G2 X-0.660 Y-8.873 Z-6.500 I0.010 J3.006 F240.000
G1 X2.352 Y-2.034 Z-6.500 F240.000
G2 X3.089 Y-1.165 Z-6.500 I1.830 J-0.806 F240.000
G1 X5.895 Y0.665 Z-6.500 F240.000
G2 X6.988 Y0.990 Z-6.500 I1.093 J-1.675 F240.000
G1 X16.187 Y0.990 Z-6.500 F240.000
G2 X17.026 Y0.806 Z-6.500 I-0.000 J-2.000 F240.000
G3 X18.240 Y0.667 Z-6.500 I0.746 J1.149 F240.000
G2 X19.379 Y0.990 Z-6.500 I1.305 J-2.430 F240.000
G1 X33.379 Y0.990 Z-6.500 F240.000
G2 X39.340 Y-4.357 Z-6.500 I-0.005 J-6.003 F240.000
G2 X39.379 Y-6.558 Z-6.500 I-17.424 J-1.404 F240.000
G3 X41.444 Y-8.626 Z-6.500 I2.012 J-0.056 F240.000
G1 X50.895 Y-8.626 Z-6.500 F240.000
G1 X50.896 Y-8.121 Z-6.500 F240.000
G2 X55.648 Y-4.863 Z-6.500 I3.499 J-0.009 F240.000
G1 X55.648 Y-4.863 Z-6.750 F12.000
G2 X57.894 Y-8.125 Z-6.750 I-1.253 J-3.267 F240.000
G1 X57.894 Y-23.875 Z-6.750 F240.000
G2 X52.046 Y-26.461 Z-6.750 I-3.498 J0.006 F240.000
G2 X50.895 Y-23.374 Z-6.750 I2.496 J2.689 F240.000
G1 X41.444 Y-23.374 Z-6.750 F240.000
G3 X39.400 Y-25.114 Z-6.750 I-0.055 J-2.006 F240.000
G3 X39.379 Y-26.990 Z-6.750 I14.302 J-1.101 F240.000
G2 X33.510 Y-32.986 Z-6.750 I-6.002 J0.005 F240.000
G1 X19.379 Y-32.990 Z-6.750 F240.000
G2 X18.540 Y-32.806 Z-6.750 I0.000 J2.000 F240.000
G3 X17.326 Y-32.667 Z-6.750 I-0.746 J-1.149 F240.000
G2 X16.187 Y-32.990 Z-6.750 I-1.305 J2.430 F240.000
G1 X6.988 Y-32.990 Z-6.750 F240.000
G2 X5.895 Y-32.665 Z-6.750 I-0.000 J2.000 F240.000
G1 X3.089 Y-30.835 Z-6.750 F240.000
G2 X2.352 Y-29.966 Z-6.750 I1.093 J1.675 F240.000
G1 X-0.660 Y-23.127 Z-6.750 F240.000
G2 X1.838 Y-18.933 Z-6.750 I2.750 J1.203 F240.000
G2 X3.763 Y-18.918 Z-6.750 I1.086 J-15.485 F240.000
G2 X8.276 Y-21.773 Z-6.750 I-0.008 J-5.007 F240.000
G1 X9.406 Y-24.325 Z-6.750 F240.000
G3 X10.423 Y-24.990 Z-6.750 I0.967 J0.369 F240.000
G1 X27.313 Y-24.990 Z-6.750 F240.000
G3 X29.379 Y-22.925 Z-6.750 I0.053 J2.012 F240.000
G1 X29.379 Y-9.075 Z-6.750 F240.000
G3 X27.313 Y-7.010 Z-6.750 I-2.012 J0.053 F240.000
G1 X10.423 Y-7.010 Z-6.750 F240.000
G3 X9.407 Y-7.673 Z-6.750 I-0.051 J-1.033 F240.000
G1 X8.339 Y-10.097 Z-6.750 F240.000
G2 X3.908 Y-13.077 Z-6.750 I-4.579 J2.025 F240.000
G1 X2.086 Y-13.082 Z-6.750 F240.000
G2 X-0.660 Y-8.873 Z-6.750 I0.010 J3.006 F240.000
G1 X2.352 Y-2.034 Z-6.750 F240.000
G2 X3.089 Y-1.165 Z-6.750 I1.830 J-0.806 F240.000
G1 X5.895 Y0.665 Z-6.750 F240.000
G2 X6.988 Y0.990 Z-6.750 I1.093 J-1.675 F240.000
G1 X16.187 Y0.990 Z-6.750 F240.000
G2 X17.026 Y0.806 Z-6.750 I-0.000 J-2.000 F240.000
G3 X18.240 Y0.667 Z-6.750 I0.746 J1.149 F240.000
G2 X19.379 Y0.990 Z-6.750 I1.305 J-2.430 F240.000
G1 X33.379 Y0.990 Z-6.750 F240.000
G2 X39.340 Y-4.357 Z-6.750 I-0.005 J-6.003 F240.000
G2 X39.379 Y-6.558 Z-6.750 I-17.424 J-1.404 F240.000
G3 X41.444 Y-8.626 Z-6.750 I2.012 J-0.056 F240.000
G1 X50.895 Y-8.626 Z-6.750 F240.000
G1 X50.896 Y-8.121 Z-6.750 F240.000
G2 X55.648 Y-4.863 Z-6.750 I3.499 J-0.009 F240.000
G1 X55.648 Y-4.863 Z-7.000 F12.000
G2 X57.894 Y-8.125 Z-7.000 I-1.253 J-3.267 F240.000
G1 X57.894 Y-23.875 Z-7.000 F240.000
G2 X52.046 Y-26.461 Z-7.000 I-3.498 J0.006 F240.000
G2 X50.895 Y-23.374 Z-7.000 I2.496 J2.689 F240.000
G1 X41.444 Y-23.374 Z-7.000 F240.000
G3 X39.400 Y-25.114 Z-7.000 I-0.055 J-2.006 F240.000
G3 X39.379 Y-26.990 Z-7.000 I14.302 J-1.101 F240.000
G2 X33.510 Y-32.986 Z-7.000 I-6.002 J0.005 F240.000
G1 X19.379 Y-32.990 Z-7.000 F240.000
G2 X18.540 Y-32.806 Z-7.000 I0.000 J2.000 F240.000
G3 X17.326 Y-32.667 Z-7.000 I-0.746 J-1.149 F240.000
G2 X16.187 Y-32.990 Z-7.000 I-1.305 J2.430 F240.000
G1 X6.988 Y-32.990 Z-7.000 F240.000
G2 X5.895 Y-32.665 Z-7.000 I-0.000 J2.000 F240.000
G1 X3.089 Y-30.835 Z-7.000 F240.000
G2 X2.352 Y-29.966 Z-7.000 I1.093 J1.675 F240.000
G1 X-0.660 Y-23.127 Z-7.000 F240.000
G2 X1.838 Y-18.933 Z-7.000 I2.750 J1.203 F240.000
G2 X3.763 Y-18.918 Z-7.000 I1.086 J-15.485 F240.000
G2 X8.276 Y-21.773 Z-7.000 I-0.008 J-5.007 F240.000
G1 X9.406 Y-24.325 Z-7.000 F240.000
G3 X10.423 Y-24.990 Z-7.000 I0.967 J0.369 F240.000
G1 X27.313 Y-24.990 Z-7.000 F240.000
G3 X29.379 Y-22.925 Z-7.000 I0.053 J2.012 F240.000
G1 X29.379 Y-9.075 Z-7.000 F240.000
G3 X27.313 Y-7.010 Z-7.000 I-2.012 J0.053 F240.000
G1 X10.423 Y-7.010 Z-7.000 F240.000
G3 X9.407 Y-7.673 Z-7.000 I-0.051 J-1.033 F240.000
G1 X8.339 Y-10.097 Z-7.000 F240.000
G2 X3.908 Y-13.077 Z-7.000 I-4.579 J2.025 F240.000
G1 X2.086 Y-13.082 Z-7.000 F240.000
G2 X-0.660 Y-8.873 Z-7.000 I0.010 J3.006 F240.000
G1 X2.352 Y-2.034 Z-7.000 F240.000
G2 X3.089 Y-1.165 Z-7.000 I1.830 J-0.806 F240.000
G1 X5.895 Y0.665 Z-7.000 F240.000
G2 X6.988 Y0.990 Z-7.000 I1.093 J-1.675 F240.000
G1 X16.187 Y0.990 Z-7.000 F240.000
G2 X17.026 Y0.806 Z-7.000 I-0.000 J-2.000 F240.000
G3 X18.240 Y0.667 Z-7.000 I0.746 J1.149 F240.000
G2 X19.379 Y0.990 Z-7.000 I1.305 J-2.430 F240.000
G1 X33.379 Y0.990 Z-7.000 F240.000
G2 X39.340 Y-4.357 Z-7.000 I-0.005 J-6.003 F240.000
G2 X39.379 Y-6.558 Z-7.000 I-17.424 J-1.404 F240.000
G3 X41.444 Y-8.626 Z-7.000 I2.012 J-0.056 F240.000
G1 X50.895 Y-8.626 Z-7.000 F240.000
G1 X50.896 Y-8.121 Z-7.000 F240.000
G2 X55.648 Y-4.863 Z-7.000 I3.499 J-0.009 F240.000
G1 X55.648 Y-4.863 Z-7.250 F12.000
G2 X57.894 Y-8.125 Z-7.250 I-1.253 J-3.267 F240.000
G1 X57.894 Y-23.875 Z-7.250 F240.000
G2 X52.046 Y-26.461 Z-7.250 I-3.498 J0.006 F240.000
G2 X50.895 Y-23.374 Z-7.250 I2.496 J2.689 F240.000
G1 X41.444 Y-23.374 Z-7.250 F240.000
G3 X39.400 Y-25.114 Z-7.250 I-0.055 J-2.006 F240.000
G3 X39.379 Y-26.990 Z-7.250 I14.302 J-1.101 F240.000
G2 X33.510 Y-32.986 Z-7.250 I-6.002 J0.005 F240.000
G1 X19.379 Y-32.990 Z-7.250 F240.000
G2 X18.540 Y-32.806 Z-7.250 I0.000 J2.000 F240.000
G3 X17.326 Y-32.667 Z-7.250 I-0.746 J-1.149 F240.000
G2 X16.187 Y-32.990 Z-7.250 I-1.305 J2.430 F240.000
G1 X6.988 Y-32.990 Z-7.250 F240.000
G2 X5.895 Y-32.665 Z-7.250 I-0.000 J2.000 F240.000
G1 X3.089 Y-30.835 Z-7.250 F240.000
G2 X2.352 Y-29.966 Z-7.250 I1.093 J1.675 F240.000
G1 X-0.660 Y-23.127 Z-7.250 F240.000
G2 X1.838 Y-18.933 Z-7.250 I2.750 J1.203 F240.000
G2 X3.763 Y-18.918 Z-7.250 I1.086 J-15.485 F240.000
G2 X8.276 Y-21.773 Z-7.250 I-0.008 J-5.007 F240.000
G1 X9.406 Y-24.325 Z-7.250 F240.000
G3 X10.423 Y-24.990 Z-7.250 I0.967 J0.369 F240.000
G1 X27.313 Y-24.990 Z-7.250 F240.000
G3 X29.379 Y-22.925 Z-7.250 I0.053 J2.012 F240.000
G1 X29.379 Y-9.075 Z-7.250 F240.000
G3 X27.313 Y-7.010 Z-7.250 I-2.012 J0.053 F240.000
G1 X10.423 Y-7.010 Z-7.250 F240.000
G3 X9.407 Y-7.673 Z-7.250 I-0.051 J-1.033 F240.000
G1 X8.339 Y-10.097 Z-7.250 F240.000
G2 X3.908 Y-13.077 Z-7.250 I-4.579 J2.025 F240.000
G1 X2.086 Y-13.082 Z-7.250 F240.000
G2 X-0.660 Y-8.873 Z-7.250 I0.010 J3.006 F240.000
G1 X2.352 Y-2.034 Z-7.250 F240.000
G2 X3.089 Y-1.165 Z-7.250 I1.830 J-0.806 F240.000
G1 X5.895 Y0.665 Z-7.250 F240.000
G2 X6.988 Y0.990 Z-7.250 I1.093 J-1.675 F240.000
G1 X16.187 Y0.990 Z-7.250 F240.000
G2 X17.026 Y0.806 Z-7.250 I-0.000 J-2.000 F240.000
G3 X18.240 Y0.667 Z-7.250 I0.746 J1.149 F240.000
G2 X19.379 Y0.990 Z-7.250 I1.305 J-2.430 F240.000
G1 X33.379 Y0.990 Z-7.250 F240.000
G2 X39.340 Y-4.357 Z-7.250 I-0.005 J-6.003 F240.000
G2 X39.379 Y-6.558 Z-7.250 I-17.424 J-1.404 F240.000
G3 X41.444 Y-8.626 Z-7.250 I2.012 J-0.056 F240.000
G1 X50.895 Y-8.626 Z-7.250 F240.000
G1 X50.896 Y-8.121 Z-7.250 F240.000
G2 X55.648 Y-4.863 Z-7.250 I3.499 J-0.009 F240.000
G1 X55.648 Y-4.863 Z-7.500 F12.000
G2 X57.894 Y-8.125 Z-7.500 I-1.253 J-3.267 F240.000
G1 X57.894 Y-23.875 Z-7.500 F240.000
G2 X52.046 Y-26.461 Z-7.500 I-3.498 J0.006 F240.000
G2 X50.895 Y-23.374 Z-7.500 I2.496 J2.689 F240.000
G1 X41.444 Y-23.374 Z-7.500 F240.000
G3 X39.400 Y-25.114 Z-7.500 I-0.055 J-2.006 F240.000
G3 X39.379 Y-26.990 Z-7.500 I14.302 J-1.101 F240.000
G2 X33.510 Y-32.986 Z-7.500 I-6.002 J0.005 F240.000
G1 X19.379 Y-32.990 Z-7.500 F240.000
G2 X18.540 Y-32.806 Z-7.500 I0.000 J2.000 F240.000
G3 X17.326 Y-32.667 Z-7.500 I-0.746 J-1.149 F240.000
G2 X16.187 Y-32.990 Z-7.500 I-1.305 J2.430 F240.000
G1 X6.988 Y-32.990 Z-7.500 F240.000
G2 X5.895 Y-32.665 Z-7.500 I-0.000 J2.000 F240.000
G1 X3.089 Y-30.835 Z-7.500 F240.000
G2 X2.352 Y-29.966 Z-7.500 I1.093 J1.675 F240.000
G1 X-0.660 Y-23.127 Z-7.500 F240.000
G2 X1.838 Y-18.933 Z-7.500 I2.750 J1.203 F240.000
G2 X3.763 Y-18.918 Z-7.500 I1.086 J-15.485 F240.000
G2 X8.276 Y-21.773 Z-7.500 I-0.008 J-5.007 F240.000
G1 X9.406 Y-24.325 Z-7.500 F240.000
G3 X10.423 Y-24.990 Z-7.500 I0.967 J0.369 F240.000
G1 X27.313 Y-24.990 Z-7.500 F240.000
G3 X29.379 Y-22.925 Z-7.500 I0.053 J2.012 F240.000
G1 X29.379 Y-9.075 Z-7.500 F240.000
G3 X27.313 Y-7.010 Z-7.500 I-2.012 J0.053 F240.000
G1 X10.423 Y-7.010 Z-7.500 F240.000
G3 X9.407 Y-7.673 Z-7.500 I-0.051 J-1.033 F240.000
G1 X8.339 Y-10.097 Z-7.500 F240.000
G2 X3.908 Y-13.077 Z-7.500 I-4.579 J2.025 F240.000
G1 X2.086 Y-13.082 Z-7.500 F240.000
G2 X-0.660 Y-8.873 Z-7.500 I0.010 J3.006 F240.000
G1 X2.352 Y-2.034 Z-7.500 F240.000
G2 X3.089 Y-1.165 Z-7.500 I1.830 J-0.806 F240.000
G1 X5.895 Y0.665 Z-7.500 F240.000
G2 X6.988 Y0.990 Z-7.500 I1.093 J-1.675 F240.000
G1 X16.187 Y0.990 Z-7.500 F240.000
G2 X17.026 Y0.806 Z-7.500 I-0.000 J-2.000 F240.000
G3 X18.240 Y0.667 Z-7.500 I0.746 J1.149 F240.000
G2 X19.379 Y0.990 Z-7.500 I1.305 J-2.430 F240.000
G1 X33.379 Y0.990 Z-7.500 F240.000
G2 X39.340 Y-4.357 Z-7.500 I-0.005 J-6.003 F240.000
G2 X39.379 Y-6.558 Z-7.500 I-17.424 J-1.404 F240.000
G3 X41.444 Y-8.626 Z-7.500 I2.012 J-0.056 F240.000
G1 X50.895 Y-8.626 Z-7.500 F240.000
G1 X50.896 Y-8.121 Z-7.500 F240.000
G2 X55.648 Y-4.863 Z-7.500 I3.499 J-0.009 F240.000
G1 X55.648 Y-4.863 Z-7.750 F12.000
G2 X57.894 Y-8.125 Z-7.750 I-1.253 J-3.267 F240.000
G1 X57.894 Y-23.875 Z-7.750 F240.000
G2 X52.046 Y-26.461 Z-7.750 I-3.498 J0.006 F240.000
G2 X50.895 Y-23.374 Z-7.750 I2.496 J2.689 F240.000
G1 X41.444 Y-23.374 Z-7.750 F240.000
G3 X39.400 Y-25.114 Z-7.750 I-0.055 J-2.006 F240.000
G3 X39.379 Y-26.990 Z-7.750 I14.302 J-1.101 F240.000
G2 X33.510 Y-32.986 Z-7.750 I-6.002 J0.005 F240.000
G1 X19.379 Y-32.990 Z-7.750 F240.000
G2 X18.540 Y-32.806 Z-7.750 I0.000 J2.000 F240.000
G3 X17.326 Y-32.667 Z-7.750 I-0.746 J-1.149 F240.000
G2 X16.187 Y-32.990 Z-7.750 I-1.305 J2.430 F240.000
G1 X6.988 Y-32.990 Z-7.750 F240.000
G2 X5.895 Y-32.665 Z-7.750 I-0.000 J2.000 F240.000
G1 X3.089 Y-30.835 Z-7.750 F240.000
G2 X2.352 Y-29.966 Z-7.750 I1.093 J1.675 F240.000
G1 X-0.660 Y-23.127 Z-7.750 F240.000
G2 X1.838 Y-18.933 Z-7.750 I2.750 J1.203 F240.000
G2 X3.763 Y-18.918 Z-7.750 I1.086 J-15.485 F240.000
G2 X8.276 Y-21.773 Z-7.750 I-0.008 J-5.007 F240.000
G1 X9.406 Y-24.325 Z-7.750 F240.000
G3 X10.423 Y-24.990 Z-7.750 I0.967 J0.369 F240.000
G1 X27.313 Y-24.990 Z-7.750 F240.000
G3 X29.379 Y-22.925 Z-7.750 I0.053 J2.012 F240.000
G1 X29.379 Y-9.075 Z-7.750 F240.000
G3 X27.313 Y-7.010 Z-7.750 I-2.012 J0.053 F240.000
G1 X10.423 Y-7.010 Z-7.750 F240.000
G3 X9.407 Y-7.673 Z-7.750 I-0.051 J-1.033 F240.000
G1 X8.339 Y-10.097 Z-7.750 F240.000
G2 X3.908 Y-13.077 Z-7.750 I-4.579 J2.025 F240.000
G1 X2.086 Y-13.082 Z-7.750 F240.000
G2 X-0.660 Y-8.873 Z-7.750 I0.010 J3.006 F240.000
G1 X2.352 Y-2.034 Z-7.750 F240.000
G2 X3.089 Y-1.165 Z-7.750 I1.830 J-0.806 F240.000
G1 X5.895 Y0.665 Z-7.750 F240.000
G2 X6.988 Y0.990 Z-7.750 I1.093 J-1.675 F240.000
G1 X16.187 Y0.990 Z-7.750 F240.000
G2 X17.026 Y0.806 Z-7.750 I-0.000 J-2.000 F240.000
G3 X18.240 Y0.667 Z-7.750 I0.746 J1.149 F240.000
G2 X19.379 Y0.990 Z-7.750 I1.305 J-2.430 F240.000
G1 X33.379 Y0.990 Z-7.750 F240.000
G2 X39.340 Y-4.357 Z-7.750 I-0.005 J-6.003 F240.000
G2 X39.379 Y-6.558 Z-7.750 I-17.424 J-1.404 F240.000
G3 X41.444 Y-8.626 Z-7.750 I2.012 J-0.056 F240.000
G1 X50.895 Y-8.626 Z-7.750 F240.000
G1 X50.896 Y-8.121 Z-7.750 F240.000
G2 X55.648 Y-4.863 Z-7.750 I3.499 J-0.009 F240.000
G1 X55.648 Y-4.863 Z-8.000 F12.000
G2 X57.894 Y-8.125 Z-8.000 I-1.253 J-3.267 F240.000
G1 X57.894 Y-23.875 Z-8.000 F240.000
G2 X52.046 Y-26.461 Z-8.000 I-3.498 J0.006 F240.000
