;Generated by Cura LulzBot Edition GCodeWriter Version: 3.6.18
;FLAVOR:Marlin
;TIME:3578
;Filament used: 2.27899m
;Layer height: 0.25
;Generated with Cura_SteamEngine 3.6.20
M82 ;absolute extrusion mode
;This G-Code has been generated specifically for the LulzBot Mini 2 with SE 0.5mm Tool Head
M73 P0                  ; clear GLCD progress bar
M75 					; Start GLCD Print Timer
G26 					; clear potential 'probe fail' condition
M107 					; disable fans
M420 S0                 ; disable leveling matrix
G90 					; absolute positioning
M82 					; set extruder to absolute mode
G92 E0 					; set extruder position to 0
M140 S112 ; start bed heating up
G28         ; Home Axis
G0 X160 F9999 ;move toolhead to right
G0 Z5 F6000 ; Move to bottom of printer
G91         ; Set relative motion mode
M211 S0	; Turn off soft endstops
M400 ; Finish moves
M906 Z600 ; Lower current to 600mA
G0 Z-15 F500 ; Skip steppers against lower Z mounts
G90 ; Return to absolute mode
M400 ; Finish moves
M906 Z960 ; Restore default current
M211 S1	; Turn soft endstops back on
M400 ; Finish moves
G28 ; Rehome
G0 X0 Y187 Z156 F200 			; move away from endstops
M117 Mini 2 Wiping...			; progress indicator message on LCD
M109 R170 	; soften filament before retraction
G1 E-15 F75 				; retract filament
M109 R170 	; wait for extruder to reach wiping temp
G1 X45 Y176 F11520 			; move above wiper pad
G1 Z0 F1200 				; push nozzle into wiper
G1 X45 Y178 Z-.5 F4000		; wiping
G1 X55 Y176 Z-.5 F4000		; wiping
G1 X45 Y177 Z0 F4000		; wiping
G1 X55 Y176 F4000		; wiping
G1 X45 Y178 F4000		; wiping
G1 X55 Y176 F4000		; wiping
G1 X45 Y178 F4000		; wiping
G1 X55 Y176 F4000		; wiping
G1 X60 Y178 F4000		; wiping
G1 X80 Y176 F4000		; wiping
G1 X60 Y178 F4000		; wiping
G1 X80 Y176 F4000		; wiping
G1 X60 Y178 F4000		; wiping
G1 X90 Y176 F4000		; wiping
G1 X80 Y178 F4000		; wiping
G1 X100 Y176 F4000		; wiping
G1 X80 Y178 F4000		; wiping
G1 X100 Y176 F4000		; wiping
G1 X80 Y178 F4000		; wiping
G1 X100 Y176 F4000		; wiping
G1 X110 Y178 F4000		; wiping
G1 X100 Y176 F4000		; wiping
G1 X110 Y178 F4000		; wiping
G1 X100 Y176 F4000		; wiping
G1 X110 Y178 F4000		; wiping
G1 X115 Y176 Z-0.5 F1000	; wiping
G1 Z10					; raise extruder
G28 X0 Y0				; home X and Y
M109 R170	; wait for extruder to reach probe temp
M204 S300				; set probing acceleration
G29					; start auto-leveling sequence
M420 S1                     ; enable leveling matrix
M425 Z			     		; use measured Z backlash for compensation
M425 Z F0		     		; turn off measured Z backlash compensation. (if activated in the quality settings, this command will automatically be ignored)
M204 S2000				; restore standard acceleration
G1 X5 Y15 Z10 F5000			; move up off last probe point
G4 S1					; pause
M400					; wait for moves to finish
M117 Heating...				; progress indicator message on LCD
M109 R245 ; wait for extruder to reach initial printing temp
M190 R112 ; wait for bed to reach printing temp
G1 Z2 E0 F75				; prime tiny bit of filment into the nozzle
M117 Mini 2 Printing...		; progress indicator message on LCD
M221 S100 T0
G92 E0
G1 F600 E-1
;LAYER_COUNT:40
;LAYER:0
M107
G0 F2625 X20.791 Y55.355 Z0.425
;TYPE:SKIRT
G1 F600 E0
G1 F900 X21.284 Y55.225 E0.01698
G1 X21.836 Y55.173 E0.03545
G1 X30.116 Y55.099 E0.31127
G1 X30.318 Y55.104 E0.318
G1 X34.973 Y55.353 E0.47329
G1 X40.488 Y55.426 E0.65701
G1 X47.048 Y55.111 E0.87578
G1 X47.224 Y55.107 E0.88164
G1 X61.297 Y55.192 E1.35042
G1 X64.706 Y55.106 E1.46402
G1 X64.789 Y55.105 E1.46678
G1 X72.788 Y55.107 E1.73323
G1 X72.938 Y55.111 E1.73823
G1 X79.746 Y55.428 E1.96525
G1 X85.252 Y55.345 E2.14868
G1 X89.165 Y55.108 E2.27926
G1 X89.362 Y55.102 E2.28583
G1 X97.161 Y55.104 E2.54561
G1 X97.244 Y55.105 E2.54838
G1 X100.529 Y55.19 E2.65784
G1 X114.124 Y55.099 E3.1107
G1 X114.319 Y55.104 E3.1172
G1 X118.973 Y55.353 E3.27245
G1 X124.488 Y55.426 E3.45617
G1 X131.048 Y55.111 E3.67494
G1 X131.207 Y55.107 E3.68024
G1 X139.849 Y55.115 E3.96811
G1 X140.357 Y55.155 E3.98508
G1 X140.775 Y55.251 E3.99937
G1 X141.308 Y55.41 E4.0179
G1 X141.783 Y55.593 E4.03485
G1 X142.224 Y55.848 E4.05182
G1 X142.472 Y56.019 E4.06185
G1 X142.867 Y56.341 E4.07883
G1 X143.147 Y56.642 E4.09252
G1 X143.455 Y57.02 E4.10877
G1 X143.744 Y57.439 E4.12572
G1 X143.965 Y57.898 E4.14269
G1 X144.05 Y58.148 E4.15149
G1 X144.222 Y58.727 E4.17161
G1 X144.329 Y59.225 E4.18857
G1 X144.357 Y59.642 E4.20249
G1 X144.361 Y60.952 E4.24613
G1 X144.287 Y61.654 E4.26964
G1 X142.921 Y67.924 E4.4834
G1 X142.465 Y70.527 E4.57143
G1 X141.741 Y75.984 E4.75479
G1 X141.328 Y81.453 E4.93749
G1 X141.226 Y87.119 E5.12625
G1 X141.23 Y96.957 E5.45396
G1 X141.19 Y97.465 E5.47094
G1 X141.072 Y97.96 E5.48789
G1 X140.877 Y98.431 E5.50487
G1 X140.709 Y98.723 E5.51609
G1 X138.893 Y101.53 E5.62745
G1 X138.583 Y101.935 E5.64444
G1 X138.214 Y102.287 E5.66143
G1 X137.795 Y102.576 E5.67838
G1 X137.476 Y102.738 E5.6903
G1 X128.693 Y106.615 E6.0101
G1 X128.213 Y106.784 E6.02705
G1 X127.711 Y106.875 E6.04405
G1 X127.275 Y106.89 E6.05858
G1 X125.446 Y106.831 E6.11954
G1 X118.638 Y106.891 E6.34632
G1 X118.164 Y106.86 E6.36214
G1 X112.474 Y106.074 E6.55348
G1 X106.996 Y105.635 E6.73654
G1 X101.534 Y105.506 E6.91853
G1 X96.072 Y105.688 E7.10057
G1 X90.601 Y106.179 E7.28355
G1 X85.841 Y106.859 E7.44371
G1 X85.32 Y106.891 E7.4611
G1 X80.656 Y106.801 E7.61649
G1 X76.668 Y106.889 E7.74936
G1 X76.106 Y106.853 E7.76812
G1 X73.192 Y106.408 E7.86631
G1 X67.743 Y105.816 E8.04889
G1 X62.266 Y105.531 E8.23158
G1 X56.801 Y105.559 E8.41362
G1 X51.33 Y105.895 E8.59621
G1 X45.886 Y106.54 E8.77882
G1 X43.895 Y106.852 E8.84595
G1 X43.33 Y106.89 E8.86481
G1 X38.658 Y106.801 E9.02046
G1 X34.706 Y106.89 E9.15214
G1 X34.197 Y106.862 E9.16912
G1 X33.699 Y106.754 E9.18609
G1 X33.326 Y106.617 E9.19933
G1 X24.56 Y102.766 E9.51826
G1 X24.111 Y102.525 E9.53524
G1 X23.705 Y102.217 E9.55221
G1 X23.352 Y101.849 E9.5692
G1 X23.151 Y101.575 E9.58052
G1 X21.314 Y98.779 E9.69196
G1 X21.068 Y98.332 E9.70895
G1 X20.896 Y97.853 E9.72591
G1 X20.8 Y97.352 E9.7429
G1 X20.78 Y96.996 E9.75478
G1 X20.772 Y85.179 E10.14841
G1 X20.695 Y82.055 E10.2525
G1 X20.316 Y76.58 E10.43531
G1 X19.631 Y71.158 E10.61735
G1 X18.638 Y65.767 E10.79995
G1 X18.055 Y63.245 E10.88617
G1 X17.74 Y61.897 E10.93229
G1 X17.664 Y61.393 E10.94926
G1 X17.656 Y61.08 E10.95969
G1 X17.699 Y59.268 E11.02007
G1 X17.751 Y58.761 E11.03705
G1 X17.951 Y58.087 E11.06047
G1 X18.058 Y57.832 E11.06968
G1 X18.292 Y57.38 E11.08663
G1 X18.536 Y57.036 E11.10068
G1 X18.872 Y56.624 E11.11839
G1 X19.224 Y56.256 E11.13535
G1 X19.63 Y55.947 E11.15235
G1 X19.851 Y55.816 E11.16091
G1 X20.325 Y55.561 E11.17883
G1 X20.791 Y55.355 E11.19581
G1 F600 E10.19581
;MESH:
G0 F2625 X22.093 Y59.127
;TYPE:WALL-INNER
G1 F600 E11.19581
G1 F900 X22.213 Y59.103 E11.19988
G1 X30.292 Y59.098 E11.469
G1 X32.568 Y65.101 E11.68285
G1 X32.568 Y86.736 E12.40352
G1 X32.531 Y86.94 E12.41042
G1 X32.492 Y87.228 E12.42011
G1 X32.466 Y87.516 E12.42974
G1 X32.452 Y87.806 E12.43941
G1 X32.451 Y88.096 E12.44907
G1 X32.463 Y88.387 E12.45877
G1 X32.488 Y88.676 E12.46843
G1 X32.526 Y88.964 E12.47811
G1 X32.577 Y89.25 E12.48779
G1 X32.639 Y89.532 E12.4974
G1 X32.714 Y89.812 E12.50706
G1 X32.802 Y90.09 E12.51677
G1 X32.903 Y90.363 E12.52647
G1 X33.015 Y90.631 E12.53615
G1 X33.138 Y90.893 E12.54579
G1 X33.273 Y91.149 E12.55543
G1 X33.42 Y91.402 E12.56517
G1 X33.578 Y91.644 E12.5748
G1 X33.744 Y91.88 E12.58441
G1 X33.923 Y92.109 E12.59409
G1 X34.112 Y92.332 E12.60383
G1 X34.312 Y92.545 E12.61356
G1 X34.518 Y92.747 E12.62317
G1 X34.734 Y92.941 E12.63285
G1 X34.958 Y93.126 E12.64252
G1 X35.191 Y93.3 E12.65221
G1 X35.431 Y93.463 E12.66187
G1 X35.678 Y93.616 E12.67155
G1 X35.932 Y93.757 E12.68123
G1 X36.189 Y93.887 E12.69082
G1 X36.456 Y94.007 E12.70057
G1 X36.726 Y94.113 E12.71023
G1 X37.001 Y94.207 E12.71992
G1 X37.277 Y94.289 E12.72951
G1 X37.56 Y94.36 E12.73923
G1 X37.844 Y94.417 E12.74887
G1 X38.132 Y94.463 E12.75859
G1 X38.419 Y94.494 E12.7682
G1 X38.71 Y94.515 E12.77792
G1 X39 Y94.52 E12.78758
G1 X39.29 Y94.515 E12.79725
G1 X39.581 Y94.494 E12.80696
G1 X39.868 Y94.463 E12.81658
G1 X40.156 Y94.417 E12.8263
G1 X40.44 Y94.36 E12.83594
G1 X40.723 Y94.289 E12.84566
G1 X40.999 Y94.207 E12.85525
G1 X41.274 Y94.113 E12.86493
G1 X41.544 Y94.007 E12.8746
G1 X41.815 Y93.886 E12.88448
G1 X42.318 Y93.619 E12.90345
G1 X42.569 Y93.463 E12.9133
G1 X42.809 Y93.3 E12.92296
G1 X43.042 Y93.126 E12.93265
G1 X43.266 Y92.941 E12.94232
G1 X43.482 Y92.747 E12.952
G1 X43.688 Y92.545 E12.96161
G1 X43.888 Y92.332 E12.97134
G1 X44.077 Y92.109 E12.98108
G1 X44.256 Y91.88 E12.99076
G1 X44.422 Y91.644 E13.00037
G1 X44.58 Y91.402 E13.01
G1 X44.727 Y91.149 E13.01974
G1 X44.862 Y90.893 E13.02938
G1 X44.985 Y90.631 E13.03902
G1 X45.097 Y90.363 E13.0487
G1 X45.198 Y90.09 E13.0584
G1 X45.286 Y89.812 E13.06811
G1 X45.361 Y89.532 E13.07776
G1 X45.423 Y89.25 E13.08738
G1 X45.474 Y88.964 E13.09706
G1 X45.512 Y88.676 E13.10674
G1 X45.537 Y88.387 E13.1164
G1 X45.549 Y88.096 E13.1261
G1 X45.548 Y87.806 E13.13576
G1 X45.534 Y87.516 E13.14543
G1 X45.508 Y87.228 E13.15506
G1 X45.469 Y86.94 E13.16475
G1 X45.432 Y86.736 E13.17165
G1 X45.432 Y65.101 E13.89232
G1 X47.709 Y59.098 E14.10618
G1 X55.786 Y59.102 E14.37523
G1 X55.896 Y59.124 E14.37897
G1 X56.028 Y59.179 E14.38373
G1 X56.14 Y59.253 E14.3882
G1 X56.223 Y59.335 E14.39209
G1 X56.299 Y59.451 E14.39671
G1 X56.343 Y59.562 E14.40069
G1 X56.368 Y59.685 E14.40487
G1 X56.37 Y60.978 E14.44794
G1 X56.356 Y61.091 E14.45173
G1 X56.309 Y61.222 E14.45637
G1 X56.28 Y61.278 E14.45847
G1 X56.197 Y61.389 E14.46309
G1 X56.113 Y61.467 E14.4669
G1 X56.003 Y61.534 E14.47119
G1 X55.881 Y61.578 E14.47551
G1 X55.751 Y61.597 E14.47989
G1 X51.029 Y61.598 E14.63718
G1 X50.667 Y62.477 E14.66885
G1 X50.504 Y62.906 E14.68413
G1 X50.354 Y63.338 E14.69937
G1 X50.214 Y63.777 E14.71472
G1 X50.09 Y64.219 E14.73001
G1 X49.977 Y64.663 E14.74527
G1 X49.877 Y65.111 E14.76056
G1 X49.789 Y65.561 E14.77583
G1 X49.715 Y66.014 E14.79112
G1 X49.654 Y66.469 E14.80641
G1 X49.605 Y66.925 E14.82169
G1 X49.57 Y67.384 E14.83702
G1 X49.548 Y67.841 E14.85227
G1 X49.539 Y68.3 E14.86756
G1 X49.543 Y68.759 E14.88285
G1 X49.561 Y69.218 E14.89815
G1 X49.592 Y69.675 E14.91341
G1 X49.634 Y70.132 E14.92869
G1 X49.692 Y70.589 E14.94404
G1 X49.761 Y71.041 E14.95927
G1 X49.845 Y71.493 E14.97458
G1 X49.939 Y71.941 E14.98983
G1 X50.048 Y72.388 E15.00516
G1 X50.17 Y72.83 E15.02043
G1 X50.303 Y73.269 E15.03571
G1 X50.449 Y73.704 E15.051
G1 X50.608 Y74.135 E15.0663
G1 X50.778 Y74.56 E15.08155
G1 X50.961 Y74.982 E15.09687
G1 X51.157 Y75.398 E15.11219
G1 X51.364 Y75.807 E15.12745
G1 X51.583 Y76.21 E15.14273
G1 X51.812 Y76.608 E15.15803
G1 X52.053 Y76.998 E15.1733
G1 X52.305 Y77.381 E15.18857
G1 X52.568 Y77.758 E15.20388
G1 X52.843 Y78.126 E15.21919
G1 X53.24 Y78.622 E15.24035
G1 X53.24 Y84.439 E15.43411
G1 X53.114 Y84.775 E15.44607
G1 X53.013 Y85.139 E15.45865
G1 X52.956 Y85.411 E15.46791
G1 X52.909 Y85.785 E15.48046
G1 X52.892 Y86.061 E15.48968
G1 X52.896 Y86.444 E15.50243
G1 X52.922 Y86.719 E15.51164
G1 X52.98 Y87.092 E15.52421
G1 X53.044 Y87.363 E15.53348
G1 X53.157 Y87.73 E15.54628
G1 X53.24 Y87.931 E15.55352
G1 X53.24 Y96.759 E15.84758
G1 X51.654 Y99.191 E15.9443
G1 X43.351 Y102.847 E16.2465
G1 X42.857 Y102.691 E16.26376
G1 X42.46 Y102.581 E16.27748
G1 X42.06 Y102.483 E16.2912
G1 X41.657 Y102.398 E16.30492
G1 X41.253 Y102.325 E16.31859
G1 X40.846 Y102.264 E16.3323
G1 X40.437 Y102.214 E16.34603
G1 X40.028 Y102.177 E16.3597
G1 X39.617 Y102.152 E16.37342
G1 X39.207 Y102.14 E16.38708
G1 X38.793 Y102.14 E16.40087
G1 X38.383 Y102.152 E16.41454
G1 X37.972 Y102.177 E16.42825
G1 X37.563 Y102.214 E16.44193
G1 X37.154 Y102.264 E16.45566
G1 X36.747 Y102.325 E16.46937
G1 X36.343 Y102.398 E16.48304
G1 X35.94 Y102.483 E16.49676
G1 X35.54 Y102.581 E16.51048
G1 X35.141 Y102.692 E16.52428
G1 X34.653 Y102.849 E16.54135
G1 X26.346 Y99.191 E16.8437
G1 X24.76 Y96.759 E16.94042
G1 X24.76 Y87.936 E17.23431
G1 X24.798 Y87.846 E17.23757
G1 X24.92 Y87.49 E17.2501
G1 X24.992 Y87.22 E17.25941
G1 X25.061 Y86.846 E17.27208
G1 X25.093 Y86.573 E17.28124
G1 X25.109 Y86.199 E17.2937
G1 X25.104 Y85.928 E17.30273
G1 X25.078 Y85.655 E17.31187
G1 X25.02 Y85.282 E17.32444
G1 X24.956 Y85.011 E17.33372
G1 X24.843 Y84.644 E17.34651
G1 X24.76 Y84.443 E17.35375
G1 X24.76 Y78.622 E17.54765
G1 X25.157 Y78.126 E17.56881
G1 X25.432 Y77.758 E17.58412
G1 X25.695 Y77.381 E17.59943
G1 X25.947 Y76.998 E17.6147
G1 X26.188 Y76.608 E17.62997
G1 X26.417 Y76.21 E17.64527
G1 X26.636 Y75.807 E17.66055
G1 X26.843 Y75.398 E17.67582
G1 X27.039 Y74.982 E17.69113
G1 X27.222 Y74.56 E17.70646
G1 X27.392 Y74.135 E17.7217
G1 X27.551 Y73.704 E17.73701
G1 X27.697 Y73.269 E17.75229
G1 X27.83 Y72.83 E17.76757
G1 X27.952 Y72.388 E17.78284
G1 X28.061 Y71.941 E17.79817
G1 X28.155 Y71.493 E17.81342
G1 X28.239 Y71.041 E17.82873
G1 X28.308 Y70.589 E17.84396
G1 X28.366 Y70.132 E17.85931
G1 X28.408 Y69.675 E17.87459
G1 X28.439 Y69.218 E17.88985
G1 X28.457 Y68.759 E17.90515
G1 X28.461 Y68.3 E17.92044
G1 X28.452 Y67.841 E17.93574
G1 X28.43 Y67.384 E17.95098
G1 X28.395 Y66.925 E17.96631
G1 X28.346 Y66.469 E17.98159
G1 X28.285 Y66.014 E17.99688
G1 X28.211 Y65.561 E18.01217
G1 X28.123 Y65.111 E18.02744
G1 X28.023 Y64.66 E18.04283
G1 X27.787 Y63.779 E18.07321
G1 X27.646 Y63.338 E18.08863
G1 X27.496 Y62.906 E18.10387
G1 X27.333 Y62.477 E18.11915
G1 X26.971 Y61.598 E18.15082
G1 X22.263 Y61.598 E18.30764
G1 X22.109 Y61.576 E18.31283
G1 X21.998 Y61.535 E18.31677
G1 X21.888 Y61.468 E18.32106
G1 X21.795 Y61.381 E18.3253
G1 X21.727 Y61.29 E18.32908
G1 X21.671 Y61.174 E18.33337
G1 X21.638 Y61.057 E18.33742
G1 X21.631 Y60.979 E18.34003
G1 X21.633 Y59.675 E18.38347
G1 X21.656 Y59.563 E18.38728
G1 X21.7 Y59.452 E18.39125
G1 X21.776 Y59.336 E18.39587
G1 X21.868 Y59.245 E18.40018
G1 X21.967 Y59.18 E18.40413
G1 X22.093 Y59.127 E18.40868
G0 F2625 X21.835 Y58.689
;TYPE:WALL-OUTER
G1 F900 X21.948 Y58.648 E18.41269
G1 X22.054 Y58.621 E18.41633
G1 X22.156 Y58.606 E18.41977
G1 X22.289 Y58.599 E18.4242
G1 X30.637 Y58.598 E18.70228
G1 X33.068 Y65.008 E18.93064
G1 X33.068 Y86.782 E19.65594
G1 X33.025 Y87.018 E19.66393
G1 X32.989 Y87.284 E19.67287
G1 X32.965 Y87.551 E19.6818
G1 X32.952 Y87.819 E19.69073
G1 X32.951 Y88.087 E19.69966
G1 X32.962 Y88.355 E19.7086
G1 X32.985 Y88.622 E19.71752
G1 X33.02 Y88.888 E19.72646
G1 X33.067 Y89.152 E19.73539
G1 X33.125 Y89.413 E19.7443
G1 X33.194 Y89.672 E19.75323
G1 X33.275 Y89.928 E19.76217
G1 X33.368 Y90.18 E19.77112
G1 X33.472 Y90.428 E19.78008
G1 X33.586 Y90.67 E19.78899
G1 X33.71 Y90.907 E19.7979
G1 X33.846 Y91.139 E19.80686
G1 X33.992 Y91.364 E19.81579
G1 X34.146 Y91.582 E19.82468
G1 X34.311 Y91.794 E19.83363
G1 X34.485 Y91.999 E19.84259
G1 X34.669 Y92.195 E19.85154
G1 X34.86 Y92.382 E19.86044
G1 X35.06 Y92.562 E19.86941
G1 X35.267 Y92.732 E19.87833
G1 X35.482 Y92.893 E19.88728
G1 X35.704 Y93.044 E19.89622
G1 X35.931 Y93.185 E19.90512
G1 X36.166 Y93.315 E19.91407
G1 X36.404 Y93.436 E19.92296
G1 X36.65 Y93.546 E19.93194
G1 X36.899 Y93.644 E19.94085
G1 X37.153 Y93.731 E19.94979
G1 X37.409 Y93.807 E19.95869
G1 X37.67 Y93.872 E19.96765
G1 X37.933 Y93.925 E19.97659
G1 X38.198 Y93.967 E19.98552
G1 X38.464 Y93.996 E19.99444
G1 X38.732 Y94.015 E20.00339
G1 X39 Y94.02 E20.01232
G1 X39.268 Y94.015 E20.02124
G1 X39.536 Y93.996 E20.03019
G1 X39.802 Y93.967 E20.03911
G1 X40.067 Y93.925 E20.04804
G1 X40.33 Y93.872 E20.05698
G1 X40.591 Y93.807 E20.06594
G1 X40.847 Y93.731 E20.07484
G1 X41.101 Y93.644 E20.08378
G1 X41.35 Y93.546 E20.09269
G1 X41.596 Y93.436 E20.10167
G1 X42.069 Y93.185 E20.11951
G1 X42.296 Y93.044 E20.12841
G1 X42.518 Y92.893 E20.13735
G1 X42.733 Y92.732 E20.1463
G1 X42.94 Y92.562 E20.15522
G1 X43.14 Y92.382 E20.16418
G1 X43.331 Y92.195 E20.17309
G1 X43.515 Y91.999 E20.18204
G1 X43.689 Y91.794 E20.191
G1 X43.854 Y91.582 E20.19995
G1 X44.008 Y91.364 E20.20884
G1 X44.154 Y91.139 E20.21777
G1 X44.29 Y90.907 E20.22673
G1 X44.414 Y90.67 E20.23564
G1 X44.528 Y90.428 E20.24455
G1 X44.632 Y90.18 E20.25351
G1 X44.725 Y89.928 E20.26246
G1 X44.806 Y89.672 E20.2714
G1 X44.875 Y89.413 E20.28033
