;Generated by Cura LulzBot Edition GCodeWriter Version: 3.6.14
;FLAVOR:Marlin
;TIME:13418
;Filament used: 10.6814m
;Layer height: 0.28
;Generated with Cura_SteamEngine 3.6.14
M82 ;absolute extrusion mode
;This G-Code has been generated specifically for the LulzBot Mini 2 with SE 0.5mm Tool Head
M73 P0                  ; clear GLCD progress bar
M75 					; Start GLCD Print Timer
G26 					; clear potential 'probe fail' condition
M107 					; disable fans
M420 S0                 ; disable leveling matrix
G90 					; absolute positioning
M82 					; set extruder to absolute mode
G92 E0 					; set extruder position to 0
M140 S115.0 	; start bed heating up
G28 					; home all axes
G28                       ; Home Axis
G0 X160 F9999             ; Move toolhead to the right
G0 Z5 F6000               ; Move to bottom of printer
G91                       ; Set relative motion mode
M211 S0		  	  ; Turn off soft endstops
M400                      ; Finish moves
G0 Z-15 F500              ; Skip steppers against lower Z mounts
G90                       ; Return to absolute mode
M400                      ; Finish moves
M211 S1			  ; Turn soft endstops back on
M400                      ; Finish moves
G28                       ; Rehome
M117 X-Axis Leveled
G0 X0 Y187 Z156 F200 			; move away from endstops
M117 Mini 2 Wiping...			; progress indicator message on LCD
M109 R170 	; soften filament before retraction
G1 E-15 F75 				; retract filament
M109 R170 	; wait for extruder to reach wiping temp
G1 X45 Y176 F11520 			; move above wiper pad
G1 Z0 F1200 				; push nozzle into wiper
G1 X45 Y178 Z-.5 F4000		; wiping
G1 X55 Y176 Z-.5 F4000		; wiping
G1 X45 Y177 Z0 F4000		; wiping
G1 X55 Y176 F4000		; wiping
G1 X45 Y178 F4000		; wiping
G1 X55 Y176 F4000		; wiping
G1 X45 Y178 F4000		; wiping
G1 X55 Y176 F4000		; wiping
G1 X60 Y178 F4000		; wiping
G1 X80 Y176 F4000		; wiping
G1 X60 Y178 F4000		; wiping
G1 X80 Y176 F4000		; wiping
G1 X60 Y178 F4000		; wiping
G1 X90 Y176 F4000		; wiping
G1 X80 Y178 F4000		; wiping
G1 X100 Y176 F4000		; wiping
G1 X80 Y178 F4000		; wiping
G1 X100 Y176 F4000		; wiping
G1 X80 Y178 F4000		; wiping
G1 X100 Y176 F4000		; wiping
G1 X110 Y178 F4000		; wiping
G1 X100 Y176 F4000		; wiping
G1 X110 Y178 F4000		; wiping
G1 X100 Y176 F4000		; wiping
G1 X110 Y178 F4000		; wiping
G1 X115 Y176 Z-0.5 F1000	; wiping
G1 Z10					; raise extruder
G28 X0 Y0				; home X and Y
M109 R170	; wait for extruder to reach probe temp
M204 S300				; set probing acceleration
G29					; start auto-leveling sequence
M420 S1                     ; enable leveling matrix
M425 Z			     		; use measured Z backlash for compensation
M425 Z F0		     		; turn off measured Z backlash compensation. (if activated in the quality settings, this command will automatically be ignored)
M204 S2000				; restore standard acceleration
G1 X5 Y15 Z10 F5000			; move up off last probe point
G4 S1					; pause
M400					; wait for moves to finish
M117 Heating...				; progress indicator message on LCD
M109 R250	; wait for extruder to reach initial printing temp
M190 S116.0 ; wait for bed to reach printing temp
G1 Z2 E0 F75				; prime tiny bit of filment into the nozzle
M117 Mini 2 Printing...		; progress indicator message on LCD
M221 S100 T0
M83 ;relative extrusion mode
G1 F600 E-1
;LAYER_COUNT:129
;LAYER:0
M107
M204 S800
M205 X10 Y10
G0 F2625 X52.63 Y54.467 Z0.4
;TYPE:SKIRT
G1 F600 E1
G1 F900 X53.016 Y54.127 E0.02016
G1 X53.265 Y53.956 E0.01184
G1 X58.785 Y50.537 E0.25445
G1 X59.242 Y50.301 E0.02016
G1 X59.699 Y50.147 E0.0189
G1 X60.159 Y50.028 E0.01862
G1 X60.666 Y49.938 E0.02018
G1 X60.989 Y49.922 E0.01267
G1 X126.855 Y49.921 E2.5812
G1 X127.368 Y49.961 E0.02016
G1 X127.868 Y50.08 E0.02014
G1 X128.344 Y50.275 E0.02016
G1 X128.785 Y50.541 E0.02018
G1 X129.178 Y50.872 E0.02014
G1 X129.516 Y51.26 E0.02017
G1 X129.789 Y51.696 E0.02016
G1 X129.992 Y52.169 E0.02017
G1 X130.119 Y52.667 E0.02014
G1 X130.168 Y53.234 E0.0223
G1 X130.165 Y77.067 E0.93398
G1 X130.125 Y77.58 E0.02016
G1 X130.006 Y78.081 E0.02018
G1 X129.811 Y78.557 E0.02016
G1 X129.559 Y78.977 E0.01919
G1 X109.684 Y107.147 E1.35105
G1 X109.356 Y107.543 E0.02015
G1 X108.97 Y107.883 E0.02016
G1 X108.713 Y108.059 E0.01221
G1 X103.104 Y111.509 E0.25806
G1 X102.646 Y111.744 E0.02017
G1 X102.035 Y111.932 E0.02505
G1 X101.636 Y112.014 E0.01596
G1 X100.969 Y112.082 E0.02627
G1 X35.146 Y112.079 E2.57952
G1 X34.633 Y112.039 E0.02016
G1 X34.132 Y111.92 E0.02018
G1 X33.656 Y111.725 E0.02016
G1 X33.216 Y111.459 E0.02015
G1 X32.823 Y111.128 E0.02014
G1 X32.485 Y110.74 E0.02017
G1 X32.212 Y110.304 E0.02016
G1 X32.009 Y109.831 E0.02017
G1 X31.882 Y109.333 E0.02014
G1 X31.833 Y108.765 E0.02234
G1 X31.842 Y84.921 E0.93441
G1 X31.882 Y84.408 E0.02016
G1 X32.001 Y83.907 E0.02018
G1 X32.196 Y83.431 E0.02016
G1 X32.448 Y83.012 E0.01916
G1 X52.302 Y54.863 E1.3499
G1 X52.63 Y54.467 E0.02015
G1 F600 E-1
;MESH:
G0 F2625 X55.662 Y56.282
G0 X59.283 Y66.387
G0 X63.174 Y70.544
G0 X62.69 Y72.162
G0 X71.278 Y72.213
G0 X71.348 Y72.143
;TYPE:WALL-INNER
G1 F600 E1
G1 F900 X71.348 Y97.202 E0.98203
G1 X73.017 Y97.202 E0.06541
G1 X73.151 Y97.202 E0.00525
G1 X73.503 Y97.202 E0.01379
G1 X73.865 Y97.202 E0.01419
G1 X74.228 Y97.202 E0.01423
G1 X74.596 Y97.202 E0.01442
G1 X74.967 Y97.202 E0.01454
G1 X75.334 Y97.202 E0.01438
G1 X75.698 Y97.202 E0.01426
G1 X76.06 Y97.202 E0.01419
G1 X76.411 Y97.202 E0.01376
G1 X76.546 Y97.202 E0.00529
G1 X101.128 Y97.202 E0.96334
G1 X101.128 Y107.648 E0.40936
G1 X101.11 Y107.75 E0.00406
G1 X101.078 Y107.797 E0.00223
G1 X101.025 Y107.829 E0.00243
G1 X100.931 Y107.842 E0.00372
G1 X76.007 Y107.842 E0.97674
G1 X75.698 Y107.842 E0.01211
G1 X75.334 Y107.842 E0.01426
G1 X74.967 Y107.842 E0.01438
G1 X74.596 Y107.842 E0.01454
G1 X74.228 Y107.842 E0.01442
G1 X73.865 Y107.842 E0.01423
G1 X73.556 Y107.842 E0.01211
G1 X36.384 Y107.84 E1.45672
G1 X36.072 Y107.84 E0.01223
G1 X36.072 Y107.528 E0.00791
G1 X36.074 Y85.227 E0.87395
G1 X53.502 Y60.518 E1.18494
G1 X54.069 Y59.714 E0.03855
G1 X54.069 Y60.697 E0.02016
G1 X54.069 Y60.699 E0.00008
G1 X54.069 Y66.448 E0.2253
G1 X62.694 Y72.143 E0.40504
G1 X71.348 Y72.143 E0.33914
G0 F2625 X71.278 Y72.213
G0 X71.32 Y97.23
G0 X76.087 Y97.571
G0 X76.06 Y97.667
G1 F900 X75.698 Y97.584 E0.00995
G1 X75.334 Y97.531 E0.00824
G1 X74.967 Y97.502 E0.00728
G1 X74.596 Y97.502 E0.00698
G1 X74.228 Y97.531 E0.0073
G1 X73.865 Y97.584 E0.00822
G1 X73.503 Y97.667 E0.00995
G1 X73.151 Y97.776 E0.01208
G1 X73.027 Y97.825 E0.00502
G1 X72.807 Y97.911 E0.00926
G1 X72.474 Y98.071 E0.01448
G1 X72.154 Y98.257 E0.0145
G1 X71.851 Y98.463 E0.01436
G1 X71.561 Y98.694 E0.01453
G1 X71.292 Y98.944 E0.01439
G1 X71.039 Y99.215 E0.01453
G1 X70.809 Y99.505 E0.01451
G1 X70.601 Y99.808 E0.0144
G1 X70.417 Y100.128 E0.01447
G1 X70.257 Y100.461 E0.01448
G1 X70.122 Y100.805 E0.01448
G1 X70.013 Y101.157 E0.01444
G1 X69.93 Y101.518 E0.01452
G1 X69.875 Y101.883 E0.01447
G1 X69.848 Y102.251 E0.01446
G1 X69.848 Y102.62 E0.01446
G1 X69.875 Y102.988 E0.01446
G1 X69.93 Y103.353 E0.01447
G1 X70.013 Y103.714 E0.01452
G1 X70.122 Y104.066 E0.01444
G1 X70.257 Y104.41 E0.01448
G1 X70.417 Y104.743 E0.01448
G1 X70.601 Y105.063 E0.01447
G1 X70.809 Y105.366 E0.0144
G1 X71.039 Y105.656 E0.01451
G1 X71.292 Y105.927 E0.01453
G1 X71.561 Y106.177 E0.01439
G1 X71.851 Y106.408 E0.01453
G1 X72.154 Y106.614 E0.01436
G1 X72.474 Y106.8 E0.0145
G1 X72.807 Y106.96 E0.01448
G1 X73.151 Y107.095 E0.01448
G1 X73.503 Y107.204 E0.01444
G1 X73.564 Y107.218 E0.00245
G1 X73.865 Y107.287 E0.01143
G1 X74.228 Y107.34 E0.01217
G1 X74.596 Y107.369 E0.01129
G1 X74.967 Y107.369 E0.011
G1 X75.334 Y107.34 E0.01126
G1 X75.698 Y107.287 E0.0122
G1 X75.999 Y107.218 E0.01143
G1 X76.06 Y107.204 E0.00245
G1 X76.411 Y107.095 E0.0144
G1 X76.756 Y106.96 E0.01452
G1 X77.089 Y106.8 E0.01448
G1 X77.407 Y106.615 E0.01442
G1 X77.712 Y106.408 E0.01445
G1 X78.001 Y106.178 E0.01447
G1 X78.272 Y105.927 E0.01448
G1 X78.524 Y105.656 E0.0145
G1 X78.754 Y105.366 E0.01451
G1 X78.96 Y105.063 E0.01436
G1 X79.146 Y104.743 E0.0145
G1 X79.306 Y104.41 E0.01448
G1 X79.441 Y104.066 E0.01448
G1 X79.55 Y103.714 E0.01444
G1 X79.633 Y103.352 E0.01455
G1 X79.687 Y102.986 E0.0145
G1 X79.714 Y102.62 E0.01438
G1 X79.714 Y102.251 E0.01446
G1 X79.687 Y101.885 E0.01438
G1 X79.633 Y101.519 E0.0145
G1 X79.55 Y101.157 E0.01455
G1 X79.441 Y100.805 E0.01444
G1 X79.306 Y100.461 E0.01448
G1 X79.146 Y100.128 E0.01448
G1 X78.96 Y99.808 E0.0145
G1 X78.754 Y99.505 E0.01436
G1 X78.524 Y99.215 E0.01451
G1 X78.272 Y98.944 E0.0145
G1 X78.001 Y98.693 E0.01448
G1 X77.712 Y98.463 E0.01447
G1 X77.407 Y98.256 E0.01445
G1 X77.089 Y98.071 E0.01442
G1 X76.756 Y97.911 E0.01448
G1 X76.536 Y97.825 E0.00926
G1 X76.411 Y97.776 E0.00505
G1 X76.06 Y97.667 E0.01205
G0 F2625 X76.087 Y97.571
G0 X71.32 Y97.23
G0 X71.278 Y72.213
G0 X71.972 Y71.519
;TYPE:WALL-OUTER
G1 F900 X71.972 Y96.578 E0.98203
G1 X101.752 Y96.578 E1.16704
G1 X101.752 Y107.683 E0.43519
G1 X101.738 Y107.807 E0.00489
G1 X101.702 Y107.962 E0.00624
G1 X101.638 Y108.092 E0.00568
G1 X101.521 Y108.243 E0.00749
G1 X101.405 Y108.333 E0.00575
G1 X101.337 Y108.375 E0.00313
G1 X101.225 Y108.423 E0.00478
G1 X101.17 Y108.439 E0.00224
G1 X100.97 Y108.466 E0.00791
G1 X35.76 Y108.464 E2.55549
G1 X35.448 Y108.464 E0.01223
G1 X35.448 Y108.152 E0.00791
G1 X35.45 Y85.029 E0.90616
G1 X54.126 Y58.55 E1.26982
G1 X54.693 Y57.746 E0.03855
G1 X54.693 Y58.729 E0.02016
G1 X54.693 Y58.731 E0.00008
G1 X54.693 Y66.112 E0.28925
G1 X62.881 Y71.519 E0.38453
G1 X71.972 Y71.519 E0.35626
G0 F2625 X71.278 Y72.213
G0 X71.32 Y97.23
G0 X76.06 Y97.565
G0 X75.898 Y98.27
G1 F900 X75.583 Y98.198 E0.01266
G1 X75.264 Y98.151 E0.01264
G1 X74.943 Y98.126 E0.01262
G1 X74.62 Y98.126 E0.01266
G1 X74.298 Y98.151 E0.01266
G1 X73.98 Y98.198 E0.0126
G1 X73.665 Y98.27 E0.01266
G1 X73.357 Y98.365 E0.01263
G1 X73.057 Y98.483 E0.01263
G1 X72.766 Y98.623 E0.01266
G1 X72.487 Y98.785 E0.01264
G1 X72.221 Y98.966 E0.01261
G1 X71.968 Y99.167 E0.01266
G1 X71.733 Y99.386 E0.01259
G1 X71.512 Y99.622 E0.01267
G1 X71.312 Y99.875 E0.01264
G1 X71.13 Y100.141 E0.01263
G1 X70.969 Y100.42 E0.01262
G1 X70.829 Y100.711 E0.01266
G1 X70.711 Y101.011 E0.01263
G1 X70.616 Y101.319 E0.01263
G1 X70.544 Y101.634 E0.01266
G1 X70.496 Y101.953 E0.01264
G1 X70.472 Y102.274 E0.01261
G1 X70.472 Y102.597 E0.01266
G1 X70.496 Y102.918 E0.01261
G1 X70.544 Y103.237 E0.01264
G1 X70.616 Y103.552 E0.01266
G1 X70.711 Y103.86 E0.01263
G1 X70.829 Y104.16 E0.01263
G1 X70.969 Y104.451 E0.01266
G1 X71.13 Y104.73 E0.01262
G1 X71.312 Y104.996 E0.01263
G1 X71.512 Y105.249 E0.01264
G1 X71.733 Y105.485 E0.01267
G1 X71.968 Y105.704 E0.01259
G1 X72.221 Y105.905 E0.01266
G1 X72.487 Y106.086 E0.01261
G1 X72.766 Y106.248 E0.01264
G1 X73.057 Y106.388 E0.01266
G1 X73.357 Y106.506 E0.01263
G1 X73.665 Y106.601 E0.01263
G1 X73.98 Y106.673 E0.01266
G1 X74.298 Y106.72 E0.0126
G1 X74.62 Y106.745 E0.01266
G1 X74.943 Y106.745 E0.01266
G1 X75.264 Y106.72 E0.01262
G1 X75.583 Y106.673 E0.01264
G1 X75.898 Y106.601 E0.01266
G1 X76.205 Y106.506 E0.01259
G1 X76.506 Y106.388 E0.01267
G1 X76.796 Y106.248 E0.01262
G1 X77.075 Y106.086 E0.01264
G1 X77.342 Y105.905 E0.01264
G1 X77.594 Y105.704 E0.01263
G1 X77.831 Y105.485 E0.01265
G1 X78.05 Y105.249 E0.01262
G1 X78.251 Y104.996 E0.01266
G1 X78.432 Y104.73 E0.01261
G1 X78.594 Y104.451 E0.01264
G1 X78.734 Y104.16 E0.01266
G1 X78.852 Y103.86 E0.01263
G1 X78.947 Y103.552 E0.01263
G1 X79.019 Y103.237 E0.01266
G1 X79.066 Y102.917 E0.01267
G1 X79.09 Y102.597 E0.01258
G1 X79.09 Y102.274 E0.01266
G1 X79.066 Y101.954 E0.01258
G1 X79.019 Y101.634 E0.01267
G1 X78.947 Y101.319 E0.01266
G1 X78.852 Y101.011 E0.01263
G1 X78.734 Y100.711 E0.01263
G1 X78.594 Y100.42 E0.01266
G1 X78.432 Y100.141 E0.01264
G1 X78.251 Y99.875 E0.01261
G1 X78.05 Y99.622 E0.01266
G1 X77.831 Y99.386 E0.01262
G1 X77.594 Y99.167 E0.01265
G1 X77.342 Y98.966 E0.01263
G1 X77.075 Y98.785 E0.01264
G1 X76.796 Y98.623 E0.01264
G1 X76.506 Y98.483 E0.01262
G1 X76.205 Y98.365 E0.01267
G1 X75.898 Y98.27 E0.01259
G0 F2625 X76.06 Y97.565
G0 X77.852 Y97.816
;TYPE:SKIN
G1 F900 X100.514 Y97.816 E0.88809
G1 X100.514 Y107.228 E0.36884
G1 X77.576 Y107.227 E0.89891
G1 X77.734 Y107.135 E0.00716
G1 X78.076 Y106.904 E0.01617
G1 X78.401 Y106.644 E0.01631
G1 X78.707 Y106.362 E0.01631
G1 X78.99 Y106.056 E0.01633
G1 X79.25 Y105.73 E0.01634
G1 X79.48 Y105.39 E0.01609
G1 X79.689 Y105.031 E0.01628
G1 X79.869 Y104.656 E0.0163
G1 X80.021 Y104.269 E0.01629
G1 X80.143 Y103.873 E0.01624
G1 X80.237 Y103.466 E0.01637
G1 X80.297 Y103.053 E0.01635
G1 X80.328 Y102.642 E0.01615
G1 X80.328 Y102.229 E0.01618
G1 X80.297 Y101.818 E0.01615
G1 X80.237 Y101.405 E0.01635
G1 X80.143 Y100.998 E0.01637
G1 X80.021 Y100.602 E0.01624
G1 X79.869 Y100.215 E0.01629
G1 X79.689 Y99.84 E0.0163
G1 X79.48 Y99.481 E0.01628
G1 X79.25 Y99.141 E0.01609
G1 X78.99 Y98.815 E0.01634
G1 X78.707 Y98.509 E0.01633
G1 X78.401 Y98.227 E0.01631
G1 X78.076 Y97.967 E0.01631
G1 X77.852 Y97.816 E0.01059
G0 F2625 X78.729 Y98.125
G1 F900 X100.227 Y98.125 E0.84248
G0 F2625 X100.227 Y98.75
G1 F900 X79.304 Y98.75 E0.81994
G0 F2625 X79.749 Y99.375
G1 F900 X100.227 Y99.375 E0.80251
G0 F2625 X100.227 Y100
G1 F900 X80.083 Y100 E0.78942
G0 F2625 X80.328 Y100.625
G1 F900 X100.227 Y100.625 E0.77982
G0 F2625 X100.227 Y101.25
G1 F900 X80.496 Y101.25 E0.77323
G0 F2625 X80.588 Y101.875
G1 F900 X100.227 Y101.875 E0.76963
G0 F2625 X100.227 Y102.5
G1 F900 X80.615 Y102.5 E0.76857
G0 F2625 X80.576 Y103.125
G1 F900 X100.227 Y103.125 E0.7701
G0 F2625 X100.227 Y103.75
G1 F900 X80.467 Y103.75 E0.77437
G0 F2625 X80.289 Y104.375
G1 F900 X100.227 Y104.375 E0.78134
G0 F2625 X100.227 Y105
G1 F900 X80.022 Y105 E0.79181
G0 F2625 X79.667 Y105.625
G1 F900 X100.227 Y105.625 E0.80572
G0 F2625 X100.227 Y106.25
G1 F900 X79.202 Y106.25 E0.82394
G0 F2625 X78.571 Y106.875
G1 F900 X100.227 Y106.875 E0.84867
G1 X100.352 Y106.875
G0 F2625 X74.592 Y107.408
G0 X71.987 Y107.227
G1 F900 X36.686 Y107.226 E1.3834
G1 X36.688 Y85.422 E0.85447
G1 X53.455 Y61.65 E1.14001
G1 X53.455 Y66.778 E0.20096
G1 X62.509 Y72.757 E0.4252
G1 X70.734 Y72.757 E0.32233
G1 X70.734 Y97.816 E0.98203
G1 X71.711 Y97.816 E0.03829
G1 X71.487 Y97.968 E0.01061
G1 X71.16 Y98.228 E0.01637
G1 X70.858 Y98.509 E0.01617
G1 X70.573 Y98.814 E0.01636
G1 X70.315 Y99.141 E0.01632
G1 X70.081 Y99.481 E0.01617
G1 X69.874 Y99.841 E0.01627
G1 X69.694 Y100.215 E0.01627
G1 X69.542 Y100.602 E0.01629
G1 X69.42 Y100.997 E0.0162
G1 X69.326 Y101.403 E0.01633
G1 X69.265 Y101.814 E0.01628
G1 X69.234 Y102.229 E0.01631
G1 X69.234 Y102.642 E0.01618
G1 X69.265 Y103.057 E0.01631
G1 X69.326 Y103.468 E0.01628
G1 X69.42 Y103.874 E0.01633
G1 X69.542 Y104.269 E0.0162
G1 X69.694 Y104.656 E0.01629
G1 X69.874 Y105.03 E0.01627
G1 X70.081 Y105.39 E0.01627
G1 X70.315 Y105.73 E0.01617
G1 X70.573 Y106.057 E0.01632
G1 X70.858 Y106.362 E0.01636
G1 X71.16 Y106.643 E0.01617
G1 X71.487 Y106.903 E0.01637
G1 X71.827 Y107.134 E0.01611
G1 X71.987 Y107.227 E0.00725
G0 F2625 X70.991 Y106.875
G1 F900 X36.973 Y106.875 E1.33312
G0 F2625 X36.973 Y106.25
G1 F900 X70.361 Y106.25 E1.30843
G0 F2625 X69.896 Y105.625
G1 F900 X36.973 Y105.625 E1.29021
G0 F2625 X36.973 Y105
G1 F900 X69.542 Y105 E1.27634
G0 F2625 X69.275 Y104.375
G1 F900 X36.973 Y104.375 E1.26587
G0 F2625 X36.973 Y103.75
G1 F900 X69.097 Y103.75 E1.2589
G0 F2625 X68.986 Y103.125
G1 F900 X36.973 Y103.125 E1.25455
G0 F2625 X36.973 Y102.5
G1 F900 X68.947 Y102.5 E1.25302
G0 F2625 X68.973 Y101.875
G1 F900 X36.973 Y101.875 E1.25404
G0 F2625 X36.973 Y101.25
G1 F900 X69.066 Y101.25 E1.25768
G0 F2625 X69.234 Y100.625
G1 F900 X36.973 Y100.625 E1.26427
G0 F2625 X36.973 Y100
G1 F900 X69.479 Y100 E1.27387
G0 F2625 X69.811 Y99.375
G1 F900 X36.973 Y99.375 E1.28688
G0 F2625 X36.973 Y98.75
G1 F900 X70.257 Y98.75 E1.30436
G0 F2625 X70.835 Y98.125
G1 F900 X36.973 Y98.125 E1.32701
G0 F2625 X36.973 Y97.5
G1 F900 X70.447 Y97.5 E1.3118
G0 F2625 X70.447 Y96.875
G1 F900 X36.973 Y96.875 E1.3118
G0 F2625 X36.973 Y96.25
G1 F900 X70.447 Y96.25 E1.3118
G0 F2625 X70.447 Y95.625
G1 F900 X36.974 Y95.625 E1.31176
G0 F2625 X36.974 Y95
G1 F900 X70.447 Y95 E1.31176
G0 F2625 X70.447 Y94.375
