;Generated by Cura LulzBot Edition GCodeWriter Version: 3.6.18
;FLAVOR:Marlin
;TIME:1990
;Filament used: 1.62971m
;Layer height: 0.38
;Generated with Cura_SteamEngine 3.6.18
M82 ;absolute extrusion mode
;This G-Code has been generated specifically for the LulzBot Mini 2 with SE 0.5mm Tool Head
M73 P0                  ; clear GLCD progress bar
M75 					; Start GLCD Print Timer
G26 					; clear potential 'probe fail' condition
M107 					; disable fans
M420 S0                 ; disable leveling matrix
G90 					; absolute positioning
M82 					; set extruder to absolute mode
G92 E0 					; set extruder position to 0
M140 S112 ; start bed heating up
G28         ; Home Axis
G0 X160 F9999 ;move toolhead to right
G0 Z5 F6000 ; Move to bottom of printer
G91         ; Set relative motion mode
M211 S0	; Turn off soft endstops
M400 ; Finish moves
M906 Z600 ; Lower current to 600mA
G0 Z-15 F500 ; Skip steppers against lower Z mounts
G90 ; Return to absolute mode
M400 ; Finish moves
M906 Z960 ; Restore default current
M211 S1	; Turn soft endstops back on
M400 ; Finish moves
G28 ; Rehome
G0 X0 Y187 Z156 F200 			; move away from endstops
M117 Mini 2 Wiping...			; progress indicator message on LCD
M109 R170 	; soften filament before retraction
G1 E-15 F75 				; retract filament
M109 R170 	; wait for extruder to reach wiping temp
G1 X45 Y176 F11520 			; move above wiper pad
G1 Z0 F1200 				; push nozzle into wiper
G1 X45 Y178 Z-.5 F4000		; wiping
G1 X55 Y176 Z-.5 F4000		; wiping
G1 X45 Y177 Z0 F4000		; wiping
G1 X55 Y176 F4000		; wiping
G1 X45 Y178 F4000		; wiping
G1 X55 Y176 F4000		; wiping
G1 X45 Y178 F4000		; wiping
G1 X55 Y176 F4000		; wiping
G1 X60 Y178 F4000		; wiping
G1 X80 Y176 F4000		; wiping
G1 X60 Y178 F4000		; wiping
G1 X80 Y176 F4000		; wiping
G1 X60 Y178 F4000		; wiping
G1 X90 Y176 F4000		; wiping
G1 X80 Y178 F4000		; wiping
G1 X100 Y176 F4000		; wiping
G1 X80 Y178 F4000		; wiping
G1 X100 Y176 F4000		; wiping
G1 X80 Y178 F4000		; wiping
G1 X100 Y176 F4000		; wiping
G1 X110 Y178 F4000		; wiping
G1 X100 Y176 F4000		; wiping
G1 X110 Y178 F4000		; wiping
G1 X100 Y176 F4000		; wiping
G1 X110 Y178 F4000		; wiping
G1 X115 Y176 Z-0.5 F1000	; wiping
G1 Z10					; raise extruder
G28 X0 Y0				; home X and Y
M109 R170	; wait for extruder to reach probe temp
M204 S300				; set probing acceleration
G29					; start auto-leveling sequence
M420 S1                     ; enable leveling matrix
M425 Z			     		; use measured Z backlash for compensation
M425 Z F0		     		; turn off measured Z backlash compensation. (if activated in the quality settings, this command will automatically be ignored)
M204 S2000				; restore standard acceleration
G1 X5 Y15 Z10 F5000			; move up off last probe point
G4 S1					; pause
M400					; wait for moves to finish
M117 Heating...				; progress indicator message on LCD
M109 R245 ; wait for extruder to reach initial printing temp
M190 R112 ; wait for bed to reach printing temp
G1 Z2 E0 F75				; prime tiny bit of filment into the nozzle
M117 Mini 2 Printing...		; progress indicator message on LCD

M221 S100 T0
G92 E0
G1 F600 E-1
;LAYER_COUNT:26
;LAYER:0
M107
G0 F2625 X37.608 Y56.554 Z0.425
;TYPE:SKIRT
G1 F600 E0
G1 F900 X38.061 Y56.32 E0.01698
G1 X38.396 Y56.199 E0.02885
G1 X39.134 Y55.979 E0.0545
G1 X39.632 Y55.873 E0.07146
G1 X40.061 Y55.844 E0.08578
G1 X49.405 Y55.84 E0.39704
G1 X49.676 Y55.851 E0.40607
G1 X52.11 Y56.054 E0.48743
G1 X57.589 Y56.288 E0.6701
G1 X63.09 Y56.211 E0.85336
G1 X69.239 Y55.837 E1.05856
G1 X69.44 Y55.831 E1.06526
G1 X93.753 Y55.864 E1.87514
G1 X93.973 Y55.872 E1.88247
G1 X98.846 Y56.209 E2.04518
G1 X104.34 Y56.288 E2.22821
G1 X109.821 Y56.057 E2.41094
G1 X112.246 Y55.856 E2.492
G1 X112.511 Y55.845 E2.50083
G1 X121.317 Y55.836 E2.79416
G1 X121.54 Y55.843 E2.8016
G1 X122.544 Y55.911 E2.83512
G1 X123.048 Y55.986 E2.85209
G1 X123.534 Y56.138 E2.86905
G1 X123.82 Y56.269 E2.87953
G1 X124.304 Y56.52 E2.89769
G1 X124.737 Y56.789 E2.91467
G1 X125.122 Y57.123 E2.93165
G1 X125.353 Y57.384 E2.94326
G1 X125.797 Y57.943 E2.96704
G1 X126.082 Y58.365 E2.984
G1 X126.297 Y58.827 E3.00098
G1 X126.434 Y59.303 E3.01747
G1 X126.57 Y59.958 E3.03976
G1 X126.634 Y60.464 E3.05675
G1 X126.636 Y60.737 E3.06584
G1 X126.588 Y62.057 E3.10984
G1 X126.529 Y62.563 E3.12681
G1 X126.445 Y62.898 E3.13831
G1 X124.839 Y68.097 E3.31957
G1 X123.494 Y73.466 E3.50394
G1 X122.959 Y76.082 E3.59288
G1 X122.085 Y81.486 E3.77523
G1 X121.515 Y86.959 E3.95852
G1 X121.257 Y92.421 E4.14067
G1 X121.231 Y97.706 E4.31672
G1 X121.189 Y98.214 E4.3337
G1 X121.067 Y98.708 E4.35064
G1 X120.87 Y99.178 E4.36762
G1 X120.709 Y99.457 E4.37835
G1 X118.891 Y102.264 E4.48975
G1 X118.581 Y102.668 E4.50671
G1 X118.212 Y103.02 E4.5237
G1 X117.793 Y103.309 E4.54066
G1 X117.478 Y103.469 E4.55242
G1 X112.024 Y105.882 E4.75109
G1 X111.543 Y106.051 E4.76807
G1 X111.042 Y106.143 E4.78504
G1 X110.709 Y106.16 E4.79614
G1 X95.279 Y106.159 E5.31012
G1 X94.936 Y106.141 E5.32156
G1 X87.712 Y105.374 E5.56355
G1 X82.273 Y105.148 E5.74488
G1 X76.79 Y105.231 E5.92754
G1 X71.313 Y105.623 E6.11045
G1 X67.112 Y106.135 E6.25142
G1 X66.719 Y106.159 E6.26454
G1 X51.289 Y106.159 E6.77852
G1 X50.781 Y106.119 E6.79549
G1 X50.286 Y106 E6.81245
G1 X49.979 Y105.883 E6.82339
G1 X44.557 Y103.494 E7.02076
G1 X44.108 Y103.253 E7.03773
G1 X43.702 Y102.944 E7.05473
G1 X43.35 Y102.576 E7.07169
G1 X43.152 Y102.306 E7.08284
G1 X41.316 Y99.515 E7.19412
G1 X41.07 Y99.069 E7.21109
G1 X40.897 Y98.59 E7.22805
G1 X40.801 Y98.089 E7.24505
G1 X40.782 Y97.793 E7.25493
G1 X40.603 Y88.755 E7.55604
G1 X40.141 Y83.315 E7.7379
G1 X39.371 Y77.915 E7.9196
G1 X38.292 Y72.532 E8.10248
G1 X37.649 Y69.91 E8.1924
G1 X35.572 Y62.966 E8.43384
G1 X35.465 Y62.468 E8.4508
G1 X35.441 Y62.214 E8.4593
G1 X35.367 Y60.871 E8.50411
G1 X35.384 Y60.315 E8.52263
G1 X35.444 Y59.801 E8.53987
G1 X35.542 Y59.301 E8.55684
G1 X35.787 Y58.682 E8.57902
G1 X36.069 Y58.138 E8.59943
G1 X36.338 Y57.706 E8.61638
G1 X36.828 Y57.176 E8.64043
G1 X37.198 Y56.856 E8.65672
G1 X37.608 Y56.554 E8.67368
G1 F600 E7.67368
;MESH:
G0 F2625 X39.681 Y59.962
;TYPE:WALL-INNER
G1 F600 E8.67368
G1 F900 X39.725 Y59.934 E8.67542
G1 X39.84 Y59.88 E8.67965
G1 X39.984 Y59.842 E8.68461
G1 X40.119 Y59.83 E8.68913
G1 X48.752 Y59.83 E8.9767
G1 X50.775 Y76.151 E9.52452
G1 X50.775 Y88.766 E9.94473
G1 X50.781 Y89.095 E9.95569
G1 X50.803 Y89.431 E9.9669
G1 X50.837 Y89.762 E9.97799
G1 X50.883 Y90.096 E9.98922
G1 X50.945 Y90.427 E10.00043
G1 X51.02 Y90.753 E10.01158
G1 X51.108 Y91.077 E10.02276
G1 X51.209 Y91.396 E10.03391
G1 X51.323 Y91.712 E10.0451
G1 X51.45 Y92.023 E10.05629
G1 X51.589 Y92.327 E10.06742
G1 X51.74 Y92.628 E10.07864
G1 X51.905 Y92.922 E10.08987
G1 X52.081 Y93.207 E10.10103
G1 X52.267 Y93.485 E10.11217
G1 X52.466 Y93.756 E10.12337
G1 X52.675 Y94.018 E10.13453
G1 X52.895 Y94.272 E10.14573
G1 X53.127 Y94.517 E10.15697
G1 X53.365 Y94.75 E10.16806
G1 X53.612 Y94.975 E10.17919
G1 X53.871 Y95.191 E10.19042
G1 X54.139 Y95.395 E10.20164
G1 X54.413 Y95.587 E10.21279
G1 X54.696 Y95.768 E10.22398
G1 X54.985 Y95.937 E10.23513
G1 X55.28 Y96.096 E10.24629
G1 X55.583 Y96.242 E10.2575
G1 X55.893 Y96.375 E10.26873
G1 X56.205 Y96.495 E10.27987
G1 X56.522 Y96.602 E10.29101
G1 X56.843 Y96.696 E10.30215
G1 X57.169 Y96.778 E10.31335
G1 X57.498 Y96.847 E10.32455
G1 X57.829 Y96.9 E10.33571
G1 X58.161 Y96.942 E10.34686
G1 X58.498 Y96.97 E10.35813
G1 X58.833 Y96.983 E10.36929
G1 X59.167 Y96.983 E10.38042
G1 X59.502 Y96.97 E10.39159
G1 X59.839 Y96.942 E10.40285
G1 X60.171 Y96.9 E10.414
G1 X60.502 Y96.847 E10.42516
G1 X60.831 Y96.778 E10.43636
G1 X61.157 Y96.696 E10.44756
G1 X61.478 Y96.602 E10.4587
G1 X61.795 Y96.495 E10.46985
G1 X62.107 Y96.375 E10.48098
G1 X62.417 Y96.242 E10.49222
G1 X62.72 Y96.096 E10.50342
G1 X63.015 Y95.937 E10.51458
G1 X63.304 Y95.768 E10.52574
G1 X63.587 Y95.587 E10.53693
G1 X63.861 Y95.395 E10.54807
G1 X64.129 Y95.191 E10.55929
G1 X64.388 Y94.975 E10.57052
G1 X64.635 Y94.75 E10.58165
G1 X64.873 Y94.517 E10.59275
G1 X65.105 Y94.272 E10.60399
G1 X65.325 Y94.018 E10.61518
G1 X65.534 Y93.756 E10.62634
G1 X65.733 Y93.485 E10.63754
G1 X65.919 Y93.207 E10.64869
G1 X66.095 Y92.922 E10.65984
G1 X66.26 Y92.628 E10.67107
G1 X66.411 Y92.327 E10.68229
G1 X66.55 Y92.023 E10.69343
G1 X66.677 Y91.712 E10.70462
G1 X66.791 Y91.396 E10.71581
G1 X66.892 Y91.077 E10.72695
G1 X66.98 Y90.753 E10.73813
G1 X67.055 Y90.427 E10.74928
G1 X67.117 Y90.096 E10.7605
G1 X67.163 Y89.762 E10.77173
G1 X67.197 Y89.431 E10.78281
G1 X67.219 Y89.095 E10.79403
G1 X67.225 Y88.766 E10.80499
G1 X67.225 Y76.151 E11.2252
G1 X69.248 Y59.83 E11.77302
G1 X77.958 Y59.835 E12.06315
G1 X78.094 Y59.86 E12.06776
G1 X78.216 Y59.904 E12.07208
G1 X78.329 Y59.971 E12.07645
G1 X78.429 Y60.055 E12.0808
G1 X78.512 Y60.154 E12.0851
G1 X78.576 Y60.266 E12.0894
G1 X78.621 Y60.388 E12.09373
G1 X78.643 Y60.516 E12.09806
G1 X78.642 Y61.644 E12.13563
G1 X78.606 Y61.822 E12.14168
G1 X78.542 Y61.957 E12.14666
G1 X78.432 Y62.105 E12.1528
G1 X78.33 Y62.191 E12.15725
G1 X78.206 Y62.262 E12.16201
G1 X78.077 Y62.308 E12.16657
G1 X77.971 Y62.326 E12.17015
G1 X73.319 Y62.33 E12.32511
G1 X73.145 Y63.888 E12.37733
G1 X73.056 Y64.783 E12.40729
G1 X72.98 Y65.681 E12.43731
G1 X72.915 Y66.58 E12.46733
G1 X72.861 Y67.478 E12.4973
G1 X72.819 Y68.378 E12.52731
G1 X72.79 Y69.279 E12.55734
G1 X72.772 Y70.18 E12.58736
G1 X72.767 Y71.08 E12.61734
G1 X72.772 Y71.98 E12.64732
G1 X72.79 Y72.882 E12.67737
G1 X72.819 Y73.782 E12.70736
G1 X72.861 Y74.682 E12.73738
G1 X72.915 Y75.581 E12.76738
G1 X72.98 Y76.479 E12.79737
G1 X73.056 Y77.377 E12.82739
G1 X73.145 Y78.273 E12.85738
G1 X73.24 Y79.118 E12.8857
G1 X73.24 Y85.163 E13.08707
G1 X73.124 Y85.461 E13.09772
G1 X73.049 Y85.695 E13.1059
G1 X72.987 Y85.935 E13.11416
G1 X72.94 Y86.175 E13.12231
G1 X72.905 Y86.421 E13.13058
G1 X72.884 Y86.675 E13.13907
G1 X72.877 Y86.922 E13.1473
G1 X72.884 Y87.169 E13.15554
G1 X72.904 Y87.416 E13.16379
G1 X72.941 Y87.673 E13.17244
G1 X73.044 Y88.132 E13.18811
G1 X73.123 Y88.379 E13.19675
G1 X73.238 Y88.671 E13.2072
G1 X73.24 Y97.492 E13.50103
G1 X71.654 Y99.922 E13.59769
G1 X66.55 Y102.17 E13.78347
G1 X51.45 Y102.17 E14.28645
G1 X46.346 Y99.922 E14.47223
G1 X44.76 Y97.492 E14.56889
G1 X44.76 Y88.676 E14.86255
G1 X44.873 Y88.385 E14.87295
G1 X44.948 Y88.152 E14.8811
G1 X45.014 Y87.901 E14.88975
G1 X45.061 Y87.657 E14.89803
G1 X45.096 Y87.413 E14.90624
G1 X45.116 Y87.166 E14.91449
G1 X45.123 Y86.919 E14.92272
G1 X45.116 Y86.669 E14.93105
G1 X45.096 Y86.422 E14.93931
G1 X45.059 Y86.166 E14.94792
G1 X44.956 Y85.707 E14.96359
G1 X44.877 Y85.461 E14.9722
G1 X44.762 Y85.167 E14.98272
G1 X44.762 Y79.1 E15.18481
G1 X44.855 Y78.273 E15.21253
G1 X44.944 Y77.377 E15.24252
G1 X45.02 Y76.479 E15.27254
G1 X45.085 Y75.581 E15.30254
G1 X45.139 Y74.682 E15.33254
G1 X45.181 Y73.782 E15.36255
G1 X45.21 Y72.882 E15.39254
G1 X45.228 Y71.98 E15.42259
G1 X45.233 Y71.08 E15.45257
G1 X45.228 Y70.18 E15.48255
G1 X45.21 Y69.279 E15.51257
G1 X45.181 Y68.378 E15.5426
G1 X45.139 Y67.478 E15.57261
G1 X45.085 Y66.58 E15.60258
G1 X45.02 Y65.681 E15.6326
G1 X44.944 Y64.783 E15.66262
G1 X44.855 Y63.888 E15.69258
G1 X44.681 Y62.331 E15.74477
G1 X40.035 Y62.325 E15.89953
G1 X39.911 Y62.303 E15.90372
G1 X39.745 Y62.238 E15.90966
G1 X39.609 Y62.143 E15.91519
G1 X39.532 Y62.066 E15.91882
G1 X39.459 Y61.962 E15.92305
G1 X39.397 Y61.828 E15.92797
G1 X39.366 Y61.716 E15.93184
G1 X39.353 Y61.569 E15.93675
G1 X39.356 Y60.523 E15.9716
G1 X39.394 Y60.338 E15.97789
G1 X39.483 Y60.159 E15.98455
G1 X39.573 Y60.053 E15.98918
G1 X39.681 Y59.962 E15.99388
G0 F2625 X39.382 Y59.56
;TYPE:WALL-OUTER
G1 F900 X39.48 Y59.497 E15.99776
G1 X39.671 Y59.408 E16.00478
G1 X39.886 Y59.35 E16.0122
G1 X39.993 Y59.336 E16.01579
G1 X40.114 Y59.33 E16.01983
G1 X49.194 Y59.33 E16.32229
G1 X51.275 Y76.122 E16.88592
G1 X51.275 Y88.761 E17.30692
G1 X51.281 Y89.074 E17.31735
G1 X51.301 Y89.39 E17.3279
G1 X51.333 Y89.702 E17.33835
G1 X51.377 Y90.015 E17.34888
G1 X51.435 Y90.325 E17.35938
G1 X51.505 Y90.632 E17.36987
G1 X51.588 Y90.936 E17.38037
G1 X51.683 Y91.236 E17.39085
G1 X51.79 Y91.533 E17.40136
G1 X51.909 Y91.824 E17.41184
G1 X52.04 Y92.111 E17.42235
G1 X52.182 Y92.393 E17.43286
G1 X52.336 Y92.668 E17.44336
G1 X52.502 Y92.936 E17.45386
G1 X52.677 Y93.198 E17.46436
G1 X52.863 Y93.452 E17.47485
G1 X53.06 Y93.698 E17.48534
G1 X53.266 Y93.937 E17.49585
G1 X53.483 Y94.166 E17.50636
G1 X53.708 Y94.386 E17.51684
G1 X53.941 Y94.598 E17.52734
G1 X54.183 Y94.8 E17.53784
G1 X54.434 Y94.991 E17.54834
G1 X54.692 Y95.172 E17.55884
G1 X54.957 Y95.342 E17.56933
G1 X55.229 Y95.501 E17.57982
G1 X55.507 Y95.65 E17.59033
G1 X55.791 Y95.787 E17.60083
G1 X56.081 Y95.912 E17.61135
G1 X56.374 Y96.024 E17.6218
G1 X56.673 Y96.125 E17.63232
G1 X56.975 Y96.214 E17.6428
G1 X57.281 Y96.291 E17.65331
G1 X57.589 Y96.355 E17.66379
G1 X57.9 Y96.405 E17.67428
G1 X58.213 Y96.445 E17.6848
G1 X58.528 Y96.471 E17.69532
G1 X58.843 Y96.483 E17.70582
G1 X59.157 Y96.483 E17.71628
G1 X59.472 Y96.471 E17.72678
G1 X59.787 Y96.445 E17.73731
G1 X60.1 Y96.405 E17.74782
G1 X60.411 Y96.355 E17.75832
G1 X60.719 Y96.291 E17.76879
G1 X61.025 Y96.214 E17.77931
G1 X61.327 Y96.125 E17.78979
G1 X61.626 Y96.024 E17.80031
G1 X61.919 Y95.912 E17.81075
G1 X62.209 Y95.787 E17.82127
G1 X62.493 Y95.65 E17.83178
G1 X62.771 Y95.501 E17.84228
G1 X63.043 Y95.342 E17.85278
G1 X63.308 Y95.172 E17.86327
G1 X63.566 Y94.991 E17.87376
G1 X63.817 Y94.8 E17.88427
G1 X64.059 Y94.598 E17.89477
G1 X64.292 Y94.386 E17.90526
G1 X64.517 Y94.166 E17.91575
G1 X64.734 Y93.937 E17.92625
G1 X64.94 Y93.698 E17.93677
G1 X65.137 Y93.452 E17.94726
G1 X65.323 Y93.198 E17.95775
G1 X65.498 Y92.936 E17.96825
G1 X65.664 Y92.668 E17.97875
G1 X65.818 Y92.393 E17.98924
G1 X65.96 Y92.111 E17.99976
G1 X66.091 Y91.824 E18.01027
G1 X66.21 Y91.533 E18.02074
G1 X66.317 Y91.236 E18.03126
G1 X66.412 Y90.936 E18.04174
G1 X66.495 Y90.632 E18.05224
G1 X66.565 Y90.325 E18.06273
G1 X66.623 Y90.015 E18.07323
G1 X66.667 Y89.702 E18.08376
G1 X66.699 Y89.39 E18.09421
G1 X66.719 Y89.074 E18.10476
G1 X66.725 Y88.761 E18.11518
G1 X66.725 Y76.122 E18.53619
G1 X68.806 Y59.33 E19.09982
G1 X78.006 Y59.335 E19.40628
G1 X78.222 Y59.375 E19.41359
G1 X78.432 Y59.451 E19.42103
G1 X78.62 Y59.562 E19.4283
G1 X78.783 Y59.699 E19.4354
G1 X78.924 Y59.868 E19.44273
G1 X79.027 Y60.048 E19.44964
G1 X79.072 Y60.155 E19.4535
G1 X79.104 Y60.256 E19.45703
G1 X79.129 Y60.373 E19.46102
G1 X79.141 Y60.473 E19.46437
G1 X79.147 Y60.601 E19.46864
G1 X79.142 Y61.69 E19.50492
G1 X79.106 Y61.898 E19.51195
G1 X79.072 Y62.007 E19.51575
G1 X78.977 Y62.208 E19.52316
G1 X78.854 Y62.384 E19.53031
G1 X78.779 Y62.466 E19.53401
G1 X78.614 Y62.605 E19.5412
G1 X78.426 Y62.713 E19.54842
G1 X78.326 Y62.754 E19.55202
G1 X78.212 Y62.79 E19.556
G1 X78.117 Y62.811 E19.55924
G1 X78.005 Y62.825 E19.563
G1 X77.807 Y62.83 E19.5696
G1 X73.766 Y62.83 E19.70421
G1 X73.642 Y63.94 E19.74141
G1 X73.554 Y64.829 E19.77117
G1 X73.478 Y65.72 E19.80096
G1 X73.414 Y66.613 E19.83078
G1 X73.36 Y67.505 E19.86055
G1 X73.319 Y68.398 E19.89032
G1 X73.29 Y69.292 E19.92012
G1 X73.272 Y70.186 E19.9499
G1 X73.267 Y71.08 E19.97968
G1 X73.272 Y71.974 E20.00946
G1 X73.29 Y72.869 E20.03928
G1 X73.319 Y73.762 E20.06904
G1 X73.36 Y74.655 E20.09882
G1 X73.414 Y75.548 E20.12862
G1 X73.478 Y76.44 E20.15841
G1 X73.554 Y77.331 E20.1882
G1 X73.642 Y78.22 E20.21796
G1 X73.74 Y79.089 E20.24709
G1 X73.74 Y85.271 E20.45301
G1 X73.674 Y85.419 E20.45841
G1 X73.596 Y85.625 E20.46575
G1 X73.53 Y85.833 E20.47302
G1 X73.475 Y86.046 E20.48034
G1 X73.433 Y86.259 E20.48758
G1 X73.402 Y86.477 E20.49491
G1 X73.383 Y86.703 E20.50246
G1 X73.377 Y86.922 E20.50976
G1 X73.383 Y87.142 E20.51709
G1 X73.401 Y87.36 E20.52438
G1 X73.433 Y87.582 E20.53185
G1 X73.527 Y88.001 E20.54616
G1 X73.595 Y88.214 E20.5536
G1 X73.673 Y88.419 E20.56091
G1 X73.738 Y88.565 E20.56623
G1 X73.74 Y97.641 E20.86856
G1 X71.991 Y100.321 E20.97516
G1 X66.657 Y102.67 E21.1693
G1 X51.343 Y102.67 E21.67942
G1 X46.009 Y100.321 E21.87356
G1 X44.26 Y97.641 E21.98016
G1 X44.26 Y88.569 E22.28235
G1 X44.324 Y88.425 E22.2876
G1 X44.401 Y88.22 E22.2949
