;Generated by Cura LulzBot Edition GCodeWriter Version: 3.6.18
;FLAVOR:Marlin
;TIME:3342
;Filament used: 2.21307m
;Layer height: 0.38
;Generated with Cura_SteamEngine 3.6.18
M82 ;absolute extrusion mode
;This G-Code has been generated specifically for the LulzBot Mini 2 with SE 0.5mm Tool Head
M73 P0                  ; clear GLCD progress bar
M75 					; Start GLCD Print Timer
G26 					; clear potential 'probe fail' condition
M107 					; disable fans
M420 S0                 ; disable leveling matrix
G90 					; absolute positioning
M82 					; set extruder to absolute mode
G92 E0 					; set extruder position to 0
M140 S104.0 	; start bed heating up
G28 					; home all axes
G28                       ; Home Axis
G0 X160 F9999             ; Move toolhead to the right
G0 Z5 F6000               ; Move to bottom of printer
G91                       ; Set relative motion mode
M211 S0		  	  ; Turn off soft endstops
M400                      ; Finish moves
G0 Z-15 F500              ; Skip steppers against lower Z mounts
G90                       ; Return to absolute mode
M400                      ; Finish moves
M211 S1			  ; Turn soft endstops back on
M400                      ; Finish moves
G28                       ; Rehome
M117 X-Axis Leveled
G0 X0 Y187 Z156 F200 			; move away from endstops
M117 Mini 2 Wiping...			; progress indicator message on LCD
M109 R170 	; soften filament before retraction
G1 E-15 F75 				; retract filament
M109 R170 	; wait for extruder to reach wiping temp
G1 X45 Y176 F11520 			; move above wiper pad
G1 Z0 F1200 				; push nozzle into wiper
G1 X45 Y178 Z-.5 F4000		; wiping
G1 X55 Y176 Z-.5 F4000		; wiping
G1 X45 Y177 Z0 F4000		; wiping
G1 X55 Y176 F4000		; wiping
G1 X45 Y178 F4000		; wiping
G1 X55 Y176 F4000		; wiping
G1 X45 Y178 F4000		; wiping
G1 X55 Y176 F4000		; wiping
G1 X60 Y178 F4000		; wiping
G1 X80 Y176 F4000		; wiping
G1 X60 Y178 F4000		; wiping
G1 X80 Y176 F4000		; wiping
G1 X60 Y178 F4000		; wiping
G1 X90 Y176 F4000		; wiping
G1 X80 Y178 F4000		; wiping
G1 X100 Y176 F4000		; wiping
G1 X80 Y178 F4000		; wiping
G1 X100 Y176 F4000		; wiping
G1 X80 Y178 F4000		; wiping
G1 X100 Y176 F4000		; wiping
G1 X110 Y178 F4000		; wiping
G1 X100 Y176 F4000		; wiping
G1 X110 Y178 F4000		; wiping
G1 X100 Y176 F4000		; wiping
G1 X110 Y178 F4000		; wiping
G1 X115 Y176 Z-0.5 F1000	; wiping
G1 Z10					; raise extruder
G28 X0 Y0				; home X and Y
M109 R170	; wait for extruder to reach probe temp
M204 S300				; set probing acceleration
G29					; start auto-leveling sequence
M420 S1                     ; enable leveling matrix
M425 Z			     		; use measured Z backlash for compensation
M425 Z F0		     		; turn off measured Z backlash compensation. (if activated in the quality settings, this command will automatically be ignored)
M204 S2000				; restore standard acceleration
G1 X5 Y15 Z10 F5000			; move up off last probe point
G4 S1					; pause
M400					; wait for moves to finish
M117 Heating...				; progress indicator message on LCD
M109 R240	; wait for extruder to reach initial printing temp
M190 S110.0 ; wait for bed to reach printing temp
G1 Z2 E0 F75				; prime tiny bit of filment into the nozzle
M117 Mini 2 Printing...		; progress indicator message on LCD
M221 S100 T0
G92 E0
G1 F600 E-1
;LAYER_COUNT:16
;LAYER:0
M107
G0 F2625 X56.693 Y42.628 Z0.425
;TYPE:SKIRT
G1 F600 E0
G1 F900 X59.935 Y38.003 E0.18814
G1 X63.034 Y33.152 E0.37989
G1 X63.487 Y32.591 E0.40391
G1 X64.06 Y32.024 E0.43076
G1 X64.449 Y31.695 E0.44773
G1 X64.675 Y31.547 E0.45673
G1 X65.207 Y31.228 E0.47739
G1 X65.663 Y31.001 E0.49436
G1 X65.927 Y30.907 E0.50369
G1 X66.715 Y30.666 E0.53114
G1 X67.213 Y30.556 E0.54813
G1 X67.618 Y30.524 E0.56166
G1 X70.179 Y30.486 E0.64698
G1 X70.457 Y30.494 E0.65624
G1 X76.542 Y30.925 E0.85945
G1 X82.015 Y30.993 E1.04177
G1 X87.475 Y30.752 E1.22382
G1 X92.98 Y30.196 E1.40813
G1 X95.405 Y29.865 E1.48965
G1 X95.874 Y29.835 E1.50531
G1 X98.471 Y29.859 E1.59182
G1 X98.979 Y29.904 E1.60881
G1 X99.405 Y30.005 E1.62339
G1 X100.316 Y30.288 E1.65517
G1 X100.789 Y30.477 E1.67213
G1 X101.174 Y30.701 E1.68697
G1 X101.83 Y31.145 E1.71336
G1 X102.337 Y31.569 E1.73537
G1 X102.63 Y31.87 E1.74936
G1 X103.042 Y32.391 E1.77149
G1 X105.568 Y36.356 E1.92809
G1 X109.098 Y41.401 E2.13319
G1 X109.192 Y41.544 E2.13889
G1 X109.837 Y42.578 E2.17949
G1 X110.01 Y42.891 E2.1914
G1 X110.566 Y44.049 E2.23419
G1 X110.729 Y44.459 E2.24889
G1 X111.274 Y46.149 E2.30804
G1 X111.377 Y46.554 E2.32196
G1 X112.078 Y50.338 E2.45015
G1 X113.286 Y55.707 E2.63346
G1 X113.994 Y58.328 E2.7239
G1 X115.653 Y63.574 E2.90717
G1 X117.585 Y68.662 E3.08846
G1 X120.6 Y75.319 E3.33189
G1 X120.724 Y75.637 E3.34326
G1 X121.199 Y77.07 E3.39355
G1 X121.31 Y77.504 E3.40847
G1 X121.625 Y79.213 E3.46636
G1 X121.674 Y79.63 E3.48035
G1 X121.736 Y80.799 E3.51934
G1 X121.736 Y81.148 E3.53097
G1 X121.666 Y82.435 E3.5739
G1 X121.626 Y82.797 E3.58603
G1 X121.412 Y84.069 E3.629
G1 X121.345 Y84.377 E3.6395
G1 X121.091 Y85.318 E3.67196
G1 X120.994 Y85.617 E3.68243
G1 X120.559 Y86.771 E3.72351
G1 X120.43 Y87.068 E3.7343
G1 X117.825 Y92.323 E3.92967
G1 X115.67 Y97.338 E4.1115
G1 X113.795 Y102.493 E4.29422
G1 X112.216 Y107.735 E4.47658
G1 X110.924 Y113.102 E4.66046
G1 X110.415 Y115.714 E4.74911
G1 X109.556 Y121.327 E4.93825
G1 X109.523 Y121.507 E4.94435
G1 X109.302 Y122.554 E4.97999
G1 X109.178 Y122.99 E4.99509
G1 X108.441 Y125.024 E5.06716
G1 X108.201 Y125.54 E5.08611
G1 X107.279 Y127.14 E5.14763
G1 X107.115 Y127.396 E5.15775
G1 X104.212 Y131.492 E5.32499
G1 X101.171 Y136.271 E5.51367
G1 X100.756 Y136.795 E5.53594
G1 X100.133 Y137.434 E5.56567
G1 X99.75 Y137.77 E5.58264
G1 X99.439 Y137.975 E5.59504
G1 X98.835 Y138.326 E5.61831
G1 X98.189 Y138.613 E5.64186
G1 X97.549 Y138.817 E5.66424
G1 X97.053 Y138.933 E5.6812
G1 X96.62 Y138.969 E5.69568
G1 X93.909 Y139.017 E5.786
G1 X93.513 Y139 E5.7992
G1 X91.379 Y138.777 E5.87067
G1 X85.894 Y138.4 E6.05381
G1 X80.414 Y138.334 E6.23636
G1 X74.937 Y138.578 E6.41898
G1 X70.385 Y139.007 E6.57128
G1 X70.006 Y139.02 E6.58392
G1 X67.326 Y138.959 E6.67321
G1 X66.819 Y138.908 E6.69019
G1 X66.345 Y138.784 E6.70651
G1 X65.614 Y138.533 E6.73225
G1 X65.146 Y138.33 E6.74924
G1 X64.737 Y138.072 E6.76535
G1 X63.897 Y137.451 E6.80015
G1 X63.512 Y137.117 E6.81713
G1 X63.113 Y136.624 E6.83825
G1 X58.715 Y129.935 E7.10491
G1 X56.714 Y127.142 E7.21936
G1 X56.561 Y126.908 E7.22867
G1 X56.11 Y126.148 E7.25811
G1 X55.926 Y125.788 E7.27158
G1 X55.155 Y124.019 E7.33586
G1 X55.013 Y123.627 E7.34975
G1 X54.677 Y122.471 E7.38985
G1 X54.611 Y122.201 E7.39911
G1 X53.362 Y115.95 E7.61144
G1 X51.968 Y110.657 E7.79377
G1 X50.282 Y105.468 E7.97551
G1 X48.294 Y100.351 E8.15837
G1 X46.024 Y95.366 E8.34083
G1 X43.476 Y90.515 E8.52335
G1 X42.096 Y88.126 E8.61525
G1 X41.942 Y87.824 E8.62655
G1 X41.225 Y86.217 E8.68516
G1 X41.077 Y85.818 E8.69934
G1 X40.681 Y84.484 E8.74569
G1 X40.581 Y84.03 E8.76118
G1 X40.316 Y82.222 E8.82204
G1 X40.282 Y81.77 E8.83714
G1 X40.274 Y80.428 E8.88185
G1 X40.292 Y80.064 E8.89399
G1 X40.425 Y78.82 E8.93566
G1 X40.476 Y78.497 E8.94655
G1 X40.696 Y77.45 E8.98219
G1 X40.781 Y77.131 E8.99319
G1 X41.172 Y75.905 E9.03605
G1 X41.343 Y75.476 E9.05144
G1 X42.158 Y73.793 E9.11372
G1 X42.342 Y73.462 E9.12634
G1 X43.751 Y71.251 E9.21367
G1 X46.582 Y66.495 E9.39804
G1 X49.107 Y61.653 E9.57994
G1 X51.354 Y56.674 E9.7619
G1 X53.325 Y51.554 E9.94465
G1 X55.175 Y45.795 E10.14614
G1 X55.281 Y45.51 E10.15627
G1 X55.928 Y43.998 E10.21105
G1 X56.08 Y43.69 E10.22249
G1 X56.518 Y42.907 E10.25238
G1 X56.693 Y42.628 E10.26335
G1 F600 E9.26335
;MESH:
G0 F2625 X65.892 Y40.232
;TYPE:WALL-INNER
G1 F600 E10.26335
G1 F900 X65.892 Y39.584 E10.28493
G1 X65.892 Y39.381 E10.2917
G1 X65.892 Y39.159 E10.29909
G1 X65.893 Y38.928 E10.30678
G1 X65.894 Y38.771 E10.31201
G1 X65.968 Y38.928 E10.31282
G1 X66.101 Y39.159 E10.31596
G1 X66.25 Y39.381 E10.32149
G1 X66.376 Y39.54 E10.32734
G1 X66.418 Y39.593 E10.32959
G1 X66.599 Y39.789 E10.33848
G1 X66.798 Y39.974 E10.34753
G1 X67.008 Y40.141 E10.35646
G1 X67.229 Y40.293 E10.3654
G1 X67.461 Y40.427 E10.37432
G1 X67.703 Y40.544 E10.38328
G1 X67.953 Y40.642 E10.39222
G1 X68.208 Y40.721 E10.40111
G1 X68.469 Y40.781 E10.41004
G1 X68.736 Y40.822 E10.41903
G1 X69.004 Y40.842 E10.42799
G1 X69.271 Y40.842 E10.43688
G1 X69.537 Y40.822 E10.44576
G1 X69.804 Y40.784 E10.45475
G1 X70.068 Y40.723 E10.46377
G1 X70.325 Y40.644 E10.47273
G1 X70.571 Y40.546 E10.48155
G1 X70.812 Y40.432 E10.49043
G1 X71.045 Y40.297 E10.4994
G1 X71.266 Y40.149 E10.50826
G1 X71.478 Y39.98 E10.51729
G1 X71.674 Y39.799 E10.52618
G1 X71.858 Y39.603 E10.53513
G1 X71.907 Y39.542 E10.53774
G1 X72.027 Y39.39 E10.54419
G1 X72.177 Y39.17 E10.55306
G1 X72.311 Y38.94 E10.56193
G1 X72.391 Y38.774 E10.56807
G1 X72.391 Y38.94 E10.56837
G1 X72.391 Y39.17 E10.5704
G1 X72.391 Y39.389 E10.57573
G1 X72.391 Y39.583 E10.58137
G1 X72.392 Y40.232 E10.60298
G1 X73.451 Y40.658 E10.64101
G1 X73.967 Y40.901 E10.66001
G1 X74.483 Y41.178 E10.67951
G1 X75.005 Y41.497 E10.69989
G1 X75.489 Y41.831 E10.71948
G1 X75.726 Y42.009 E10.72935
G1 X76.179 Y42.381 E10.74888
G1 X76.637 Y42.801 E10.76958
G1 X76.818 Y42.981 E10.77808
G1 X77.248 Y43.448 E10.79923
G1 X77.42 Y43.65 E10.80807
G1 X77.8 Y44.136 E10.82862
G1 X78.126 Y44.605 E10.84764
G1 X78.439 Y45.112 E10.86749
G1 X78.595 Y45.389 E10.87808
G1 X78.861 Y45.915 E10.89771
G1 X79.093 Y46.442 E10.91689
G1 X79.202 Y46.719 E10.92681
G1 X79.403 Y47.301 E10.94732
G1 X79.48 Y47.558 E10.95626
G1 X79.629 Y48.145 E10.97643
G1 X79.746 Y48.744 E10.99676
G1 X79.788 Y49.017 E11.00596
G1 X79.854 Y49.607 E11.02574
G1 X79.875 Y49.896 E11.03539
G1 X79.892 Y50.5 E11.05551
G1 X79.875 Y51.097 E11.07541
G1 X79.826 Y51.688 E11.09516
G1 X79.746 Y52.271 E11.11477
G1 X79.633 Y52.853 E11.13451
G1 X79.486 Y53.434 E11.15448
G1 X79.306 Y54.005 E11.17442
G1 X79.1 Y54.555 E11.19398
G1 X78.861 Y55.098 E11.21375
G1 X78.585 Y55.644 E11.23412
G1 X78.288 Y56.156 E11.25384
G1 X78.145 Y56.382 E11.26275
G1 X77.793 Y56.888 E11.28328
G1 X77.434 Y57.348 E11.30272
G1 X77.037 Y57.802 E11.32281
G1 X76.84 Y58.01 E11.33235
G1 X76.414 Y58.423 E11.35212
G1 X75.946 Y58.829 E11.37275
G1 X75.487 Y59.184 E11.39208
G1 X75.005 Y59.517 E11.4116
G1 X74.484 Y59.835 E11.43193
G1 X73.967 Y60.113 E11.45148
G1 X73.451 Y60.356 E11.47048
G1 X72.392 Y60.782 E11.5085
G1 X72.392 Y61.431 E11.53012
G1 X72.392 Y61.633 E11.53685
G1 X72.392 Y61.855 E11.54425
G1 X72.392 Y62.084 E11.55187
G1 X72.391 Y62.244 E11.5572
G1 X72.314 Y62.084 E11.55807
G1 X72.182 Y61.855 E11.56122
G1 X72.034 Y61.633 E11.56673
G1 X71.909 Y61.475 E11.57254
G1 X71.865 Y61.421 E11.57486
G1 X71.685 Y61.225 E11.58372
G1 X71.486 Y61.04 E11.59277
G1 X71.277 Y60.873 E11.60168
G1 X71.056 Y60.721 E11.61062
G1 X70.822 Y60.586 E11.61962
G1 X70.58 Y60.471 E11.62854
G1 X70.332 Y60.372 E11.63744
G1 X70.073 Y60.293 E11.64646
G1 X69.816 Y60.234 E11.65524
G1 X69.55 Y60.192 E11.66421
G1 X69.279 Y60.172 E11.67326
G1 X69.012 Y60.172 E11.68216
G1 X68.745 Y60.192 E11.69107
G1 X68.48 Y60.231 E11.7
G1 X68.218 Y60.29 E11.70894
G1 X67.959 Y60.37 E11.71797
G1 X67.711 Y60.469 E11.72687
G1 X67.471 Y60.583 E11.73572
G1 X67.24 Y60.716 E11.7446
G1 X67.017 Y60.865 E11.75353
G1 X66.805 Y61.033 E11.76254
G1 X66.608 Y61.216 E11.7715
G1 X66.424 Y61.414 E11.7805
G1 X66.378 Y61.472 E11.78297
G1 X66.258 Y61.622 E11.78937
G1 X66.106 Y61.843 E11.7983
G1 X65.971 Y62.077 E11.8073
G1 X65.894 Y62.239 E11.81327
G1 X65.894 Y62.077 E11.81355
G1 X65.894 Y61.843 E11.81558
G1 X65.894 Y61.623 E11.82092
G1 X65.894 Y61.43 E11.82653
G1 X65.892 Y60.782 E11.84811
G1 X64.841 Y60.36 E11.88584
G1 X64.316 Y60.113 E11.90517
G1 X63.799 Y59.835 E11.92472
G1 X63.278 Y59.517 E11.94505
G1 X62.796 Y59.184 E11.96457
G1 X62.337 Y58.829 E11.9839
G1 X61.869 Y58.423 E12.00453
G1 X61.458 Y58.024 E12.02361
G1 X61.035 Y57.566 E12.04438
G1 X60.86 Y57.361 E12.05336
G1 X60.478 Y56.871 E12.07406
G1 X60.151 Y56.401 E12.09313
G1 X59.829 Y55.877 E12.11362
G1 X59.688 Y55.625 E12.12323
G1 X59.422 Y55.098 E12.1429
G1 X59.186 Y54.562 E12.16241
G1 X59.074 Y54.276 E12.17264
G1 X58.882 Y53.717 E12.19233
G1 X58.717 Y53.133 E12.21254
G1 X58.654 Y52.871 E12.22152
G1 X58.535 Y52.261 E12.24222
G1 X58.495 Y51.997 E12.25111
G1 X58.428 Y51.391 E12.27142
G1 X58.407 Y51.097 E12.28124
G1 X58.396 Y50.805 E12.29097
G1 X58.396 Y50.213 E12.31069
G1 X58.429 Y49.615 E12.33064
G1 X58.494 Y49.032 E12.35018
G1 X58.594 Y48.436 E12.37031
G1 X58.722 Y47.865 E12.38981
G1 X58.889 Y47.275 E12.41023
G1 X59.079 Y46.724 E12.42965
G1 X59.299 Y46.186 E12.44901
G1 X59.561 Y45.633 E12.46939
G1 X59.689 Y45.388 E12.4786
G1 X59.996 Y44.856 E12.49906
G1 X60.138 Y44.632 E12.50789
G1 X60.493 Y44.122 E12.52859
G1 X60.854 Y43.66 E12.54812
G1 X61.246 Y43.212 E12.56795
G1 X61.451 Y42.996 E12.57787
G1 X61.884 Y42.577 E12.59794
G1 X62.328 Y42.192 E12.61752
G1 X62.796 Y41.83 E12.63723
G1 X63.278 Y41.497 E12.65674
G1 X63.8 Y41.178 E12.67712
G1 X64.316 Y40.901 E12.69663
G1 X64.841 Y40.654 E12.71595
G1 X65.892 Y40.232 E12.75368
G1 F600 E11.75368
G0 F2625 X65.563 Y50.241
G1 F600 E12.75368
G1 F900 X65.554 Y50.534 E12.76344
G1 X65.564 Y50.776 E12.77151
G1 X65.594 Y51.042 E12.78043
G1 X65.644 Y51.306 E12.78938
G1 X65.714 Y51.565 E12.79832
G1 X65.802 Y51.817 E12.80721
G1 X65.911 Y52.065 E12.81623
G1 X66.036 Y52.3 E12.8251
G1 X66.177 Y52.526 E12.83397
G1 X66.336 Y52.742 E12.8429
G1 X66.511 Y52.946 E12.85186
G1 X66.701 Y53.137 E12.86083
G1 X66.905 Y53.312 E12.86979
G1 X67.121 Y53.472 E12.87874
G1 X67.349 Y53.615 E12.8877
G1 X67.585 Y53.739 E12.89658
G1 X67.832 Y53.847 E12.90556
G1 X68.084 Y53.935 E12.91446
G1 X68.344 Y54.005 E12.92342
G1 X68.61 Y54.055 E12.93244
G1 X68.876 Y54.084 E12.94135
G1 X69.142 Y54.094 E12.95022
G1 X69.408 Y54.084 E12.95909
G1 X69.674 Y54.055 E12.968
G1 X69.939 Y54.005 E12.97698
G1 X70.198 Y53.935 E12.98592
G1 X70.452 Y53.847 E12.99487
G1 X70.698 Y53.739 E13.00382
G1 X70.935 Y53.615 E13.01273
G1 X71.162 Y53.471 E13.02169
G1 X71.378 Y53.312 E13.03062
G1 X71.582 Y53.137 E13.03958
G1 X71.772 Y52.946 E13.04855
G1 X71.947 Y52.742 E13.0575
G1 X72.106 Y52.526 E13.06644
G1 X72.247 Y52.3 E13.07531
G1 X72.372 Y52.065 E13.08418
G1 X72.48 Y51.819 E13.09313
G1 X72.57 Y51.565 E13.1021
G1 X72.64 Y51.303 E13.11113
G1 X72.689 Y51.04 E13.12005
G1 X72.719 Y50.775 E13.12893
G1 X72.729 Y50.507 E13.13786
G1 X72.719 Y50.239 E13.1468
G1 X72.689 Y49.974 E13.15568
G1 X72.64 Y49.709 E13.16466
G1 X72.57 Y49.45 E13.17359
G1 X72.48 Y49.195 E13.1826
G1 X72.372 Y48.949 E13.19155
G1 X72.247 Y48.714 E13.20042
G1 X72.106 Y48.488 E13.20929
G1 X71.947 Y48.272 E13.21822
G1 X71.772 Y48.068 E13.22718
G1 X71.582 Y47.877 E13.23615
G1 X71.378 Y47.702 E13.24511
G1 X71.162 Y47.543 E13.25404
G1 X70.935 Y47.399 E13.26299
G1 X70.698 Y47.275 E13.2719
G1 X70.452 Y47.167 E13.28085
G1 X70.198 Y47.079 E13.28981
G1 X69.937 Y47.009 E13.29881
G1 X69.674 Y46.96 E13.30772
G1 X69.41 Y46.93 E13.31657
G1 X69.142 Y46.92 E13.3255
G1 X68.874 Y46.93 E13.33444
G1 X68.609 Y46.96 E13.34332
G1 X68.346 Y47.009 E13.35223
G1 X68.084 Y47.079 E13.36127
G1 X67.832 Y47.167 E13.37016
G1 X67.585 Y47.275 E13.37914
G1 X67.349 Y47.399 E13.38802
G1 X67.121 Y47.542 E13.39698
G1 X66.905 Y47.702 E13.40594
G1 X66.701 Y47.877 E13.41489
G1 X66.511 Y48.068 E13.42386
G1 X66.336 Y48.272 E13.43282
G1 X66.177 Y48.488 E13.44175
G1 X66.036 Y48.714 E13.45062
G1 X65.911 Y48.949 E13.45949
G1 X65.802 Y49.197 E13.46851
G1 X65.714 Y49.45 E13.47744
G1 X65.644 Y49.708 E13.48634
G1 X65.594 Y49.971 E13.49526
G1 X65.563 Y50.241 E13.50431
G0 F2625 X66.062 Y50.278
;TYPE:WALL-OUTER
G1 F900 X66.054 Y50.531 E13.51274
G1 X66.063 Y50.737 E13.51961
G1 X66.089 Y50.967 E13.52732
G1 X66.132 Y51.194 E13.53502
G1 X66.192 Y51.417 E13.54271
G1 X66.268 Y51.634 E13.55037
G1 X66.361 Y51.847 E13.55811
G1 X66.469 Y52.05 E13.56577
G1 X66.591 Y52.245 E13.57343
G1 X66.728 Y52.431 E13.58113
G1 X66.878 Y52.606 E13.58881
G1 X67.042 Y52.77 E13.59653
G1 X67.217 Y52.921 E13.60423
G1 X67.403 Y53.058 E13.61193
G1 X67.599 Y53.181 E13.61963
G1 X67.802 Y53.288 E13.62728
G1 X68.015 Y53.381 E13.63502
G1 X68.232 Y53.457 E13.64268
G1 X68.455 Y53.517 E13.65037
G1 X68.683 Y53.56 E13.6581
G1 X68.913 Y53.585 E13.66581
