;Generated by Cura LulzBot Edition GCodeWriter Version: 3.2.24
;FLAVOR:Marlin
;TIME:17934
;Filament used: 11.4281m
;Layer height: 0.378
;Generated with Cura_SteamEngine 3.2.24
M82 ;absolute extrusion mode
;This G-Code has been generated specifically for the LulzBot Mini 2
M75 					; Start GLCD Print Timer
G26 					; clear potential 'probe fail' condition
G21 					; set units to Millimetres
M107 					; disable fans
G90 					; absolute positioning
M82 					; set extruder to absolute mode
G92 E0 					; set extruder position to 0
M140 S115 	; start bed heating up
G28                       ; Home Axis
G0 X160 F9999             ; Move toolhead to the right
G0 Z5 F6000               ; Move to bottom of printer
G91                       ; Set relative motion mode
M211 S0		  	  ; Turn off soft endstops
M400                      ; Finish moves
G0 Z-15 F500              ; Skip steppers against lower Z mounts
G90                       ; Return to absolute mode
M400                      ; Finish moves
M211 S1			  ; Turn soft endstops back on
M400                      ; Finish moves
G28                       ; Rehome
M117 X-Axis Leveled
G0 X0 Y187 Z156 F200 			; move away from endstops
M117 Mini 2 Wiping...			; progress indicator message on LCD
M109 R170 	; soften filament before retraction
G1 E-15 F75 				; retract filament
M109 R170 	; wait for extruder to reach wiping temp
G1 X45 Y176 F11520 			; move above wiper pad
G1 Z0 F1200 				; push nozzle into wiper
G1 X45 Y178 Z-.5 F4000		; wiping
G1 X55 Y176 Z-.5 F4000		; wiping
G1 X45 Y177 Z0 F4000		; wiping
G1 X55 Y176 F4000		; wiping
G1 X45 Y178 F4000		; wiping
G1 X55 Y176 F4000		; wiping
G1 X45 Y178 F4000		; wiping
G1 X55 Y176 F4000		; wiping
G1 X60 Y178 F4000		; wiping
G1 X80 Y176 F4000		; wiping
G1 X60 Y178 F4000		; wiping
G1 X80 Y176 F4000		; wiping
G1 X60 Y178 F4000		; wiping
G1 X90 Y176 F4000		; wiping
G1 X80 Y178 F4000		; wiping
G1 X100 Y176 F4000		; wiping
G1 X80 Y178 F4000		; wiping
G1 X100 Y176 F4000		; wiping
G1 X80 Y178 F4000		; wiping
G1 X100 Y176 F4000		; wiping
G1 X110 Y178 F4000		; wiping
G1 X100 Y176 F4000		; wiping
G1 X110 Y178 F4000		; wiping
G1 X100 Y176 F4000		; wiping
G1 X110 Y178 F4000		; wiping
G1 X115 Y176 Z-0.5 F1000	; wiping
G1 Z10					; raise extruder
G28 X0 Y0				; home X and Y
M109 R170	; wait for extruder to reach probe temp
M204 S300				; set probing acceleration
G29					; start auto-leveling sequence
M425 Z			     		; use measured Z backlash for compensation
M425 Z F0		     		; turn off measured Z backlash compensation. (if activated in the quality settings, this command will automatically be ignored)
M204 S2000				; restore standard acceleration
G1 X5 Y15 Z10 F5000			; move up off last probe point
G4 S1					; pause
M400					; wait for moves to finish
M117 Heating...				; progress indicator message on LCD
M109 R245	; wait for extruder to reach initial printing temp
M190 S116 ; wait for bed to reach printing temp
G1 Z2 E0 F75				; prime tiny bit of filment into the nozzle
M117 Mini 2 Printing...		; progress indicator message on LCD
M221 S100
M83 ;relative extrusion mode
;LAYER_COUNT:43
;LAYER:0
M425 F1.0
M107
M204 S800
M205 X5 Y5
G0 F2625 X7.837 Y7.16 Z0.42
;TYPE:SKIRT
G1 F900 X8.226 Y6.816 E0.02564
G1 X8.663 Y6.536 E0.02563
G1 X9.138 Y6.326 E0.02564
G1 X9.64 Y6.191 E0.02567
G1 X10.26 Y6.134 E0.03074
G1 X151.741 Y6.135 E6.98601
G1 X152.259 Y6.175 E0.02565
G1 X152.764 Y6.294 E0.02562
G1 X153.245 Y6.489 E0.02563
G1 X153.691 Y6.755 E0.02564
G1 X154.09 Y7.087 E0.02563
G1 X154.434 Y7.476 E0.02564
G1 X154.714 Y7.913 E0.02563
G1 X154.924 Y8.388 E0.02564
G1 X155.059 Y8.89 E0.02567
G1 X155.116 Y9.51 E0.03074
G1 X155.116 Y152.491 E7.06007
G1 X155.076 Y153.009 E0.02565
G1 X154.957 Y153.514 E0.02562
G1 X154.762 Y153.995 E0.02563
G1 X154.496 Y154.441 E0.02564
G1 X154.164 Y154.84 E0.02563
G1 X153.775 Y155.184 E0.02564
G1 X153.338 Y155.464 E0.02563
G1 X152.863 Y155.674 E0.02564
G1 X152.361 Y155.809 E0.02567
G1 X151.741 Y155.866 E0.03074
G1 X10.259 Y155.866 E6.98606
G1 X9.741 Y155.826 E0.02565
G1 X9.236 Y155.707 E0.02562
G1 X8.755 Y155.512 E0.02563
G1 X8.309 Y155.246 E0.02564
G1 X7.91 Y154.914 E0.02563
G1 X7.566 Y154.525 E0.02564
G1 X7.286 Y154.088 E0.02563
G1 X7.076 Y153.613 E0.02564
G1 X6.941 Y153.111 E0.02567
G1 X6.884 Y152.491 E0.03074
G1 X6.885 Y9.509 E7.06012
G1 X6.925 Y8.991 E0.02565
G1 X7.044 Y8.486 E0.02562
G1 X7.239 Y8.005 E0.02563
G1 X7.505 Y7.559 E0.02564
G1 X7.837 Y7.16 E0.02563
G1 F600 E-1
G0 F2625 X78 Y10.5
;TYPE:WALL-INNER
G1 F600 E1
G1 F900 X78 Y29 E0.60899
G1 X59.75 Y29 E0.60076
G1 X59.75 Y10.5 E0.60899
G1 X78 Y10.5 E0.60076
G1 F600 E-1
G0 F2625 X76.5 Y13.753
G1 F600 E1
G1 F900 X61.75 Y13.753 E0.48555
G1 X61.75 Y27 E0.43607
G1 X76.5 Y27 E0.48555
G1 X76.5 Y13.753 E0.43607
G1 F600 E-1
G0 F2625 X78.625 Y9.875
;TYPE:WALL-OUTER
G1 F600 E1
G1 F900 X78.625 Y29.625 E0.97521
G1 X59.125 Y29.625 E0.96287
G1 X59.125 Y9.875 E0.97521
G1 X78.625 Y9.875 E0.96287
G0 F2625 X78.625 Y10.125
G1 F600 E-1
G0 F2625 X75.875 Y14.378
G1 F600 E1
G1 F900 X62.375 Y14.378 E0.6666
G1 X62.375 Y26.375 E0.59238
G1 X75.875 Y26.375 E0.6666
G1 X75.875 Y14.378 E0.59238
G0 F2625 X75.625 Y14.378
G1 F600 E-1
G0 F2625 X77.772 Y28.75
;TYPE:SKIN
G1 F600 E1
G1 F900 X59.978 Y28.75 E0.73219
G1 X59.878 Y28.75
G0 F2625 X59.978 Y28.125
G1 F900 X77.772 Y28.125 E0.73219
G1 X77.872 Y28.125
G0 F2625 X77.772 Y27.5
G1 F900 X59.978 Y27.5 E0.73219
G1 X59.878 Y27.5
G0 F2625 X59.978 Y26.875
G1 F900 X61.522 Y26.875 E0.06353
G1 X61.622 Y26.875
G0 F2625 X61.522 Y26.25
G1 F900 X59.978 Y26.25 E0.06353
G1 X59.878 Y26.25
G0 F2625 X59.978 Y25.625
G1 F900 X61.522 Y25.625 E0.06353
G1 X61.622 Y25.625
G0 F2625 X61.522 Y25
G1 F900 X59.978 Y25 E0.06353
G1 X59.878 Y25
G0 F2625 X59.978 Y24.375
G1 F900 X61.522 Y24.375 E0.06353
G1 X61.622 Y24.375
G0 F2625 X61.522 Y23.75
G1 F900 X59.978 Y23.75 E0.06353
G1 X59.878 Y23.75
G0 F2625 X59.978 Y23.125
G1 F900 X61.522 Y23.125 E0.06353
G1 X61.622 Y23.125
G0 F2625 X61.522 Y22.5
G1 F900 X59.978 Y22.5 E0.06353
G1 X59.878 Y22.5
G0 F2625 X59.978 Y21.875
G1 F900 X61.522 Y21.875 E0.06353
G1 X61.622 Y21.875
G0 F2625 X61.522 Y21.25
G1 F900 X59.978 Y21.25 E0.06353
G1 X59.878 Y21.25
G0 F2625 X59.978 Y20.625
G1 F900 X61.522 Y20.625 E0.06353
G1 X61.622 Y20.625
G0 F2625 X61.522 Y20
G1 F900 X59.978 Y20 E0.06353
G1 X59.878 Y20
G0 F2625 X59.978 Y19.375
G1 F900 X61.522 Y19.375 E0.06353
G1 X61.622 Y19.375
G0 F2625 X61.522 Y18.75
G1 F900 X59.978 Y18.75 E0.06353
G1 X59.878 Y18.75
G0 F2625 X59.978 Y18.125
G1 F900 X61.522 Y18.125 E0.06353
G1 X61.622 Y18.125
G0 F2625 X61.522 Y17.5
G1 F900 X59.978 Y17.5 E0.06353
G1 X59.878 Y17.5
G0 F2625 X59.978 Y16.875
G1 F900 X61.522 Y16.875 E0.06353
G1 X61.622 Y16.875
G0 F2625 X61.522 Y16.25
G1 F900 X59.978 Y16.25 E0.06353
G1 X59.878 Y16.25
G0 F2625 X59.978 Y15.625
G1 F900 X61.522 Y15.625 E0.06353
G1 X61.622 Y15.625
G0 F2625 X61.522 Y15
G1 F900 X59.978 Y15 E0.06353
G1 X59.878 Y15
G0 F2625 X59.978 Y14.375
G1 F900 X61.522 Y14.375 E0.06353
G1 X61.622 Y14.375
G0 F2625 X61.522 Y13.75
G1 F900 X59.978 Y13.75 E0.06353
G1 X59.878 Y13.75
G0 F2625 X59.978 Y13.125
G1 F900 X77.772 Y13.125 E0.73219
G1 X77.872 Y13.125
G0 F2625 X77.772 Y12.5
G1 F900 X59.978 Y12.5 E0.73219
G1 X59.878 Y12.5
G0 F2625 X59.978 Y11.875
G1 F900 X77.772 Y11.875 E0.73219
G1 X77.872 Y11.875
G0 F2625 X77.772 Y11.25
G1 F900 X59.978 Y11.25 E0.73219
G1 X59.878 Y11.25
G1 F600 E-1
G0 F2625 X76.728 Y13.75
G1 F600 E1
G1 F900 X77.772 Y13.75 E0.04296
G0 F2625 X77.772 Y14.375
G1 F900 X76.728 Y14.375 E0.04296
G0 F2625 X76.728 Y15
G1 F900 X77.772 Y15 E0.04296
G0 F2625 X77.772 Y15.625
G1 F900 X76.728 Y15.625 E0.04296
G0 F2625 X76.728 Y16.25
G1 F900 X77.772 Y16.25 E0.04296
G0 F2625 X77.772 Y16.875
G1 F900 X76.728 Y16.875 E0.04296
G0 F2625 X76.728 Y17.5
G1 F900 X77.772 Y17.5 E0.04296
G0 F2625 X77.772 Y18.125
G1 F900 X76.728 Y18.125 E0.04296
G0 F2625 X76.728 Y18.75
G1 F900 X77.772 Y18.75 E0.04296
G0 F2625 X77.772 Y19.375
G1 F900 X76.728 Y19.375 E0.04296
G0 F2625 X76.728 Y20
G1 F900 X77.772 Y20 E0.04296
G0 F2625 X77.772 Y20.625
G1 F900 X76.728 Y20.625 E0.04296
G0 F2625 X76.728 Y21.25
G1 F900 X77.772 Y21.25 E0.04296
G0 F2625 X77.772 Y21.875
G1 F900 X76.728 Y21.875 E0.04296
G0 F2625 X76.728 Y22.5
G1 F900 X77.772 Y22.5 E0.04296
G0 F2625 X77.772 Y23.125
G1 F900 X76.728 Y23.125 E0.04296
G0 F2625 X76.728 Y23.75
G1 F900 X77.772 Y23.75 E0.04296
G0 F2625 X77.772 Y24.375
G1 F900 X76.728 Y24.375 E0.04296
G0 F2625 X76.728 Y25
G1 F900 X77.772 Y25 E0.04296
G0 F2625 X77.772 Y25.625
G1 F900 X76.728 Y25.625 E0.04296
G0 F2625 X76.728 Y26.25
G1 F900 X77.772 Y26.25 E0.04296
G0 F2625 X77.772 Y26.875
G1 F900 X76.728 Y26.875 E0.04296
G1 F600 E-1
G0 F2625 X84 Y10.5
;TYPE:WALL-INNER
G1 F600 E1
G1 F900 X102.25 Y10.5 E0.60076
G1 X102.25 Y29 E0.60899
G1 X84 Y29 E0.60076
G1 X84 Y10.5 E0.60899
G1 F600 E-1
G0 F2625 X86 Y13.753
G1 F600 E1
G1 F900 X86 Y27 E0.43607
G1 X100.75 Y27 E0.48555
G1 X100.75 Y13.753 E0.43607
G1 X86 Y13.753 E0.48555
G1 F600 E-1
G0 F2625 X83.375 Y9.875
;TYPE:WALL-OUTER
G1 F600 E1
G1 F900 X102.875 Y9.875 E0.96287
G1 X102.875 Y29.625 E0.97521
G1 X83.375 Y29.625 E0.96287
G1 X83.375 Y9.875 E0.97521
G0 F2625 X83.625 Y9.875
G1 F600 E-1
G0 F2625 X86.625 Y14.378
G1 F600 E1
G1 F900 X86.625 Y26.375 E0.59238
G1 X100.125 Y26.375 E0.6666
G1 X100.125 Y14.378 E0.59238
G1 X86.625 Y14.378 E0.6666
G0 F2625 X86.625 Y14.628
G1 F600 E-1
G0 F2625 X84.228 Y11.25
;TYPE:SKIN
G1 F600 E1
G1 F900 X102.022 Y11.25 E0.73219
G1 X102.122 Y11.25
G0 F2625 X102.022 Y11.875
G1 F900 X84.228 Y11.875 E0.73219
G1 X84.128 Y11.875
G0 F2625 X84.228 Y12.5
G1 F900 X102.022 Y12.5 E0.73219
G1 X102.122 Y12.5
G0 F2625 X102.022 Y13.125
G1 F900 X84.228 Y13.125 E0.73219
G1 X84.128 Y13.125
G0 F2625 X84.228 Y13.75
G1 F900 X85.772 Y13.75 E0.06353
G1 X85.872 Y13.75
G0 F2625 X85.772 Y14.375
G1 F900 X84.228 Y14.375 E0.06353
G1 X84.128 Y14.375
G0 F2625 X84.228 Y15
G1 F900 X85.772 Y15 E0.06353
G1 X85.872 Y15
G0 F2625 X85.772 Y15.625
G1 F900 X84.228 Y15.625 E0.06353
G1 X84.128 Y15.625
G0 F2625 X84.228 Y16.25
G1 F900 X85.772 Y16.25 E0.06353
G1 X85.872 Y16.25
G0 F2625 X85.772 Y16.875
G1 F900 X84.228 Y16.875 E0.06353
G1 X84.128 Y16.875
G0 F2625 X84.228 Y17.5
G1 F900 X85.772 Y17.5 E0.06353
G1 X85.872 Y17.5
G0 F2625 X85.772 Y18.125
G1 F900 X84.228 Y18.125 E0.06353
G1 X84.128 Y18.125
G0 F2625 X84.228 Y18.75
G1 F900 X85.772 Y18.75 E0.06353
G1 X85.872 Y18.75
G0 F2625 X85.772 Y19.375
G1 F900 X84.228 Y19.375 E0.06353
G1 X84.128 Y19.375
G0 F2625 X84.228 Y20
G1 F900 X85.772 Y20 E0.06353
G1 X85.872 Y20
G0 F2625 X85.772 Y20.625
G1 F900 X84.228 Y20.625 E0.06353
G1 X84.128 Y20.625
G0 F2625 X84.228 Y21.25
G1 F900 X85.772 Y21.25 E0.06353
G1 X85.872 Y21.25
G0 F2625 X85.772 Y21.875
G1 F900 X84.228 Y21.875 E0.06353
G1 X84.128 Y21.875
G0 F2625 X84.228 Y22.5
G1 F900 X85.772 Y22.5 E0.06353
G1 X85.872 Y22.5
G0 F2625 X85.772 Y23.125
G1 F900 X84.228 Y23.125 E0.06353
G1 X84.128 Y23.125
G0 F2625 X84.228 Y23.75
G1 F900 X85.772 Y23.75 E0.06353
G1 X85.872 Y23.75
G0 F2625 X85.772 Y24.375
G1 F900 X84.228 Y24.375 E0.06353
G1 X84.128 Y24.375
G0 F2625 X84.228 Y25
G1 F900 X85.772 Y25 E0.06353
G1 X85.872 Y25
G0 F2625 X85.772 Y25.625
G1 F900 X84.228 Y25.625 E0.06353
G1 X84.128 Y25.625
G0 F2625 X84.228 Y26.25
G1 F900 X85.772 Y26.25 E0.06353
G1 X85.872 Y26.25
G0 F2625 X85.772 Y26.875
G1 F900 X84.228 Y26.875 E0.06353
G1 X84.128 Y26.875
G0 F2625 X84.228 Y27.5
G1 F900 X102.022 Y27.5 E0.73219
G1 X102.122 Y27.5
G0 F2625 X102.022 Y26.875
G1 F900 X100.978 Y26.875 E0.04296
G0 F2625 X100.978 Y26.25
G1 F900 X102.022 Y26.25 E0.04296
G0 F2625 X102.022 Y25.625
G1 F900 X100.978 Y25.625 E0.04296
G0 F2625 X100.978 Y25
G1 F900 X102.022 Y25 E0.04296
G0 F2625 X102.022 Y24.375
G1 F900 X100.978 Y24.375 E0.04296
G0 F2625 X100.978 Y23.75
G1 F900 X102.022 Y23.75 E0.04296
G0 F2625 X102.022 Y23.125
G1 F900 X100.978 Y23.125 E0.04296
G0 F2625 X100.978 Y22.5
G1 F900 X102.022 Y22.5 E0.04296
G0 F2625 X102.022 Y21.875
G1 F900 X100.978 Y21.875 E0.04296
G0 F2625 X100.978 Y21.25
G1 F900 X102.022 Y21.25 E0.04296
G0 F2625 X102.022 Y20.625
G1 F900 X100.978 Y20.625 E0.04296
G0 F2625 X100.978 Y20
G1 F900 X102.022 Y20 E0.04296
G0 F2625 X102.022 Y19.375
G1 F900 X100.978 Y19.375 E0.04296
G0 F2625 X100.978 Y18.75
G1 F900 X102.022 Y18.75 E0.04296
G0 F2625 X102.022 Y18.125
G1 F900 X100.978 Y18.125 E0.04296
G0 F2625 X100.978 Y17.5
G1 F900 X102.022 Y17.5 E0.04296
G0 F2625 X102.022 Y16.875
G1 F900 X100.978 Y16.875 E0.04296
G0 F2625 X100.978 Y16.25
G1 F900 X102.022 Y16.25 E0.04296
G0 F2625 X102.022 Y15.625
G1 F900 X100.978 Y15.625 E0.04296
G0 F2625 X100.978 Y15
G1 F900 X102.022 Y15 E0.04296
G0 F2625 X102.022 Y14.375
G1 F900 X100.978 Y14.375 E0.04296
G0 F2625 X100.978 Y13.75
G1 F900 X102.022 Y13.75 E0.04296
G1 F600 E-1
G0 F2625 X102.022 Y28.125
G1 F600 E1
G1 F900 X84.228 Y28.125 E0.73219
G1 X84.128 Y28.125
G0 F2625 X84.228 Y28.75
G1 F900 X102.022 Y28.75 E0.73219
G1 X102.122 Y28.75
G1 F600 E-1
G0 F2625 X108.25 Y10.5
;TYPE:WALL-INNER
G1 F600 E1
G1 F900 X126.5 Y10.5 E0.60076
G1 X126.5 Y29 E0.60899
G1 X108.25 Y29 E0.60076
G1 X108.25 Y10.5 E0.60899
G1 F600 E-1
G0 F2625 X110.25 Y13.753
G1 F600 E1
G1 F900 X110.25 Y27 E0.43607
G1 X125 Y27 E0.48555
G1 X125 Y13.753 E0.43607
G1 X110.25 Y13.753 E0.48555
G1 F600 E-1
G0 F2625 X107.625 Y9.875
;TYPE:WALL-OUTER
G1 F600 E1
G1 F900 X127.125 Y9.875 E0.96287
G1 X127.125 Y29.625 E0.97521
G1 X107.625 Y29.625 E0.96287
G1 X107.625 Y9.875 E0.97521
G0 F2625 X107.875 Y9.875
G1 F600 E-1
G0 F2625 X110.875 Y14.378
G1 F600 E1
G1 F900 X110.875 Y26.375 E0.59238
G1 X124.375 Y26.375 E0.6666
G1 X124.375 Y14.378 E0.59238
G1 X110.875 Y14.378 E0.6666
G0 F2625 X110.875 Y14.628
G1 F600 E-1
G0 F2625 X108.478 Y11.25
;TYPE:SKIN
G1 F600 E1
G1 F900 X126.272 Y11.25 E0.73219
G1 X126.372 Y11.25
G0 F2625 X126.272 Y11.875
G1 F900 X108.478 Y11.875 E0.73219
G1 X108.378 Y11.875
G0 F2625 X108.478 Y12.5
G1 F900 X126.272 Y12.5 E0.73219
G1 X126.372 Y12.5
G0 F2625 X126.272 Y13.125
G1 F900 X108.478 Y13.125 E0.73219
G1 X108.378 Y13.125
G0 F2625 X108.478 Y13.75
G1 F900 X110.022 Y13.75 E0.06353
G1 X110.122 Y13.75
G0 F2625 X110.022 Y14.375
G1 F900 X108.478 Y14.375 E0.06353
G1 X108.378 Y14.375
G0 F2625 X108.478 Y15
G1 F900 X110.022 Y15 E0.06353
G1 X110.122 Y15
G0 F2625 X110.022 Y15.625
G1 F900 X108.478 Y15.625 E0.06353
G1 X108.378 Y15.625
G0 F2625 X108.478 Y16.25
G1 F900 X110.022 Y16.25 E0.06353
G1 X110.122 Y16.25
G0 F2625 X110.022 Y16.875
G1 F900 X108.478 Y16.875 E0.06353
G1 X108.378 Y16.875
G0 F2625 X108.478 Y17.5
G1 F900 X110.022 Y17.5 E0.06353
G1 X110.122 Y17.5
G0 F2625 X110.022 Y18.125
G1 F900 X108.478 Y18.125 E0.06353
G1 X108.378 Y18.125
G0 F2625 X108.478 Y18.75
G1 F900 X110.022 Y18.75 E0.06353
G1 X110.122 Y18.75
G0 F2625 X110.022 Y19.375
G1 F900 X108.478 Y19.375 E0.06353
G1 X108.378 Y19.375
G0 F2625 X108.478 Y20
G1 F900 X110.022 Y20 E0.06353
G1 X110.122 Y20
G0 F2625 X110.022 Y20.625
G1 F900 X108.478 Y20.625 E0.06353
G1 X108.378 Y20.625
G0 F2625 X108.478 Y21.25
G1 F900 X110.022 Y21.25 E0.06353
G1 X110.122 Y21.25
G0 F2625 X110.022 Y21.875
G1 F900 X108.478 Y21.875 E0.06353
G1 X108.378 Y21.875
G0 F2625 X108.478 Y22.5
G1 F900 X110.022 Y22.5 E0.06353
G1 X110.122 Y22.5
G0 F2625 X110.022 Y23.125
G1 F900 X108.478 Y23.125 E0.06353
G1 X108.378 Y23.125
G0 F2625 X108.478 Y23.75
G1 F900 X110.022 Y23.75 E0.06353
G1 X110.122 Y23.75
G0 F2625 X110.022 Y24.375
G1 F900 X108.478 Y24.375 E0.06353
G1 X108.378 Y24.375
G0 F2625 X108.478 Y25
G1 F900 X110.022 Y25 E0.06353
G1 X110.122 Y25
G0 F2625 X110.022 Y25.625
G1 F900 X108.478 Y25.625 E0.06353
G1 X108.378 Y25.625
G0 F2625 X108.478 Y26.25
G1 F900 X110.022 Y26.25 E0.06353
G1 X110.122 Y26.25
G0 F2625 X110.022 Y26.875
G1 F900 X108.478 Y26.875 E0.06353
G1 X108.378 Y26.875
G0 F2625 X108.478 Y27.5
G1 F900 X126.272 Y27.5 E0.73219
G1 X126.372 Y27.5
G0 F2625 X126.272 Y26.875
G1 F900 X125.228 Y26.875 E0.04296
G0 F2625 X125.228 Y26.25
G1 F900 X126.272 Y26.25 E0.04296
G0 F2625 X126.272 Y25.625
G1 F900 X125.228 Y25.625 E0.04296
G0 F2625 X125.228 Y25
G1 F900 X126.272 Y25 E0.04296
G0 F2625 X126.272 Y24.375
G1 F900 X125.228 Y24.375 E0.04296
G0 F2625 X125.228 Y23.75
G1 F900 X126.272 Y23.75 E0.04296
G0 F2625 X126.272 Y23.125
G1 F900 X125.228 Y23.125 E0.04296
