;Generated by Cura LulzBot Edition GCodeWriter Version: 3.6.15
;FLAVOR:Marlin
;TIME:13400
;Filament used: 10.1898m
;Layer height: 0.32
;Generated with Cura_SteamEngine 3.6.15
M82 ;absolute extrusion mode
;This G-Code has been generated specifically for the LulzBot Mini 2 with SE 0.5mm Tool Head
M73 P0                  ; clear GLCD progress bar
M75 					; Start GLCD Print Timer
G26 					; clear potential 'probe fail' condition
M107 					; disable fans
M420 S0                 ; disable leveling matrix
G90 					; absolute positioning
M82 					; set extruder to absolute mode
G92 E0 					; set extruder position to 0
M140 S115.0 	; start bed heating up
G28 					; home all axes
G28                       ; Home Axis
G0 X160 F9999             ; Move toolhead to the right
G0 Z5 F6000               ; Move to bottom of printer
G91                       ; Set relative motion mode
M211 S0		  	  ; Turn off soft endstops
M400                      ; Finish moves
G0 Z-15 F500              ; Skip steppers against lower Z mounts
G90                       ; Return to absolute mode
M400                      ; Finish moves
M211 S1			  ; Turn soft endstops back on
M400                      ; Finish moves
G28                       ; Rehome
M117 X-Axis Leveled
G0 X0 Y187 Z156 F200 			; move away from endstops
M117 Mini 2 Wiping...			; progress indicator message on LCD
M109 R170 	; soften filament before retraction
G1 E-15 F75 				; retract filament
M109 R170 	; wait for extruder to reach wiping temp
G1 X45 Y176 F11520 			; move above wiper pad
G1 Z0 F1200 				; push nozzle into wiper
G1 X45 Y178 Z-.5 F4000		; wiping
G1 X55 Y176 Z-.5 F4000		; wiping
G1 X45 Y177 Z0 F4000		; wiping
G1 X55 Y176 F4000		; wiping
G1 X45 Y178 F4000		; wiping
G1 X55 Y176 F4000		; wiping
G1 X45 Y178 F4000		; wiping
G1 X55 Y176 F4000		; wiping
G1 X60 Y178 F4000		; wiping
G1 X80 Y176 F4000		; wiping
G1 X60 Y178 F4000		; wiping
G1 X80 Y176 F4000		; wiping
G1 X60 Y178 F4000		; wiping
G1 X90 Y176 F4000		; wiping
G1 X80 Y178 F4000		; wiping
G1 X100 Y176 F4000		; wiping
G1 X80 Y178 F4000		; wiping
G1 X100 Y176 F4000		; wiping
G1 X80 Y178 F4000		; wiping
G1 X100 Y176 F4000		; wiping
G1 X110 Y178 F4000		; wiping
G1 X100 Y176 F4000		; wiping
G1 X110 Y178 F4000		; wiping
G1 X100 Y176 F4000		; wiping
G1 X110 Y178 F4000		; wiping
G1 X115 Y176 Z-0.5 F1000	; wiping
G1 Z10					; raise extruder
G28 X0 Y0				; home X and Y
M109 R170	; wait for extruder to reach probe temp
M204 S300				; set probing acceleration
G29					; start auto-leveling sequence
M420 S1                     ; enable leveling matrix
M425 Z			     		; use measured Z backlash for compensation
M425 Z F0		     		; turn off measured Z backlash compensation. (if activated in the quality settings, this command will automatically be ignored)
M204 S2000				; restore standard acceleration
G1 X5 Y15 Z10 F5000			; move up off last probe point
G4 S1					; pause
M400					; wait for moves to finish
M117 Heating...				; progress indicator message on LCD
M109 R250	; wait for extruder to reach initial printing temp
M190 S116.0 ; wait for bed to reach printing temp
G1 Z2 E0 F75				; prime tiny bit of filment into the nozzle
M117 Mini 2 Printing...		; progress indicator message on LCD
M221 S100 T0
G92 E0
G1 F600 E-1
;LAYER_COUNT:353
;LAYER:0
M107
M204 S800
M205 X10 Y10
G0 F2625 X53.34 Y60.035 Z0.4
;TYPE:SKIRT
G1 F600 E0
G1 F900 X53.792 Y59.703 E0.02198
G1 X54.287 Y59.439 E0.04396
G1 X54.815 Y59.248 E0.06597
G1 X55.364 Y59.134 E0.08794
G1 X55.886 Y59.099 E0.10844
G1 X91.266 Y59.082 E1.49494
G1 X91.826 Y59.122 E1.51694
G1 X92.374 Y59.24 E1.53891
G1 X92.9 Y59.436 E1.5609
G1 X93.392 Y59.704 E1.58286
G1 X93.842 Y60.04 E1.60487
G1 X94.239 Y60.435 E1.62682
G1 X94.576 Y60.884 E1.64882
G1 X94.846 Y61.376 E1.67081
G1 X95.044 Y61.901 E1.6928
G1 X95.164 Y62.448 E1.71474
G1 X95.206 Y63.02 E1.73722
G1 X95.206 Y94.981 E2.98973
G1 X95.166 Y95.541 E3.01173
G1 X95.047 Y96.089 E3.03371
G1 X94.851 Y96.614 E3.05567
G1 X94.583 Y97.107 E3.07766
G1 X94.247 Y97.556 E3.09963
G1 X93.851 Y97.953 E3.12161
G1 X93.403 Y98.29 E3.14358
G1 X92.911 Y98.56 E3.16557
G1 X92.386 Y98.757 E3.18755
G1 X91.838 Y98.878 E3.20954
G1 X91.268 Y98.919 E3.23193
G1 X55.986 Y98.919 E4.61459
G1 X55.426 Y98.879 E4.63659
G1 X54.878 Y98.76 E4.65857
G1 X54.353 Y98.564 E4.68053
G1 X53.86 Y98.296 E4.70252
G1 X53.411 Y97.96 E4.72449
G1 X53.014 Y97.564 E4.74647
G1 X52.631 Y97.043 E4.77181
G1 X48.956 Y91.063 E5.04687
G1 X48.697 Y90.565 E5.06887
G1 X48.511 Y90.036 E5.09085
G1 X48.403 Y89.486 E5.11281
G1 X48.373 Y89.002 E5.13182
G1 X48.37 Y68.479 E5.93608
G1 X48.41 Y67.919 E5.95809
G1 X48.529 Y67.371 E5.98006
G1 X48.724 Y66.845 E6.00205
G1 X49.018 Y66.313 E6.02587
G1 X52.598 Y60.872 E6.28111
G1 X52.939 Y60.427 E6.30308
G1 X53.34 Y60.035 E6.32505
G0 F2625 X53.81 Y60.457
G1 F900 X54.235 Y60.166 E6.34524
G1 X54.699 Y59.945 E6.36538
G1 X55.192 Y59.798 E6.38554
G1 X55.886 Y59.724 E6.41289
G1 X91.266 Y59.707 E7.79939
G1 X91.779 Y59.747 E7.81955
G1 X92.28 Y59.865 E7.83972
G1 X92.756 Y60.06 E7.85988
G1 X93.196 Y60.326 E7.88003
G1 X93.59 Y60.657 E7.90019
G1 X93.928 Y61.045 E7.92036
G1 X94.202 Y61.481 E7.94054
G1 X94.405 Y61.953 E7.96068
G1 X94.532 Y62.452 E7.98085
G1 X94.581 Y63.02 E8.0032
G1 X94.581 Y94.981 E9.2557
G1 X94.541 Y95.494 E9.27587
G1 X94.422 Y95.994 E9.29601
G1 X94.227 Y96.47 E9.31617
G1 X93.961 Y96.911 E9.33635
G1 X93.63 Y97.304 E9.35649
G1 X93.242 Y97.642 E9.37665
G1 X92.806 Y97.915 E9.39681
G1 X92.333 Y98.118 E9.41698
G1 X91.835 Y98.245 E9.43712
G1 X91.268 Y98.294 E9.45943
G1 X55.986 Y98.294 E10.84208
G1 X55.473 Y98.254 E10.86225
G1 X54.973 Y98.135 E10.88239
G1 X54.497 Y97.94 E10.90255
G1 X54.056 Y97.674 E10.92273
G1 X53.663 Y97.343 E10.94286
G1 X53.325 Y96.955 E10.96303
G1 X53.163 Y96.716 E10.97435
G1 X49.488 Y90.736 E11.24941
G1 X49.254 Y90.278 E11.26956
G1 X49.093 Y89.789 E11.28974
G1 X49.01 Y89.281 E11.30991
G1 X48.998 Y89.001 E11.32089
G1 X48.995 Y68.478 E12.12516
G1 X49.035 Y67.966 E12.14529
G1 X49.154 Y67.465 E12.16547
G1 X49.348 Y66.989 E12.18561
G1 X49.54 Y66.657 E12.20064
G1 X53.12 Y61.216 E12.45588
G1 X53.436 Y60.809 E12.47608
G1 X53.81 Y60.457 E12.4962
G1 F600 E11.4962
;MESH:
G0 F2625 X55.058 Y63.074
G0 X56.409 Y63.963
G0 X56.447 Y64.034
G0 X56.4 Y63.946
;TYPE:WALL-INNER
G1 F600 E12.4962
G1 F900 X90.341 Y63.946 E13.82631
G1 X90.342 Y93.743 E14.99401
G1 X90.342 Y94.055 E15.00624
G1 X90.03 Y94.055 E15.01414
G1 X56.482 Y94.055 E16.32884
G1 X53.228 Y88.724 E16.5736
G1 X53.229 Y68.765 E17.35577
G1 X56.4 Y63.946 E17.58184
G0 F2625 X56.064 Y63.322
;TYPE:WALL-OUTER
G1 F900 X90.965 Y63.322 E18.94956
G1 X90.966 Y94.367 E20.16617
G1 X90.966 Y94.679 E20.1784
G1 X90.654 Y94.679 E20.18631
G1 X56.132 Y94.679 E21.53918
G1 X52.604 Y88.9 E21.80451
G1 X52.605 Y68.579 E22.60087
G1 X56.064 Y63.322 E22.84748
G0 F2625 X56.447 Y64.034
G0 X56.732 Y64.56
;TYPE:SKIN
G1 F900 X89.727 Y64.56 E24.14051
G1 X89.728 Y93.441 E25.27232
G1 X56.827 Y93.441 E26.56166
G1 X53.842 Y88.551 E26.78618
G1 X53.843 Y68.95 E27.55431
G1 X56.732 Y64.56 E27.76026
G0 F2625 X56.787 Y65
G1 F900 X89.441 Y65 E29.03993
G0 F2625 X89.441 Y65.625
G1 F900 X56.376 Y65.625 E30.3357
G0 F2625 X55.964 Y66.25
G1 F900 X89.441 Y66.25 E31.64762
G0 F2625 X89.441 Y66.875
G1 F900 X55.553 Y66.875 E32.97565
G0 F2625 X55.142 Y67.5
G1 F900 X89.441 Y67.5 E34.31978
G0 F2625 X89.441 Y68.125
G1 F900 X54.73 Y68.125 E35.68006
G0 F2625 X54.319 Y68.75
G1 F900 X89.441 Y68.75 E37.05644
G0 F2625 X89.441 Y69.375
G1 F900 X54.129 Y69.375 E38.44027
G0 F2625 X54.129 Y70
G1 F900 X89.441 Y70 E39.8241
G0 F2625 X89.441 Y70.625
G1 F900 X54.129 Y70.625 E41.20793
G0 F2625 X54.129 Y71.25
G1 F900 X89.441 Y71.25 E42.59176
G0 F2625 X89.441 Y71.875
G1 F900 X54.129 Y71.875 E43.97559
G0 F2625 X54.129 Y72.5
G1 F900 X89.441 Y72.5 E45.35942
G0 F2625 X89.441 Y73.125
G1 F900 X54.129 Y73.125 E46.74325
G0 F2625 X54.129 Y73.75
G1 F900 X89.441 Y73.75 E48.12708
G0 F2625 X89.441 Y74.375
G1 F900 X54.129 Y74.375 E49.51091
G0 F2625 X54.129 Y75
G1 F900 X89.441 Y75 E50.89474
G0 F2625 X89.441 Y75.625
G1 F900 X54.129 Y75.625 E52.27857
G0 F2625 X54.129 Y76.25
G1 F900 X89.441 Y76.25 E53.6624
G0 F2625 X89.441 Y76.875
G1 F900 X54.129 Y76.875 E55.04623
G0 F2625 X54.129 Y77.5
G1 F900 X89.441 Y77.5 E56.43006
G0 F2625 X89.441 Y78.125
G1 F900 X54.129 Y78.125 E57.81389
G0 F2625 X54.129 Y78.75
G1 F900 X89.441 Y78.75 E59.19772
G0 F2625 X89.441 Y79.375
G1 F900 X54.129 Y79.375 E60.58155
G0 F2625 X54.129 Y80
G1 F900 X89.441 Y80 E61.96538
G0 F2625 X89.441 Y80.625
G1 F900 X54.129 Y80.625 E63.34921
G0 F2625 X54.129 Y81.25
G1 F900 X89.441 Y81.25 E64.73304
G0 F2625 X89.441 Y81.875
G1 F900 X54.129 Y81.875 E66.11687
G0 F2625 X54.129 Y82.5
G1 F900 X89.441 Y82.5 E67.5007
G0 F2625 X89.441 Y83.125
G1 F900 X54.129 Y83.125 E68.88453
G0 F2625 X54.129 Y83.75
G1 F900 X89.441 Y83.75 E70.26836
G0 F2625 X89.441 Y84.375
G1 F900 X54.129 Y84.375 E71.65219
G0 F2625 X54.129 Y85
G1 F900 X89.441 Y85 E73.03602
G0 F2625 X89.441 Y85.625
G1 F900 X54.129 Y85.625 E74.41985
G0 F2625 X54.129 Y86.25
G1 F900 X89.441 Y86.25 E75.80368
G0 F2625 X89.441 Y86.875
G1 F900 X54.129 Y86.875 E77.18751
G0 F2625 X54.129 Y87.5
G1 F900 X89.441 Y87.5 E78.57134
G0 F2625 X89.441 Y88.125
G1 F900 X54.129 Y88.125 E79.95517
G0 F2625 X54.298 Y88.75
G1 F900 X89.441 Y88.75 E81.33238
G0 F2625 X89.441 Y89.375
G1 F900 X54.68 Y89.375 E82.69461
G0 F2625 X55.061 Y90
G1 F900 X89.441 Y90 E84.04192
G0 F2625 X89.441 Y90.625
G1 F900 X55.443 Y90.625 E85.37425
G0 F2625 X55.824 Y91.25
G1 F900 X89.441 Y91.25 E86.69166
G0 F2625 X89.441 Y91.875
G1 F900 X56.206 Y91.875 E87.99409
G0 F2625 X56.587 Y92.5
G1 F900 X89.441 Y92.5 E89.2816
G0 F2625 X89.441 Y93.125
M104 S245
G1 F900 X56.969 Y93.125 E90.55413
G1 X56.844 Y93.125
;MESH:NONMESH
G0 F2625 X56.447 Y64.034
G0 X56.106 Y63.4
;TIME_ELAPSED:163.132621
;LAYER:1
M140 S115
M221 S100 T0
M106 S5.1
;MESH:
G0 F6562.5 X56.106 Y63.4 Z0.72
;TYPE:WALL-INNER
G1 F2250 X90.887 Y63.4 E91.42647
G1 X90.888 Y94.351 E92.20274
G1 X90.888 Y94.601 E92.20901
G1 X90.638 Y94.601 E92.21307
G1 X56.176 Y94.601 E93.0774
G1 X52.682 Y88.88 E93.24553
G1 X52.683 Y68.601 E93.75414
G1 X56.106 Y63.4 E93.9103
G0 F6562.5 X55.836 Y62.9
;TYPE:WALL-OUTER
G1 F1350 X91.387 Y62.9 E94.80195
G1 X91.388 Y94.851 E95.6033
G1 X91.388 Y95.101 E95.60957
G1 X91.138 Y95.101 E95.61363
G1 X55.895 Y95.101 E96.49755
G1 X52.182 Y89.021 E96.67623
G1 X52.183 Y68.451 E97.19214
G1 X55.836 Y62.9 E97.35881
G0 F6562.5 X56.153 Y63.488
G0 X56.37 Y63.89
;TYPE:SKIN
G1 F1800 X90.397 Y63.89 E98.21223
G1 X90.398 Y94.111 E98.97019
G1 X56.451 Y94.111 E99.82161
G1 X53.172 Y88.743 E99.97937
G1 X53.173 Y68.747 E100.48089
G1 X56.37 Y63.89 E100.62673
G0 F6562.5 X53.499 Y88.849
G1 F1800 X53.499 Y68.66 E101.13308
G0 F6562.5 X53.999 Y67.9
G1 F1800 X53.999 Y89.667 E101.67901
G0 F6562.5 X54.499 Y90.486
G1 F1800 X54.499 Y67.14 E102.26455
G0 F6562.5 X54.999 Y66.38
G1 F1800 X54.999 Y91.304 E102.88966
G0 F6562.5 X55.499 Y92.123
G1 F1800 X55.499 Y65.621 E103.55435
G0 F6562.5 X55.999 Y64.861
G1 F1800 X55.999 Y92.941 E104.25862
G0 F6562.5 X56.499 Y93.759
G1 F1800 X56.499 Y64.114 E105.00214
G0 F6562.5 X56.999 Y64.114
G1 F1800 X56.999 Y93.886 E105.74884
G0 F6562.5 X57.499 Y93.886
G1 F1800 X57.499 Y64.114 E106.49554
G0 F6562.5 X57.999 Y64.114
G1 F1800 X57.999 Y93.886 E107.24225
G0 F6562.5 X58.499 Y93.886
G1 F1800 X58.499 Y64.114 E107.98895
G0 F6562.5 X58.999 Y64.114
G1 F1800 X58.999 Y93.886 E108.73566
G0 F6562.5 X59.499 Y93.886
G1 F1800 X59.499 Y64.114 E109.48236
G0 F6562.5 X59.999 Y64.114
G1 F1800 X59.999 Y93.886 E110.22906
G0 F6562.5 X60.499 Y93.886
G1 F1800 X60.499 Y64.114 E110.97577
G0 F6562.5 X60.999 Y64.114
G1 F1800 X60.999 Y93.886 E111.72247
G0 F6562.5 X61.499 Y93.886
G1 F1800 X61.499 Y64.114 E112.46917
G0 F6562.5 X61.999 Y64.114
G1 F1800 X61.999 Y93.886 E113.21588
G0 F6562.5 X62.499 Y93.886
G1 F1800 X62.499 Y64.114 E113.96258
G0 F6562.5 X62.999 Y64.114
G1 F1800 X62.999 Y93.886 E114.70929
G0 F6562.5 X63.499 Y93.886
G1 F1800 X63.499 Y64.114 E115.45599
G0 F6562.5 X63.999 Y64.114
G1 F1800 X63.999 Y93.886 E116.20269
G0 F6562.5 X64.499 Y93.886
G1 F1800 X64.499 Y64.114 E116.9494
G0 F6562.5 X64.999 Y64.114
G1 F1800 X64.999 Y93.886 E117.6961
G0 F6562.5 X65.499 Y93.886
G1 F1800 X65.499 Y64.114 E118.44281
G0 F6562.5 X65.999 Y64.114
G1 F1800 X65.999 Y93.886 E119.18951
G0 F6562.5 X66.499 Y93.886
G1 F1800 X66.499 Y64.114 E119.93621
G0 F6562.5 X66.999 Y64.114
G1 F1800 X66.999 Y93.886 E120.68292
G0 F6562.5 X67.499 Y93.886
G1 F1800 X67.499 Y64.114 E121.42962
G0 F6562.5 X67.999 Y64.114
G1 F1800 X67.999 Y93.886 E122.17633
G0 F6562.5 X68.499 Y93.886
G1 F1800 X68.499 Y64.114 E122.92303
G0 F6562.5 X68.999 Y64.114
G1 F1800 X68.999 Y93.886 E123.66973
G0 F6562.5 X69.499 Y93.886
G1 F1800 X69.499 Y64.114 E124.41644
G0 F6562.5 X69.999 Y64.114
G1 F1800 X69.999 Y93.886 E125.16314
G0 F6562.5 X70.499 Y93.886
G1 F1800 X70.499 Y64.114 E125.90984
G0 F6562.5 X70.999 Y64.114
G1 F1800 X70.999 Y93.886 E126.65655
G0 F6562.5 X71.499 Y93.886
G1 F1800 X71.499 Y64.114 E127.40325
G0 F6562.5 X71.999 Y64.114
G1 F1800 X71.999 Y93.886 E128.14996
G0 F6562.5 X72.499 Y93.886
G1 F1800 X72.499 Y64.114 E128.89666
G0 F6562.5 X72.999 Y64.114
G1 F1800 X72.999 Y93.886 E129.64336
G0 F6562.5 X73.499 Y93.886
G1 F1800 X73.499 Y64.114 E130.39007
G0 F6562.5 X73.999 Y64.114
G1 F1800 X73.999 Y93.886 E131.13677
G0 F6562.5 X74.499 Y93.886
G1 F1800 X74.499 Y64.114 E131.88348
G0 F6562.5 X74.999 Y64.114
G1 F1800 X74.999 Y93.886 E132.63018
G0 F6562.5 X75.499 Y93.886
G1 F1800 X75.499 Y64.114 E133.37688
G0 F6562.5 X75.999 Y64.114
G1 F1800 X75.999 Y93.886 E134.12359
G0 F6562.5 X76.499 Y93.886
G1 F1800 X76.499 Y64.114 E134.87029
G0 F6562.5 X76.999 Y64.114
G1 F1800 X76.999 Y93.886 E135.61699
G0 F6562.5 X77.499 Y93.886
G1 F1800 X77.499 Y64.114 E136.3637
G0 F6562.5 X77.999 Y64.114
G1 F1800 X77.999 Y93.886 E137.1104
G0 F6562.5 X78.499 Y93.886
G1 F1800 X78.499 Y64.114 E137.85711
G0 F6562.5 X78.999 Y64.114
G1 F1800 X78.999 Y93.886 E138.60381
G0 F6562.5 X79.499 Y93.886
G1 F1800 X79.499 Y64.114 E139.35051
G0 F6562.5 X79.999 Y64.114
G1 F1800 X79.999 Y93.886 E140.09722
G0 F6562.5 X80.499 Y93.886
G1 F1800 X80.499 Y64.114 E140.84392
G0 F6562.5 X80.999 Y64.114
G1 F1800 X80.999 Y93.886 E141.59063
G0 F6562.5 X81.499 Y93.886
G1 F1800 X81.499 Y64.114 E142.33733
G0 F6562.5 X81.999 Y64.114
G1 F1800 X81.999 Y93.886 E143.08403
G0 F6562.5 X82.499 Y93.886
G1 F1800 X82.499 Y64.114 E143.83074
G0 F6562.5 X82.999 Y64.114
G1 F1800 X82.999 Y93.886 E144.57744
G0 F6562.5 X83.499 Y93.886
G1 F1800 X83.499 Y64.114 E145.32414
G0 F6562.5 X83.999 Y64.114
G1 F1800 X83.999 Y93.886 E146.07085
G0 F6562.5 X84.499 Y93.886
G1 F1800 X84.499 Y64.114 E146.81755
G0 F6562.5 X84.999 Y64.114
G1 F1800 X84.999 Y93.886 E147.56426
G0 F6562.5 X85.499 Y93.886
G1 F1800 X85.499 Y64.114 E148.31096
G0 F6562.5 X85.999 Y64.114
G1 F1800 X85.999 Y93.886 E149.05766
G0 F6562.5 X86.499 Y93.886
G1 F1800 X86.499 Y64.114 E149.80437
G0 F6562.5 X86.999 Y64.114
G1 F1800 X86.999 Y93.886 E150.55107
G0 F6562.5 X87.499 Y93.886
G1 F1800 X87.499 Y64.114 E151.29778
G0 F6562.5 X87.999 Y64.114
G1 F1800 X87.999 Y93.886 E152.04448
G0 F6562.5 X88.499 Y93.886
G1 F1800 X88.499 Y64.114 E152.79118
G0 F6562.5 X88.999 Y64.114
G1 F1800 X88.999 Y93.886 E153.53789
G0 F6562.5 X89.499 Y93.886
G1 F1800 X89.499 Y64.114 E154.28459
G0 F6562.5 X89.999 Y64.114
G1 F1800 X89.999 Y93.886 E155.03129
G1 X89.999 Y94.011
;MESH:NONMESH
G0 F6562.5 X56.153 Y63.488
G0 X55.934 Y63.08
;TIME_ELAPSED:255.493892
;LAYER:2
;MESH:
G0 F10500 X55.934 Y63.08 Z1.04
;TYPE:WALL-INNER
G1 F3600 X91.207 Y63.08 E155.91597
G1 X91.208 Y94.671 E156.70829
G1 X91.208 Y94.921 E156.71456
G1 X90.958 Y94.921 E156.71862
G1 X55.996 Y94.921 E157.59549
G1 X52.362 Y88.97 E157.77038
G1 X52.363 Y68.505 E158.28365
G1 X55.934 Y63.08 E158.44655
G0 F10500 X55.664 Y62.58
;TYPE:WALL-OUTER
G1 F1800 X91.707 Y62.58 E159.35053
G1 X91.708 Y95.171 E160.16794
G1 X91.708 Y95.421 E160.17421
G1 X91.458 Y95.421 E160.17827
G1 X55.715 Y95.421 E161.07473
G1 X51.862 Y89.111 E161.26016
G1 X51.863 Y68.355 E161.78074
G1 X55.664 Y62.58 E161.95413
G0 F10500 X55.981 Y63.168
G0 X56.198 Y63.57
;TYPE:SKIN
G1 F2700 X90.717 Y63.57 E162.8199
