;Generated by Cura LulzBot Edition GCodeWriter Version: 3.6.18
;FLAVOR:Marlin
;TIME:15678
;Filament used: 8.49048m
;Layer height: 0.38
;Generated with Cura_SteamEngine 3.6.18
M82 ;absolute extrusion mode
;This G-Code has been generated specifically for the LulzBot Mini 2 with SE 0.5mm Tool Head
M73 P0                  ; clear GLCD progress bar
M75 					; Start GLCD Print Timer
G26 					; clear potential 'probe fail' condition
M107 					; disable fans
M420 S0                 ; disable leveling matrix
G90 					; absolute positioning
M82 					; set extruder to absolute mode
G92 E0 					; set extruder position to 0
M140 S112.0 ; start bed heating up
G28                       ; Home Axis
G0 X160 F9999             ; Move toolhead to the right
G0 Z5 F6000               ; Move to bottom of printer
G91                       ; Set relative motion mode
M211 S0		  	  ; Turn off soft endstops
M400                      ; Finish moves
G0 Z-15 F500              ; Skip steppers against lower Z mounts
G90                       ; Return to absolute mode
M400                      ; Finish moves
M211 S1			  ; Turn soft endstops back on
M400                      ; Finish moves
G28                       ; Rehome
G0 X0 Y187 Z156 F200 			; move away from endstops
M117 Mini 2 Wiping...			; progress indicator message on LCD
M109 R170 	; soften filament before retraction
G1 E-15 F75 				; retract filament
M109 R170 	; wait for extruder to reach wiping temp
G1 X45 Y176 F11520 			; move above wiper pad
G1 Z0 F1200 				; push nozzle into wiper
G1 X45 Y178 Z-.5 F4000		; wiping
G1 X55 Y176 Z-.5 F4000		; wiping
G1 X45 Y177 Z0 F4000		; wiping
G1 X55 Y176 F4000		; wiping
G1 X45 Y178 F4000		; wiping
G1 X55 Y176 F4000		; wiping
G1 X45 Y178 F4000		; wiping
G1 X55 Y176 F4000		; wiping
G1 X60 Y178 F4000		; wiping
G1 X80 Y176 F4000		; wiping
G1 X60 Y178 F4000		; wiping
G1 X80 Y176 F4000		; wiping
G1 X60 Y178 F4000		; wiping
G1 X90 Y176 F4000		; wiping
G1 X80 Y178 F4000		; wiping
G1 X100 Y176 F4000		; wiping
G1 X80 Y178 F4000		; wiping
G1 X100 Y176 F4000		; wiping
G1 X80 Y178 F4000		; wiping
G1 X100 Y176 F4000		; wiping
G1 X110 Y178 F4000		; wiping
G1 X100 Y176 F4000		; wiping
G1 X110 Y178 F4000		; wiping
G1 X100 Y176 F4000		; wiping
G1 X110 Y178 F4000		; wiping
G1 X115 Y176 Z-0.5 F1000	; wiping
G1 Z10					; raise extruder
G28 X0 Y0				; home X and Y
M109 R170	; wait for extruder to reach probe temp
M204 S300				; set probing acceleration
G29					; start auto-leveling sequence
M420 S1                     ; enable leveling matrix
M425 Z			     		; use measured Z backlash for compensation
M425 Z F0		     		; turn off measured Z backlash compensation. (if activated in the quality settings, this command will automatically be ignored)
M204 S2000				; restore standard acceleration
G1 X5 Y15 Z10 F5000			; move up off last probe point
G4 S1					; pause
M400					; wait for moves to finish
M117 Heating...				; progress indicator message on LCD
M109 R245 ; wait for extruder to reach initial printing temp
M190 R112.0 ; wait for bed to reach printing temp
G1 Z2 E0 F75				; prime tiny bit of filment into the nozzle
M117 Mini 2 Printing...		; progress indicator message on LCD

M221 S100 T0
G92 E0
M92 X100.6
M92 Y100.6
G1 F600 E-1
;LAYER_COUNT:79
;LAYER:0
M107
G0 F3937.5 X10.924 Y26.713 Z0.425
;TYPE:SKIRT
G1 F600 E0
G1 F900 X11.65 Y26.46 E0.02561
G1 X12.142 Y26.331 E0.04255
G1 X12.72 Y26.279 E0.06188
G1 X149.501 Y26.325 E4.61811
G1 X150.009 Y26.365 E4.63508
G1 X150.725 Y26.565 E4.65985
G1 X151.224 Y26.768 E4.67779
G1 X151.679 Y26.996 E4.69474
G1 X152.146 Y27.338 E4.71402
G1 X152.722 Y27.845 E4.73958
G1 X153.077 Y28.211 E4.75657
G1 X153.491 Y28.85 E4.78193
G1 X153.841 Y29.561 E4.80833
G1 X154.029 Y30.034 E4.82528
G1 X154.127 Y30.438 E4.83913
G1 X154.181 Y30.748 E4.84961
G1 X154.229 Y31.306 E4.86827
G1 X154.22 Y118.275 E7.76524
G1 X154.18 Y118.783 E7.78221
G1 X154.045 Y119.327 E7.80088
G1 X153.798 Y120.049 E7.8263
G1 X153.596 Y120.517 E7.84328
G1 X153.323 Y120.947 E7.86025
G1 X153.122 Y121.189 E7.87073
G1 X152.55 Y121.815 E7.89897
G1 X152.178 Y122.163 E7.91594
G1 X151.756 Y122.449 E7.93292
G1 X151.359 Y122.64 E7.9476
G1 X150.49 Y122.988 E7.97878
G1 X149.805 Y123.179 E8.00247
G1 X145.374 Y123.902 E8.15202
G1 X140.003 Y125.053 E8.33499
G1 X137.403 Y125.726 E8.42445
G1 X132.129 Y127.335 E8.60812
G1 X126.997 Y129.224 E8.79028
G1 X121.97 Y131.405 E8.97282
G1 X117.943 Y133.402 E9.12254
G1 X117.47 Y133.591 E9.13951
G1 X116.974 Y133.705 E9.15646
G1 X116.5 Y133.74 E9.1723
G1 X80.828 Y133.75 E10.36054
G1 X75.289 Y133.907 E10.54512
G1 X69.847 Y134.369 E10.72705
G1 X64.384 Y135.148 E10.91087
G1 X61.141 Y135.703 E11.02046
G1 X60.589 Y135.75 E11.03892
G1 X51.681 Y135.74 E11.33564
G1 X51.26 Y135.712 E11.3497
G1 X44.926 Y134.877 E11.56251
G1 X39.47 Y134.489 E11.74471
G1 X33.991 Y134.41 E11.92724
G1 X28.53 Y134.64 E12.10931
G1 X23.073 Y135.18 E12.29197
G1 X19.458 Y135.707 E12.41366
G1 X18.989 Y135.741 E12.42932
G1 X11.01 Y135.741 E12.69511
G1 X10.502 Y135.701 E12.71208
G1 X10.007 Y135.582 E12.72904
G1 X9.536 Y135.387 E12.74602
G1 X9.101 Y135.121 E12.76301
G1 X8.714 Y134.791 E12.77995
G1 X8.382 Y134.404 E12.79693
G1 X8.116 Y133.969 E12.81392
G1 X7.92 Y133.499 E12.83088
G1 X7.801 Y133.004 E12.84784
G1 X7.76 Y132.49 E12.86501
G1 X7.78 Y31.224 E16.23822
G1 X7.82 Y30.716 E16.25519
G1 X7.977 Y30.109 E16.27608
G1 X8.265 Y29.321 E16.30403
G1 X8.477 Y28.858 E16.32099
G1 X8.759 Y28.433 E16.33798
G1 X9.055 Y28.105 E16.35269
G1 X9.73 Y27.45 E16.38403
G1 X10.122 Y27.125 E16.40099
G1 X10.56 Y26.865 E16.41795
G1 X10.924 Y26.713 E16.43109
G1 F600 E15.43109
;MESH:
G0 F3937.5 X115.75 Y129.75
;TYPE:WALL-INNER
G1 F600 E16.43109
G1 F900 X60.173 Y129.75 E18.28238
G1 X60.173 Y131.75 E18.349
G1 X52.425 Y131.75 E18.60709
G1 X52.425 Y129.75 E18.67371
G1 X18.25 Y129.75 E19.81209
G1 X18.25 Y131.75 E19.87872
G1 X11.751 Y131.75 E20.0952
G1 X11.75 Y125.3 E20.31005
G1 X78.561 Y125.3 E22.53555
G1 X78.086 Y126.25 E22.57093
G1 X104.514 Y126.25 E23.45126
G1 X104.039 Y125.3 E23.48664
G1 X115.75 Y125.3 E23.87673
G1 X115.75 Y129.75 E24.02496
G0 F3937.5 X116.25 Y130.25
;TYPE:WALL-OUTER
G1 F900 X60.673 Y130.25 E25.87625
G1 X60.673 Y132.25 E25.94288
G1 X51.925 Y132.25 E26.23427
G1 X51.925 Y130.25 E26.3009
G1 X18.75 Y130.25 E27.40597
G1 X18.75 Y132.25 E27.47259
G1 X11.251 Y132.25 E27.72238
G1 X11.25 Y124.8 E27.97054
G1 X79.37 Y124.8 E30.23965
G1 X78.895 Y125.75 E30.27503
G1 X103.705 Y125.75 E31.10146
G1 X103.23 Y124.8 E31.13684
G1 X116.25 Y124.8 E31.57054
G1 X116.25 Y130.25 E31.75208
G0 F3937.5 X116 Y130.25
G1 F600 E30.75208
G0 F3937.5 X115.26 Y129.26
;TYPE:SKIN
G1 F600 E31.75208
G1 F900 X59.683 Y129.26 E33.60337
G1 X59.683 Y131.26 E33.66999
G1 X52.915 Y131.26 E33.89543
G1 X52.915 Y129.26 E33.96205
G1 X17.76 Y129.26 E35.13308
G1 X17.76 Y131.26 E35.1997
G1 X12.241 Y131.26 E35.38354
G1 X12.24 Y125.79 E35.56575
G1 X77.768 Y125.79 E37.74851
G1 X77.293 Y126.74 E37.78389
G1 X105.307 Y126.74 E38.71705
G1 X104.832 Y125.79 E38.75243
G1 X115.26 Y125.79 E39.09979
G1 X115.26 Y129.26 E39.21537
G1 F600 E38.21537
G0 F3937.5 X115.034 Y126.348
G1 F600 E39.21537
G1 F900 X114.701 Y126.014 E39.23108
G0 F3937.5 X113.994 Y126.014
G1 F900 X115.034 Y127.055 E39.2801
G0 F3937.5 X115.034 Y127.762
G1 F900 X113.286 Y126.014 E39.36244
G0 F3937.5 X112.579 Y126.014
G1 F900 X115.034 Y128.469 E39.47809
G0 F3937.5 X114.892 Y129.034
G1 F900 X111.872 Y126.014 E39.62036
G0 F3937.5 X111.165 Y126.014
G1 F900 X114.185 Y129.034 E39.76263
G0 F3937.5 X113.477 Y129.034
G1 F900 X110.458 Y126.014 E39.90487
G0 F3937.5 X109.751 Y126.014
G1 F900 X112.77 Y129.034 E40.04711
G0 F3937.5 X112.063 Y129.034
G1 F900 X109.044 Y126.014 E40.18935
G0 F3937.5 X108.337 Y126.014
G1 F900 X111.356 Y129.034 E40.3316
G0 F3937.5 X110.649 Y129.034
G1 F900 X107.63 Y126.014 E40.47384
G0 F3937.5 X106.923 Y126.014
G1 F900 X109.942 Y129.034 E40.61608
G0 F3937.5 X109.235 Y129.034
G1 F900 X106.215 Y126.014 E40.75835
G0 F3937.5 X105.508 Y126.014
G1 F900 X108.528 Y129.034 E40.90061
G0 F3937.5 X107.821 Y129.034
G1 F900 X105.592 Y126.806 E41.00559
G0 F3937.5 X105.044 Y126.964
G1 F900 X107.113 Y129.034 E41.10308
G0 F3937.5 X106.406 Y129.034
G1 F900 X104.337 Y126.964 E41.20057
G0 F3937.5 X103.63 Y126.964
G1 F900 X105.699 Y129.034 E41.29806
G0 F3937.5 X104.992 Y129.034
G1 F900 X102.922 Y126.964 E41.39558
G0 F3937.5 X102.215 Y126.964
G1 F900 X104.285 Y129.034 E41.49309
G0 F3937.5 X103.578 Y129.034
G1 F900 X101.508 Y126.964 E41.5906
G0 F3937.5 X100.801 Y126.964
G1 F900 X102.871 Y129.034 E41.68812
G0 F3937.5 X102.164 Y129.034
G1 F900 X100.094 Y126.964 E41.78563
G0 F3937.5 X99.387 Y126.964
G1 F900 X101.457 Y129.034 E41.88314
G0 F3937.5 X100.749 Y129.034
G1 F900 X98.68 Y126.964 E41.98063
G0 F3937.5 X97.973 Y126.964
G1 F900 X100.042 Y129.034 E42.07812
G0 F3937.5 X99.335 Y129.034
G1 F900 X97.266 Y126.964 E42.17561
G0 F3937.5 X96.558 Y126.964
G1 F900 X98.628 Y129.034 E42.27313
G0 F3937.5 X97.921 Y129.034
G1 F900 X95.851 Y126.964 E42.37064
G0 F3937.5 X95.144 Y126.964
G1 F900 X97.214 Y129.034 E42.46815
G0 F3937.5 X96.507 Y129.034
G1 F900 X94.437 Y126.964 E42.56567
G0 F3937.5 X93.73 Y126.964
G1 F900 X95.8 Y129.034 E42.66318
G0 F3937.5 X95.093 Y129.034
G1 F900 X93.023 Y126.964 E42.76069
G0 F3937.5 X92.316 Y126.964
G1 F900 X94.386 Y129.034 E42.85821
G0 F3937.5 X93.678 Y129.034
G1 F900 X91.609 Y126.964 E42.9557
G0 F3937.5 X90.902 Y126.964
G1 F900 X92.971 Y129.034 E43.05319
G0 F3937.5 X92.264 Y129.034
G1 F900 X90.195 Y126.964 E43.15068
G0 F3937.5 X89.487 Y126.964
G1 F900 X91.557 Y129.034 E43.24819
G0 F3937.5 X90.85 Y129.034
G1 F900 X88.78 Y126.964 E43.34571
G0 F3937.5 X88.073 Y126.964
G1 F900 X90.143 Y129.034 E43.44322
G0 F3937.5 X89.436 Y129.034
G1 F900 X87.366 Y126.964 E43.54073
G0 F3937.5 X86.659 Y126.964
G1 F900 X88.729 Y129.034 E43.63825
G0 F3937.5 X88.022 Y129.034
G1 F900 X85.952 Y126.964 E43.73576
G0 F3937.5 X85.245 Y126.964
G1 F900 X87.314 Y129.034 E43.83325
G0 F3937.5 X86.607 Y129.034
G1 F900 X84.538 Y126.964 E43.93074
G0 F3937.5 X83.831 Y126.964
G1 F900 X85.9 Y129.034 E44.02823
G0 F3937.5 X85.193 Y129.034
G1 F900 X83.123 Y126.964 E44.12574
G0 F3937.5 X82.416 Y126.964
G1 F900 X84.486 Y129.034 E44.22326
G0 F3937.5 X83.779 Y129.034
G1 F900 X81.709 Y126.964 E44.32077
G0 F3937.5 X81.002 Y126.964
G1 F900 X83.072 Y129.034 E44.41828
G0 F3937.5 X82.365 Y129.034
G1 F900 X80.295 Y126.964 E44.5158
G0 F3937.5 X79.588 Y126.964
G1 F900 X81.658 Y129.034 E44.61331
G0 F3937.5 X80.95 Y129.034
G1 F900 X78.881 Y126.964 E44.7108
G0 F3937.5 X78.174 Y126.964
G1 F900 X80.243 Y129.034 E44.80829
G0 F3937.5 X78.501 Y127.999
G1 F900 X76.811 Y126.309 E44.92158
G1 X77.283 Y126.074 E44.94658
G1 F600 E43.94658
G0 F3937.5 X75.809 Y126.014
G1 F600 E44.94658
G1 F900 X78.829 Y129.034 E45.08884
G0 F3937.5 X78.122 Y129.034
G1 F900 X75.102 Y126.014 E45.23111
G0 F3937.5 X74.395 Y126.014
G1 F900 X77.415 Y129.034 E45.37337
G0 F3937.5 X76.708 Y129.034
G1 F900 X73.688 Y126.014 E45.51564
G0 F3937.5 X72.981 Y126.014
G1 F900 X76.001 Y129.034 E45.65791
G0 F3937.5 X75.294 Y129.034
G1 F900 X72.274 Y126.014 E45.80017
G0 F3937.5 X71.566 Y126.014
G1 F900 X74.587 Y129.034 E45.94246
G0 F3937.5 X73.879 Y129.034
G1 F900 X70.859 Y126.014 E46.08473
G0 F3937.5 X70.152 Y126.014
G1 F900 X73.172 Y129.034 E46.22699
G0 F3937.5 X72.465 Y129.034
G1 F900 X69.445 Y126.014 E46.36926
G0 F3937.5 X68.738 Y126.014
G1 F900 X71.758 Y129.034 E46.51153
G0 F3937.5 X71.051 Y129.034
G1 F900 X68.031 Y126.014 E46.65379
G0 F3937.5 X67.324 Y126.014
G1 F900 X70.344 Y129.034 E46.79606
G0 F3937.5 X69.637 Y129.034
G1 F900 X66.617 Y126.014 E46.93832
G0 F3937.5 X65.91 Y126.014
G1 F900 X68.93 Y129.034 E47.08059
G0 F3937.5 X68.223 Y129.034
G1 F900 X65.203 Y126.014 E47.22286
G0 F3937.5 X64.495 Y126.014
G1 F900 X67.515 Y129.034 E47.36512
G0 F3937.5 X66.808 Y129.034
G1 F900 X63.788 Y126.014 E47.50739
G0 F3937.5 X63.081 Y126.014
G1 F900 X66.101 Y129.034 E47.64966
G0 F3937.5 X65.394 Y129.034
G1 F900 X62.374 Y126.014 E47.79192
G0 F3937.5 X61.667 Y126.014
G1 F900 X64.687 Y129.034 E47.93419
G0 F3937.5 X63.98 Y129.034
G1 F900 X60.96 Y126.014 E48.07645
G0 F3937.5 X60.253 Y126.014
G1 F900 X63.273 Y129.034 E48.21872
G0 F3937.5 X62.566 Y129.034
G1 F900 X59.546 Y126.014 E48.36099
G0 F3937.5 X58.839 Y126.014
G1 F900 X61.859 Y129.034 E48.50325
G0 F3937.5 X61.152 Y129.034
G1 F900 X58.131 Y126.014 E48.64554
G0 F3937.5 X57.424 Y126.014
G1 F900 X60.444 Y129.034 E48.78781
G0 F3937.5 X59.737 Y129.034
G1 F900 X56.717 Y126.014 E48.93007
G0 F3937.5 X56.01 Y126.014
G1 F900 X59.457 Y129.461 E49.09245
G0 F3937.5 X59.457 Y130.168
G1 F900 X55.303 Y126.014 E49.28814
G0 F3937.5 X54.596 Y126.014
G1 F900 X59.457 Y130.875 E49.51713
G0 F3937.5 X58.909 Y131.033
G1 F900 X53.889 Y126.014 E49.75359
G0 F3937.5 X53.182 Y126.014
G1 F900 X58.201 Y131.033 E49.99003
G0 F3937.5 X57.494 Y131.033
G1 F900 X52.475 Y126.014 E50.22646
G0 F3937.5 X51.767 Y126.014
G1 F900 X56.787 Y131.033 E50.46292
G0 F3937.5 X56.08 Y131.033
G1 F900 X51.06 Y126.014 E50.69938
G0 F3937.5 X50.353 Y126.014
G1 F900 X55.373 Y131.033 E50.93584
G0 F3937.5 X54.666 Y131.033
G1 F900 X53.139 Y129.507 E51.00775
G0 F3937.5 X52.666 Y129.034
G1 F900 X49.646 Y126.014 E51.15001
G0 F3937.5 X48.939 Y126.014
G1 F900 X51.959 Y129.034 E51.29228
G0 F3937.5 X51.252 Y129.034
G1 F900 X48.232 Y126.014 E51.43454
G0 F3937.5 X47.525 Y126.014
G1 F900 X50.545 Y129.034 E51.57681
G0 F3937.5 X49.838 Y129.034
G1 F900 X46.818 Y126.014 E51.71908
G0 F3937.5 X46.111 Y126.014
G1 F900 X49.131 Y129.034 E51.86134
G0 F3937.5 X48.424 Y129.034
G1 F900 X45.404 Y126.014 E52.00361
G0 F3937.5 X44.696 Y126.014
G1 F900 X47.716 Y129.034 E52.14587
G0 F3937.5 X47.009 Y129.034
G1 F900 X43.989 Y126.014 E52.28814
G0 F3937.5 X43.282 Y126.014
G1 F900 X46.302 Y129.034 E52.43041
G0 F3937.5 X45.595 Y129.034
G1 F900 X42.575 Y126.014 E52.57267
G0 F3937.5 X41.868 Y126.014
G1 F900 X44.888 Y129.034 E52.71494
G0 F3937.5 X44.181 Y129.034
G1 F900 X41.161 Y126.014 E52.85721
G0 F3937.5 X40.454 Y126.014
G1 F900 X43.474 Y129.034 E52.99947
G0 F3937.5 X42.767 Y129.034
G1 F900 X39.747 Y126.014 E53.14174
G0 F3937.5 X39.04 Y126.014
G1 F900 X42.06 Y129.034 E53.284
G0 F3937.5 X41.353 Y129.034
G1 F900 X38.332 Y126.014 E53.42629
G0 F3937.5 X37.625 Y126.014
G1 F900 X40.645 Y129.034 E53.56856
G0 F3937.5 X39.938 Y129.034
G1 F900 X36.918 Y126.014 E53.71082
G0 F3937.5 X36.211 Y126.014
G1 F900 X39.231 Y129.034 E53.85309
G0 F3937.5 X38.524 Y129.034
G1 F900 X35.504 Y126.014 E53.99536
G0 F3937.5 X34.797 Y126.014
G1 F900 X37.817 Y129.034 E54.13762
G0 F3937.5 X37.11 Y129.034
G1 F900 X34.09 Y126.014 E54.27989
G0 F3937.5 X33.383 Y126.014
G1 F900 X36.403 Y129.034 E54.42216
G0 F3937.5 X35.696 Y129.034
G1 F900 X32.676 Y126.014 E54.56442
G0 F3937.5 X31.969 Y126.014
G1 F900 X34.989 Y129.034 E54.70669
G0 F3937.5 X34.281 Y129.034
G1 F900 X31.261 Y126.014 E54.84895
G0 F3937.5 X30.554 Y126.014
G1 F900 X33.574 Y129.034 E54.99122
G0 F3937.5 X32.867 Y129.034
G1 F900 X29.847 Y126.014 E55.13349
G0 F3937.5 X29.14 Y126.014
G1 F900 X32.16 Y129.034 E55.27575
G0 F3937.5 X31.453 Y129.034
G1 F900 X28.433 Y126.014 E55.41802
G0 F3937.5 X27.726 Y126.014
G1 F900 X30.746 Y129.034 E55.56028
G0 F3937.5 X30.039 Y129.034
G1 F900 X27.019 Y126.014 E55.70255
G0 F3937.5 X26.312 Y126.014
G1 F900 X29.332 Y129.034 E55.84482
G0 F3937.5 X28.625 Y129.034
G1 F900 X25.605 Y126.014 E55.98708
G0 F3937.5 X24.897 Y126.014
G1 F900 X27.917 Y129.034 E56.12935
G0 F3937.5 X27.21 Y129.034
G1 F900 X24.19 Y126.014 E56.27161
G0 F3937.5 X23.483 Y126.014
G1 F900 X26.503 Y129.034 E56.41388
G0 F3937.5 X25.796 Y129.034
G1 F900 X22.776 Y126.014 E56.55615
G0 F3937.5 X22.069 Y126.014
G1 F900 X25.089 Y129.034 E56.69841
G0 F3937.5 X24.382 Y129.034
G1 F900 X21.362 Y126.014 E56.84068
G0 F3937.5 X20.655 Y126.014
G1 F900 X23.675 Y129.034 E56.98294
G0 F3937.5 X22.968 Y129.034
G1 F900 X19.948 Y126.014 E57.12521
G0 F3937.5 X19.241 Y126.014
G1 F900 X22.261 Y129.034 E57.26748
G0 F3937.5 X21.554 Y129.034
G1 F900 X18.533 Y126.014 E57.40977
G0 F3937.5 X17.826 Y126.014
G1 F900 X20.846 Y129.034 E57.55203
G0 F3937.5 X20.139 Y129.034
G1 F900 X17.119 Y126.014 E57.6943
G0 F3937.5 X16.412 Y126.014
G1 F900 X19.432 Y129.034 E57.83656
