;Generated by Cura LulzBot Edition GCodeWriter Version: 3.6.18
;FLAVOR:Marlin
;TIME:2892
;Filament used: 1.46415m
;Layer height: 0.25
;Generated with Cura_SteamEngine 3.6.18
M82 ;absolute extrusion mode
;This G-Code has been generated specifically for the LulzBot Mini 2 with SE 0.5mm Tool Head
M73 P0                  ; clear GLCD progress bar
M75 					; Start GLCD Print Timer
G26 					; clear potential 'probe fail' condition
M107 					; disable fans
M420 S0                 ; disable leveling matrix
G90 					; absolute positioning
M82 					; set extruder to absolute mode
G92 E0 					; set extruder position to 0
M140 S112 ; start bed heating up
G28 					; home all axes
G0 X0 Y187 Z156 F200 			; move away from endstops
M117 Mini 2 Wiping...			; progress indicator message on LCD
M109 R170 	; soften filament before retraction
G1 E-15 F75 				; retract filament
M109 R170 	; wait for extruder to reach wiping temp
G1 X45 Y176 F11520 			; move above wiper pad
G1 Z0 F1200 				; push nozzle into wiper
G1 X45 Y178 Z-.5 F4000		; wiping
G1 X55 Y176 Z-.5 F4000		; wiping
G1 X45 Y177 Z0 F4000		; wiping
G1 X55 Y176 F4000		; wiping
G1 X45 Y178 F4000		; wiping
G1 X55 Y176 F4000		; wiping
G1 X45 Y178 F4000		; wiping
G1 X55 Y176 F4000		; wiping
G1 X60 Y178 F4000		; wiping
G1 X80 Y176 F4000		; wiping
G1 X60 Y178 F4000		; wiping
G1 X80 Y176 F4000		; wiping
G1 X60 Y178 F4000		; wiping
G1 X90 Y176 F4000		; wiping
G1 X80 Y178 F4000		; wiping
G1 X100 Y176 F4000		; wiping
G1 X80 Y178 F4000		; wiping
G1 X100 Y176 F4000		; wiping
G1 X80 Y178 F4000		; wiping
G1 X100 Y176 F4000		; wiping
G1 X110 Y178 F4000		; wiping
G1 X100 Y176 F4000		; wiping
G1 X110 Y178 F4000		; wiping
G1 X100 Y176 F4000		; wiping
G1 X110 Y178 F4000		; wiping
G1 X115 Y176 Z-0.5 F1000	; wiping
G1 Z10					; raise extruder
G28 X0 Y0				; home X and Y
M109 R170	; wait for extruder to reach probe temp
M204 S300				; set probing acceleration
G29					; start auto-leveling sequence
M420 S1                     ; enable leveling matrix
M425 Z			     		; use measured Z backlash for compensation
M425 Z F0		     		; turn off measured Z backlash compensation. (if activated in the quality settings, this command will automatically be ignored)
M204 S2000				; restore standard acceleration
G1 X5 Y15 Z10 F5000			; move up off last probe point
G4 S1					; pause
M400					; wait for moves to finish
M117 Heating...				; progress indicator message on LCD
M109 R245 ; wait for extruder to reach initial printing temp
M190 R112 ; wait for bed to reach printing temp
G1 Z2 E0 F75				; prime tiny bit of filment into the nozzle
M117 Mini 2 Printing...		; progress indicator message on LCD

M221 S100 T0
G92 E0
G1 F600 E-1
;LAYER_COUNT:66
;LAYER:0
M107
G0 F2625 X32.268 Y70.795 Z0.425
;TYPE:SKIRT
G1 F600 E0
G1 F900 X32.786 Y70.618 E0.01823
G1 X33.324 Y70.518 E0.03646
G1 X33.738 Y70.495 E0.05027
G1 X128.102 Y70.495 E3.19357
G1 X128.648 Y70.535 E3.21181
G1 X129.182 Y70.654 E3.23003
G1 X129.693 Y70.849 E3.24825
G1 X130.171 Y71.117 E3.26651
G1 X130.604 Y71.452 E3.28474
G1 X130.984 Y71.846 E3.30298
G1 X131.303 Y72.291 E3.32121
G1 X131.553 Y72.778 E3.33945
G1 X131.73 Y73.296 E3.35768
G1 X131.829 Y73.834 E3.37591
G1 X131.852 Y74.245 E3.38962
G1 X131.851 Y87.756 E3.83967
G1 X131.811 Y88.302 E3.85791
G1 X131.692 Y88.836 E3.87613
G1 X131.496 Y89.348 E3.8944
G1 X131.229 Y89.825 E3.9126
G1 X130.894 Y90.258 E3.93084
G1 X130.5 Y90.638 E3.94907
G1 X130.055 Y90.957 E3.96731
G1 X129.568 Y91.207 E3.98555
G1 X129.05 Y91.384 E4.00378
G1 X128.512 Y91.483 E4.022
G1 X128.106 Y91.506 E4.03555
G1 X121.032 Y91.515 E4.27119
G1 X120.908 Y91.513 E4.27532
G1 X115.604 Y91.344 E4.45209
G1 X112.891 Y91.348 E4.54246
G1 X108.736 Y91.502 E4.68096
G1 X108.602 Y91.505 E4.68542
G1 X101.491 Y91.515 E4.92229
G1 X101.365 Y91.513 E4.92649
G1 X96.082 Y91.343 E5.10256
G1 X93.369 Y91.347 E5.19293
G1 X89.152 Y91.502 E5.33349
G1 X89.019 Y91.505 E5.33793
G1 X81.921 Y91.515 E5.57436
G1 X81.799 Y91.513 E5.57843
G1 X76.564 Y91.35 E5.75289
G1 X73.869 Y91.355 E5.84266
G1 X69.454 Y91.513 E5.98982
G1 X69.315 Y91.515 E5.99445
G1 X61.854 Y91.505 E6.24298
G1 X61.771 Y91.504 E6.24575
G1 X54.483 Y91.334 E6.48858
G1 X49.534 Y91.513 E6.65354
G1 X49.393 Y91.515 E6.65824
G1 X41.94 Y91.505 E6.9065
G1 X41.394 Y91.464 E6.92474
G1 X40.86 Y91.345 E6.94296
G1 X40.292 Y91.121 E6.9633
G1 X36.567 Y89.292 E7.10153
G1 X32.234 Y87.385 E7.25923
G1 X31.75 Y87.129 E7.27746
G1 X31.309 Y86.805 E7.29569
G1 X30.92 Y86.42 E7.31392
G1 X30.591 Y85.983 E7.33214
G1 X30.329 Y85.502 E7.35039
G1 X30.14 Y84.988 E7.36863
G1 X30.027 Y84.453 E7.38685
G1 X29.994 Y83.955 E7.40347
G1 X29.988 Y74.247 E7.72685
G1 X30.028 Y73.701 E7.74508
G1 X30.146 Y73.167 E7.7633
G1 X30.341 Y72.656 E7.78152
G1 X30.609 Y72.178 E7.79977
G1 X30.943 Y71.745 E7.81799
G1 X31.337 Y71.364 E7.83625
G1 X31.782 Y71.046 E7.85447
G1 X32.268 Y70.795 E7.87269
G0 F2625 X32.258 Y71.352
G1 F900 X32.728 Y71.156 E7.88965
G1 X33.223 Y71.036 E7.90662
G1 X33.738 Y70.995 E7.92382
G1 X128.102 Y70.995 E11.06712
G1 X128.61 Y71.035 E11.0841
G1 X129.105 Y71.154 E11.10106
G1 X129.576 Y71.349 E11.11804
G1 X130.011 Y71.615 E11.13502
G1 X130.398 Y71.945 E11.15196
G1 X130.73 Y72.332 E11.16895
G1 X130.996 Y72.767 E11.18593
G1 X131.192 Y73.237 E11.20289
G1 X131.311 Y73.732 E11.21985
G1 X131.352 Y74.245 E11.237
G1 X131.351 Y87.756 E11.68705
G1 X131.311 Y88.264 E11.70403
G1 X131.192 Y88.76 E11.72102
G1 X130.997 Y89.23 E11.73797
G1 X130.731 Y89.665 E11.75495
G1 X130.401 Y90.053 E11.77192
G1 X130.013 Y90.384 E11.78891
G1 X129.579 Y90.65 E11.80586
G1 X129.109 Y90.846 E11.82282
G1 X128.613 Y90.965 E11.83982
G1 X128.105 Y91.006 E11.85679
G1 X121.031 Y91.015 E12.09243
G1 X120.924 Y91.013 E12.09599
G1 X115.62 Y90.844 E12.27276
G1 X112.899 Y90.848 E12.3634
G1 X108.717 Y91.003 E12.5028
G1 X108.602 Y91.005 E12.50663
G1 X101.491 Y91.015 E12.7435
G1 X101.382 Y91.013 E12.74713
G1 X96.098 Y90.843 E12.92324
G1 X93.378 Y90.847 E13.01384
G1 X89.133 Y91.003 E13.15534
G1 X89.019 Y91.005 E13.15914
G1 X81.921 Y91.015 E13.39557
G1 X81.815 Y91.013 E13.3991
G1 X76.58 Y90.85 E13.57357
G1 X73.85 Y90.855 E13.66451
G1 X69.436 Y91.013 E13.81163
G1 X69.316 Y91.015 E13.81563
G1 X61.855 Y91.005 E14.06416
G1 X61.783 Y91.004 E14.06656
G1 X54.477 Y90.833 E14.30999
G1 X49.516 Y91.013 E14.47535
G1 X49.394 Y91.015 E14.47942
G1 X41.941 Y91.005 E14.72768
G1 X41.433 Y90.964 E14.74465
G1 X40.937 Y90.845 E14.76164
G1 X40.512 Y90.672 E14.77693
G1 X36.794 Y88.846 E14.91491
G1 X32.435 Y86.928 E15.07354
G1 X31.986 Y86.687 E15.09052
G1 X31.581 Y86.378 E15.10749
G1 X31.228 Y86.01 E15.12447
G1 X30.938 Y85.592 E15.14142
G1 X30.716 Y85.133 E15.1584
G1 X30.569 Y84.645 E15.17538
G1 X30.494 Y83.955 E15.1985
G1 X30.488 Y74.247 E15.52188
G1 X30.528 Y73.739 E15.53885
G1 X30.646 Y73.244 E15.5558
G1 X30.841 Y72.773 E15.57278
G1 X31.106 Y72.338 E15.58975
G1 X31.437 Y71.95 E15.60674
G1 X31.824 Y71.619 E15.6237
G1 X32.258 Y71.352 E15.64067
G1 F600 E14.64067
;MESH:
G0 F2625 X34.478 Y74.985
;TYPE:WALL-INNER
G1 F600 E15.64067
G1 F900 X48.978 Y74.985 E16.12367
G1 X48.978 Y87.015 E16.5244
G1 X42.686 Y87.015 E16.73399
G1 X42.686 Y83.713 E16.84398
G1 X37.691 Y82.815 E17.01303
G1 X34.484 Y83.131 E17.12037
G1 X34.478 Y74.985 E17.39172
G1 F600 E16.39172
G0 F2625 X36.223 Y75.51
G1 F600 E17.39172
G1 F900 X36.223 Y79.077 E17.51054
G1 X42.686 Y80.052 E17.72826
G1 X42.686 Y75.51 E17.87955
G1 X36.223 Y75.51 E18.09484
G1 F600 E17.09484
G0 F2625 X33.978 Y74.485
;TYPE:WALL-OUTER
G1 F600 E18.09484
G1 F900 X49.478 Y74.485 E18.61115
G1 X49.478 Y87.515 E19.04518
G1 X42.186 Y87.515 E19.28808
G1 X42.186 Y84.131 E19.4008
G1 X37.671 Y83.319 E19.55361
G1 X33.984 Y83.683 E19.67703
G1 X33.978 Y74.485 E19.98341
G0 F2625 X34.228 Y74.485
G1 F600 E18.98341
G0 F2625 X36.723 Y76.01
G1 F600 E19.98341
G1 F900 X36.723 Y78.647 E20.07125
G1 X42.186 Y79.471 E20.25529
G1 X42.186 Y76.01 E20.37057
G1 X36.723 Y76.01 E20.55255
G0 F2625 X36.723 Y76.26
G1 F600 E19.55255
G0 F2625 X35.733 Y75.475
;TYPE:SKIN
G1 F600 E20.55255
G1 F900 X35.733 Y79.498 E20.68656
G1 X43.176 Y80.622 E20.9373
G1 X43.176 Y75.475 E21.10874
G1 X48.488 Y75.475 E21.28569
G1 X48.488 Y86.525 E21.65377
G1 X43.176 Y86.525 E21.83071
G1 X43.176 Y83.303 E21.93804
G1 X37.711 Y82.321 E22.123
G1 X34.974 Y82.59 E22.21461
G1 X34.968 Y75.475 E22.45161
G1 X35.733 Y75.475 E22.47709
G1 F600 E21.47709
G0 F2625 X35.629 Y82.298
G1 F600 E22.47709
G1 F900 X35.198 Y81.867 E22.4974
G0 F2625 X35.197 Y81.159
G1 F900 X36.273 Y82.235 E22.54808
G0 F2625 X36.917 Y82.172
G1 F900 X35.196 Y80.451 E22.62916
G0 F2625 X35.196 Y79.743
G1 F900 X37.56 Y82.108 E22.74054
G0 F2625 X38.369 Y82.209
G1 F900 X35.911 Y79.751 E22.85633
G0 F2625 X35.351 Y79.191
G1 F900 X35.351 Y78.484 E22.87312
G1 X35.45 Y75.755 E22.93795
G1 F600 E21.93795
G0 F2625 X36.744 Y79.877
G1 F600 E22.93795
G1 F900 X39.23 Y82.364 E23.05508
G0 F2625 X40.092 Y82.519
G1 F900 X37.577 Y80.003 E23.17358
G0 F2625 X38.41 Y80.129
G1 F900 X40.955 Y82.674 E23.29347
G0 F2625 X41.817 Y82.829
G1 F900 X39.243 Y80.255 E23.41473
G0 F2625 X40.075 Y80.381
G1 F900 X42.679 Y82.984 E23.53737
G1 X42.767 Y83.072
G0 F2625 X43.4 Y83.705
G1 F900 X45.994 Y86.299 E23.65957
G0 F2625 X45.287 Y86.299
G1 F900 X43.4 Y84.412 E23.74847
G0 F2625 X43.4 Y85.12
G1 F900 X44.58 Y86.299 E23.80403
G0 F2625 X43.873 Y86.299
G1 F900 X43.4 Y85.827 E23.82629
G1 F600 E22.82629
G0 F2625 X46.701 Y86.299
G1 F600 E23.82629
G1 F900 X40.908 Y80.506 E24.09918
G0 F2625 X41.741 Y80.632
G1 F900 X47.408 Y86.299 E24.36614
G0 F2625 X48.115 Y86.299
G1 F900 X42.574 Y80.758 E24.62717
G0 F2625 X43.4 Y80.877
G1 F900 X48.263 Y85.74 E24.85626
G0 F2625 X48.263 Y85.033
G1 F900 X43.4 Y80.17 E25.08534
G0 F2625 X43.4 Y79.463
G1 F900 X48.263 Y84.326 E25.31443
G0 F2625 X48.263 Y83.618
G1 F900 X43.4 Y78.756 E25.54349
G0 F2625 X43.4 Y78.049
G1 F900 X48.263 Y82.911 E25.77255
G0 F2625 X48.263 Y82.204
G1 F900 X43.4 Y77.341 E26.00164
G0 F2625 X43.4 Y76.634
G1 F900 X48.263 Y81.497 E26.23073
G0 F2625 X48.263 Y80.79
G1 F900 X43.4 Y75.927 E26.45981
G0 F2625 X43.879 Y75.699
G1 F900 X48.263 Y80.083 E26.66633
G0 F2625 X48.263 Y79.376
G1 F900 X44.586 Y75.699 E26.83955
G0 F2625 X45.293 Y75.699
G1 F900 X48.263 Y78.669 E26.97946
G0 F2625 X48.263 Y77.962
G1 F900 X46 Y75.699 E27.08606
G0 F2625 X46.707 Y75.699
G1 F900 X48.263 Y77.254 E27.15934
G0 F2625 X48.263 Y76.547
G1 F900 X47.415 Y75.699 E27.19929
G0 F2625 X48.122 Y75.699
G1 F900 X48.263 Y75.84 E27.20593
G1 F600 E26.20593
G0 F2625 X54.4 Y74.985
;TYPE:WALL-INNER
G1 F600 E27.20593
G1 F900 X68.9 Y74.985 E27.68893
G1 X68.9 Y87.015 E28.08965
G1 X62.608 Y87.015 E28.29924
G1 X62.608 Y83.713 E28.40923
G1 X57.613 Y82.815 E28.57829
G1 X54.406 Y83.131 E28.68563
G1 X54.4 Y74.985 E28.95698
G1 F600 E27.95698
G0 F2625 X56.145 Y75.51
G1 F600 E28.95698
G1 F900 X56.145 Y79.077 E29.07579
G1 X62.608 Y80.052 E29.29352
G1 X62.608 Y75.51 E29.44481
G1 X56.145 Y75.51 E29.6601
G1 F600 E28.6601
G0 F2625 X53.9 Y74.485
;TYPE:WALL-OUTER
G1 F600 E29.6601
G1 F900 X69.4 Y74.485 E30.17641
G1 X69.4 Y87.515 E30.61044
G1 X62.108 Y87.515 E30.85334
G1 X62.108 Y84.131 E30.96606
G1 X57.593 Y83.319 E31.11887
G1 X53.906 Y83.683 E31.24228
G1 X53.9 Y74.485 E31.54867
G0 F2625 X54.15 Y74.485
G1 F600 E30.54867
G0 F2625 X56.645 Y76.01
G1 F600 E31.54867
G1 F900 X56.645 Y78.647 E31.63651
G1 X62.108 Y79.471 E31.82054
G1 X62.108 Y76.01 E31.93583
G1 X56.645 Y76.01 E32.11781
G0 F2625 X56.645 Y76.26
G1 F600 E31.11781
G0 F2625 X55.655 Y75.475
;TYPE:SKIN
G1 F600 E32.11781
G1 F900 X55.655 Y79.498 E32.25181
G1 X63.098 Y80.622 E32.50255
G1 X63.098 Y75.475 E32.674
G1 X68.41 Y75.475 E32.85095
G1 X68.41 Y86.525 E33.21903
G1 X63.098 Y86.525 E33.39597
G1 X63.098 Y83.303 E33.5033
G1 X57.633 Y82.321 E33.68825
G1 X54.896 Y82.59 E33.77986
G1 X54.89 Y75.475 E34.01687
G1 X55.655 Y75.475 E34.04235
G1 F600 E33.04235
G0 F2625 X55.44 Y82.31
G1 F600 E34.04235
G1 F900 X55.12 Y81.99 E34.05742
G0 F2625 X55.119 Y81.282
G1 F900 X56.083 Y82.246 E34.10284
G0 F2625 X56.726 Y82.182
G1 F900 X55.118 Y80.574 E34.17859
G0 F2625 X55.118 Y79.867
G1 F900 X57.37 Y82.119 E34.28467
G0 F2625 X58.141 Y82.182
G1 F900 X55.688 Y79.729 E34.40023
G0 F2625 X55.273 Y79.315
G1 F900 X55.273 Y78.607 E34.41791
G1 X55.311 Y75.817 E34.48759
G1 F600 E33.48759
G0 F2625 X56.521 Y79.855
G1 F600 E34.48759
G1 F900 X59.003 Y82.337 E34.60452
G0 F2625 X59.865 Y82.492
G1 F900 X57.354 Y79.981 E34.7228
G0 F2625 X58.187 Y80.107
G1 F900 X60.727 Y82.647 E34.84246
G0 F2625 X61.589 Y82.802
G1 F900 X59.02 Y80.233 E34.96348
G0 F2625 X59.853 Y80.359
G1 F900 X62.451 Y82.957 E35.08586
G0 F2625 X63.313 Y83.112
G1 F900 X60.686 Y80.485 E35.20962
G0 F2625 X61.518 Y80.61
G1 F900 X67.207 Y86.299 E35.47761
G0 F2625 X67.914 Y86.299
G1 F900 X62.351 Y80.736 E35.73968
G0 F2625 X63.184 Y80.862
G1 F900 X68.185 Y85.863 E35.97526
G0 F2625 X68.185 Y85.156
G1 F900 X63.322 Y80.293 E36.20435
G0 F2625 X63.322 Y79.586
G1 F900 X68.185 Y84.449 E36.43343
G0 F2625 X68.185 Y83.741
G1 F900 X63.322 Y78.879 E36.6625
G0 F2625 X63.322 Y78.172
G1 F900 X68.185 Y83.034 E36.89156
G0 F2625 X68.185 Y82.327
G1 F900 X63.322 Y77.464 E37.12065
G0 F2625 X63.322 Y76.757
G1 F900 X68.185 Y81.62 E37.34973
G0 F2625 X68.185 Y80.913
G1 F900 X63.322 Y76.05 E37.57882
G0 F2625 X63.678 Y75.699
G1 F900 X68.185 Y80.206 E37.79113
G0 F2625 X68.185 Y79.499
G1 F900 X64.385 Y75.699 E37.97014
G0 F2625 X65.092 Y75.699
G1 F900 X68.185 Y78.792 E38.11585
G0 F2625 X68.185 Y78.085
G1 F900 X65.799 Y75.699 E38.22825
G0 F2625 X66.506 Y75.699
G1 F900 X68.185 Y77.377 E38.30732
G0 F2625 X68.185 Y76.67
G1 F900 X67.214 Y75.699 E38.35306
G0 F2625 X67.921 Y75.699
G1 F900 X68.185 Y75.963 E38.3655
G1 F600 E37.3655
G0 F2625 X63.322 Y83.121
G1 F600 E38.3655
G1 F900 X66.5 Y86.299 E38.51521
G0 F2625 X65.793 Y86.299
G1 F900 X63.322 Y83.828 E38.63161
G0 F2625 X63.322 Y84.536
G1 F900 X65.086 Y86.299 E38.71468
G0 F2625 X64.379 Y86.299
G1 F900 X63.322 Y85.243 E38.76445
G0 F2625 X63.322 Y85.95
G1 F900 X63.672 Y86.299 E38.78092
G1 F600 E37.78092
G0 F2625 X73.75 Y74.985
;TYPE:WALL-INNER
G1 F600 E38.78092
G1 F900 X88.25 Y74.985 E39.26392
G1 X88.25 Y87.015 E39.66464
G1 X81.959 Y87.015 E39.8742
G1 X81.958 Y83.713 E39.98419
G1 X76.963 Y82.815 E40.15324
G1 X73.756 Y83.131 E40.26059
G1 X73.75 Y74.985 E40.53193
G1 F600 E39.53193
G0 F2625 X75.495 Y75.51
G1 F600 E40.53193
G1 F900 X75.495 Y79.077 E40.65075
G1 X81.958 Y80.052 E40.86847
G1 X81.958 Y75.51 E41.01977
G1 X75.495 Y75.51 E41.23505
G1 F600 E40.23505
G0 F2625 X73.25 Y74.485
;TYPE:WALL-OUTER
G1 F600 E41.23505
G1 F900 X88.75 Y74.485 E41.75136
G1 X88.75 Y87.515 E42.1854
G1 X81.459 Y87.515 E42.42826
G1 X81.458 Y84.131 E42.54098
G1 X76.943 Y83.319 E42.69379
G1 X73.256 Y83.683 E42.81721
G1 X73.25 Y74.485 E43.12359
G0 F2625 X73.5 Y74.485
G1 F600 E42.12359
G0 F2625 X75.995 Y76.01
G1 F600 E43.12359
G1 F900 X75.995 Y78.647 E43.21143
G1 X81.458 Y79.471 E43.39547
G1 X81.458 Y76.01 E43.51075
G1 X75.995 Y76.01 E43.69273
G0 F2625 X75.995 Y76.26
G1 F600 E42.69273
G0 F2625 X75.005 Y75.475
;TYPE:SKIN
G1 F600 E43.69273
G1 F900 X75.005 Y79.498 E43.82674
G1 X82.448 Y80.622 E44.07748
G1 X82.448 Y75.475 E44.24892
G1 X87.76 Y75.475 E44.42587
G1 X87.76 Y86.525 E44.79395
G1 X82.449 Y86.525 E44.97086
G1 X82.448 Y83.303 E45.07819
G1 X76.983 Y82.321 E45.26314
G1 X74.246 Y82.59 E45.35475
G1 X74.24 Y75.475 E45.59176
G1 X75.005 Y75.475 E45.61724
G1 F600 E44.61724
G0 F2625 X74.554 Y82.332
G1 F600 E45.61724
G1 F900 X74.47 Y82.248 E45.62119
G0 F2625 X74.469 Y81.54
G1 F900 X75.197 Y82.269 E45.65551
G0 F2625 X75.842 Y82.206
G1 F900 X74.468 Y80.832 E45.72024
G0 F2625 X74.468 Y80.125
G1 F900 X76.486 Y82.143 E45.8153
G0 F2625 X75.822 Y80.771
G1 F900 X74.623 Y78.866 E45.91899
G1 X74.622 Y76.036 E46.04935
G1 F600 E45.04935
G0 F2625 X75.567 Y79.809
G1 F600 E46.04935
G1 F900 X78.039 Y82.281 E46.1658
G0 F2625 X78.901 Y82.436
G1 F900 X76.4 Y79.935 E46.28362
G0 F2625 X77.233 Y80.061
G1 F900 X79.762 Y82.59 E46.40275
G0 F2625 X80.624 Y82.745
G1 F900 X78.066 Y80.187 E46.52326
G0 F2625 X78.898 Y80.313
G1 F900 X81.486 Y82.9 E46.64515
G0 F2625 X82.348 Y83.055
G1 F900 X79.732 Y80.439 E46.76838
G0 F2625 X80.565 Y80.565
G1 F900 X86.298 Y86.298 E47.03845
G0 F2625 X87.005 Y86.298
G1 F900 X81.398 Y80.691 E47.30259
