;Generated by Cura LulzBot Edition GCodeWriter Version: 3.6.18
;FLAVOR:Marlin
;TIME:3446
;Filament used: 2.40222m
;Layer height: 0.25
;Generated with Cura_SteamEngine 3.6.20
M82 ;absolute extrusion mode
;This G-Code has been generated specifically for the LulzBot Mini 2 with SE 0.5mm Tool Head
M73 P0                  ; clear GLCD progress bar
M75 					; Start GLCD Print Timer
G26 					; clear potential 'probe fail' condition
M107 					; disable fans
M420 S0                 ; disable leveling matrix
G90 					; absolute positioning
M82 					; set extruder to absolute mode
G92 E0 					; set extruder position to 0
M140 S112 ; start bed heating up
G28         ; Home Axis
G0 X160 F9999 ;move toolhead to right
G0 Z5 F6000 ; Move to bottom of printer
G91         ; Set relative motion mode
M211 S0	; Turn off soft endstops
M400 ; Finish moves
M906 Z600 ; Lower current to 600mA
G0 Z-15 F500 ; Skip steppers against lower Z mounts
G90 ; Return to absolute mode
M400 ; Finish moves
M906 Z960 ; Restore default current
M211 S1	; Turn soft endstops back on
M400 ; Finish moves
G28 ; Rehome
G0 X0 Y187 Z156 F200 			; move away from endstops
M117 Mini 2 Wiping...			; progress indicator message on LCD
M109 R170 	; soften filament before retraction
G1 E-15 F75 				; retract filament
M109 R170 	; wait for extruder to reach wiping temp
G1 X45 Y176 F11520 			; move above wiper pad
G1 Z0 F1200 				; push nozzle into wiper
G1 X45 Y178 Z-.5 F4000		; wiping
G1 X55 Y176 Z-.5 F4000		; wiping
G1 X45 Y177 Z0 F4000		; wiping
G1 X55 Y176 F4000		; wiping
G1 X45 Y178 F4000		; wiping
G1 X55 Y176 F4000		; wiping
G1 X45 Y178 F4000		; wiping
G1 X55 Y176 F4000		; wiping
G1 X60 Y178 F4000		; wiping
G1 X80 Y176 F4000		; wiping
G1 X60 Y178 F4000		; wiping
G1 X80 Y176 F4000		; wiping
G1 X60 Y178 F4000		; wiping
G1 X90 Y176 F4000		; wiping
G1 X80 Y178 F4000		; wiping
G1 X100 Y176 F4000		; wiping
G1 X80 Y178 F4000		; wiping
G1 X100 Y176 F4000		; wiping
G1 X80 Y178 F4000		; wiping
G1 X100 Y176 F4000		; wiping
G1 X110 Y178 F4000		; wiping
G1 X100 Y176 F4000		; wiping
G1 X110 Y178 F4000		; wiping
G1 X100 Y176 F4000		; wiping
G1 X110 Y178 F4000		; wiping
G1 X115 Y176 Z-0.5 F1000	; wiping
G1 Z10					; raise extruder
G28 X0 Y0				; home X and Y
M109 R170	; wait for extruder to reach probe temp
M204 S300				; set probing acceleration
G29					; start auto-leveling sequence
M420 S1                     ; enable leveling matrix
M425 Z			     		; use measured Z backlash for compensation
M425 Z F0		     		; turn off measured Z backlash compensation. (if activated in the quality settings, this command will automatically be ignored)
M204 S2000				; restore standard acceleration
G1 X5 Y15 Z10 F5000			; move up off last probe point
G4 S1					; pause
M400					; wait for moves to finish
M117 Heating...				; progress indicator message on LCD
M109 R245 ; wait for extruder to reach initial printing temp
M190 R112 ; wait for bed to reach printing temp
G1 Z2 E0 F75				; prime tiny bit of filment into the nozzle
M117 Mini 2 Printing...		; progress indicator message on LCD
M221 S100 T0
G92 E0
G1 F600 E-1
;LAYER_COUNT:40
;LAYER:0
M107
G0 F2625 X20.63 Y55.434 Z0.425
;TYPE:SKIRT
G1 F600 E0
G1 F900 X21.17 Y55.265 E0.01885
G1 X21.667 Y55.152 E0.03583
G1 X22.137 Y55.117 E0.05152
G1 X30.784 Y55.107 E0.33956
G1 X30.983 Y55.113 E0.34619
G1 X34.981 Y55.353 E0.47961
G1 X40.479 Y55.426 E0.66276
G1 X47.026 Y55.112 E0.8811
G1 X47.183 Y55.108 E0.88633
G1 X55.798 Y55.11 E1.1733
G1 X55.889 Y55.111 E1.17633
G1 X58.671 Y55.19 E1.26903
G1 X72.123 Y55.099 E1.71714
G1 X72.287 Y55.102 E1.7226
G1 X79.74 Y55.428 E1.9711
G1 X85.242 Y55.345 E2.15439
G1 X89.171 Y55.108 E2.28551
G1 X89.387 Y55.102 E2.29271
G1 X103.427 Y55.19 E2.76039
G1 X106.704 Y55.106 E2.86959
G1 X106.788 Y55.105 E2.87238
G1 X114.789 Y55.107 E3.1389
G1 X114.983 Y55.113 E3.14537
G1 X118.981 Y55.353 E3.27878
G1 X124.479 Y55.426 E3.46194
G1 X131.026 Y55.112 E3.68027
G1 X131.182 Y55.108 E3.68547
G1 X139.759 Y55.109 E3.97117
G1 X140.267 Y55.149 E3.98815
G1 X140.816 Y55.286 E4.00699
G1 X141.604 Y55.557 E4.03475
G1 X142.071 Y55.76 E4.05171
G1 X142.501 Y56.033 E4.06868
G1 X142.946 Y56.437 E4.0887
G1 X143.307 Y56.832 E4.10653
G1 X143.62 Y57.234 E4.1235
G1 X143.867 Y57.68 E4.14048
G1 X144.009 Y58.053 E4.15377
G1 X144.199 Y58.659 E4.17493
G1 X144.313 Y59.155 E4.19188
G1 X144.348 Y59.64 E4.20808
G1 X144.344 Y61.162 E4.25878
G1 X144.269 Y61.849 E4.2818
G1 X142.857 Y68.287 E4.50135
G1 X142.007 Y73.696 E4.68373
G1 X141.466 Y79.134 E4.86577
G1 X141.231 Y84.612 E5.04841
G1 X141.23 Y96.958 E5.45966
G1 X141.19 Y97.466 E5.47664
G1 X141.071 Y97.962 E5.49363
G1 X140.876 Y98.432 E5.51058
G1 X140.709 Y98.723 E5.52175
G1 X138.893 Y101.53 E5.63312
G1 X138.583 Y101.935 E5.65011
G1 X138.214 Y102.287 E5.66709
G1 X137.795 Y102.576 E5.68405
G1 X137.476 Y102.738 E5.69597
G1 X128.692 Y106.615 E6.0158
G1 X128.211 Y106.784 E6.03278
G1 X127.71 Y106.875 E6.04974
G1 X127.316 Y106.891 E6.06288
G1 X122.583 Y106.799 E6.22056
G1 X118.696 Y106.891 E6.35008
G1 X118.197 Y106.865 E6.36672
G1 X111.256 Y105.957 E6.5999
G1 X105.835 Y105.587 E6.78089
G1 X100.354 Y105.524 E6.96348
G1 X94.875 Y105.771 E7.14617
G1 X89.431 Y106.327 E7.32846
G1 X85.858 Y106.857 E7.44878
G1 X85.318 Y106.891 E7.4668
G1 X80.584 Y106.799 E7.62452
G1 X76.696 Y106.891 E7.75407
G1 X76.197 Y106.865 E7.77071
G1 X69.256 Y105.957 E8.00389
G1 X63.835 Y105.587 E8.18489
G1 X58.354 Y105.524 E8.36747
G1 X52.875 Y105.771 E8.55017
G1 X47.435 Y106.326 E8.73231
G1 X43.862 Y106.857 E8.85264
G1 X43.321 Y106.891 E8.8707
G1 X38.584 Y106.799 E9.02852
G1 X34.696 Y106.891 E9.15806
G1 X34.188 Y106.863 E9.17501
G1 X33.689 Y106.756 E9.19201
G1 X33.309 Y106.617 E9.20549
G1 X24.557 Y102.764 E9.52402
G1 X24.109 Y102.522 E9.54098
G1 X23.703 Y102.214 E9.55796
G1 X23.351 Y101.846 E9.57492
G1 X23.151 Y101.574 E9.58617
G1 X21.314 Y98.779 E9.69758
G1 X21.068 Y98.333 E9.71455
G1 X20.896 Y97.853 E9.73153
G1 X20.8 Y97.353 E9.74849
G1 X20.78 Y96.995 E9.76043
G1 X20.775 Y84.679 E10.17068
G1 X20.542 Y79.188 E10.35375
G1 X20.003 Y73.749 E10.53582
G1 X19.154 Y68.336 E10.71833
G1 X17.731 Y61.854 E10.93939
G1 X17.661 Y61.349 E10.95637
G1 X17.656 Y61.08 E10.96533
G1 X17.699 Y59.268 E11.02571
G1 X17.751 Y58.761 E11.04269
G1 X17.951 Y58.087 E11.06611
G1 X18.058 Y57.832 E11.07532
G1 X18.292 Y57.38 E11.09227
G1 X18.74 Y56.809 E11.11645
G1 X19.286 Y56.255 E11.14236
G1 X19.671 Y55.921 E11.15934
G1 X20.104 Y55.651 E11.17633
G1 X20.63 Y55.434 E11.19529
G1 F600 E10.19529
;MESH:
G0 F2625 X22.093 Y59.127
;TYPE:WALL-INNER
G1 F600 E11.19529
G1 F900 X22.213 Y59.103 E11.19936
G1 X30.292 Y59.098 E11.46848
G1 X34.407 Y69.949 E11.85505
G1 X34.407 Y86.765 E12.41519
G1 X34.37 Y86.908 E12.42011
G1 X34.317 Y87.17 E12.42902
G1 X34.28 Y87.434 E12.4379
G1 X34.258 Y87.697 E12.44669
G1 X34.25 Y87.962 E12.45552
G1 X34.257 Y88.227 E12.46435
G1 X34.278 Y88.493 E12.47324
G1 X34.316 Y88.762 E12.48229
G1 X34.388 Y89.112 E12.49419
G1 X34.475 Y89.414 E12.50466
G1 X34.563 Y89.667 E12.51358
G1 X34.666 Y89.913 E12.52247
G1 X34.781 Y90.153 E12.53133
G1 X34.91 Y90.385 E12.54017
G1 X35.05 Y90.61 E12.549
G1 X35.206 Y90.83 E12.55798
G1 X35.372 Y91.036 E12.5668
G1 X35.548 Y91.234 E12.57562
G1 X35.738 Y91.424 E12.58457
G1 X35.937 Y91.601 E12.59344
G1 X36.145 Y91.767 E12.60231
G1 X36.362 Y91.921 E12.61117
G1 X36.589 Y92.063 E12.62009
G1 X36.82 Y92.19 E12.62887
G1 X37.058 Y92.306 E12.63769
G1 X37.307 Y92.409 E12.64667
G1 X37.559 Y92.497 E12.65556
G1 X37.815 Y92.571 E12.66443
G1 X38.073 Y92.629 E12.67324
G1 X38.336 Y92.674 E12.68213
G1 X38.601 Y92.703 E12.69101
G1 X38.866 Y92.719 E12.69985
G1 X39.134 Y92.719 E12.70878
G1 X39.399 Y92.703 E12.71762
G1 X39.664 Y92.674 E12.7265
G1 X39.927 Y92.629 E12.73539
G1 X40.185 Y92.571 E12.7442
G1 X40.441 Y92.497 E12.75308
G1 X40.693 Y92.409 E12.76197
G1 X40.942 Y92.306 E12.77094
G1 X41.18 Y92.19 E12.77976
G1 X41.411 Y92.063 E12.78855
G1 X41.638 Y91.921 E12.79746
G1 X41.855 Y91.767 E12.80633
G1 X42.063 Y91.601 E12.81519
G1 X42.262 Y91.424 E12.82406
G1 X42.452 Y91.234 E12.83301
G1 X42.628 Y91.036 E12.84184
G1 X42.794 Y90.83 E12.85065
G1 X42.95 Y90.61 E12.85964
G1 X43.09 Y90.385 E12.86846
G1 X43.219 Y90.153 E12.8773
G1 X43.334 Y89.913 E12.88617
G1 X43.437 Y89.667 E12.89505
G1 X43.525 Y89.414 E12.90398
G1 X43.612 Y89.112 E12.91444
G1 X43.685 Y88.76 E12.92642
G1 X43.721 Y88.496 E12.93529
G1 X43.743 Y88.234 E12.94405
G1 X43.75 Y87.97 E12.95285
G1 X43.743 Y87.703 E12.96175
G1 X43.72 Y87.435 E12.97071
G1 X43.682 Y87.173 E12.97953
G1 X43.631 Y86.911 E12.98842
G1 X43.593 Y86.765 E12.99344
G1 X43.593 Y69.949 E13.55359
G1 X47.708 Y59.098 E13.94016
G1 X55.739 Y59.1 E14.20767
G1 X55.89 Y59.122 E14.21276
G1 X56.001 Y59.162 E14.21669
G1 X56.117 Y59.233 E14.22122
G1 X56.205 Y59.316 E14.22525
G1 X56.275 Y59.408 E14.2291
G1 X56.335 Y59.537 E14.23384
G1 X56.363 Y59.649 E14.23768
G1 X56.37 Y59.72 E14.24006
G1 X56.368 Y61.012 E14.2831
G1 X56.317 Y61.207 E14.28981
G1 X56.259 Y61.312 E14.2938
G1 X56.147 Y61.439 E14.29945
G1 X56.012 Y61.529 E14.30485
G1 X55.919 Y61.567 E14.3082
G1 X55.786 Y61.594 E14.31272
G1 X51.029 Y61.598 E14.47117
G1 X50.667 Y62.477 E14.50284
G1 X50.504 Y62.906 E14.51813
G1 X50.354 Y63.338 E14.53336
G1 X50.214 Y63.777 E14.54871
G1 X50.09 Y64.219 E14.564
G1 X49.977 Y64.663 E14.57926
G1 X49.877 Y65.111 E14.59455
G1 X49.789 Y65.561 E14.60983
G1 X49.715 Y66.014 E14.62512
G1 X49.654 Y66.469 E14.64041
G1 X49.605 Y66.925 E14.65568
G1 X49.57 Y67.384 E14.67102
G1 X49.548 Y67.841 E14.68626
G1 X49.539 Y68.3 E14.70155
G1 X49.543 Y68.759 E14.71684
G1 X49.561 Y69.218 E14.73214
G1 X49.592 Y69.675 E14.7474
G1 X49.634 Y70.132 E14.76269
G1 X49.692 Y70.589 E14.77803
G1 X49.761 Y71.041 E14.79326
G1 X49.845 Y71.493 E14.80858
G1 X49.939 Y71.941 E14.82382
G1 X50.048 Y72.388 E14.83915
G1 X50.17 Y72.83 E14.85442
G1 X50.303 Y73.269 E14.8697
G1 X50.449 Y73.704 E14.88499
G1 X50.608 Y74.135 E14.90029
G1 X50.778 Y74.56 E14.91554
G1 X50.961 Y74.982 E14.93086
G1 X51.157 Y75.398 E14.94618
G1 X51.364 Y75.807 E14.96145
G1 X51.583 Y76.21 E14.97673
G1 X51.812 Y76.608 E14.99202
G1 X52.053 Y76.998 E15.00729
G1 X52.305 Y77.381 E15.02256
G1 X52.568 Y77.758 E15.03788
G1 X52.843 Y78.126 E15.05318
G1 X53.24 Y78.622 E15.07434
G1 X53.24 Y84.436 E15.26801
G1 X53.202 Y84.524 E15.2712
G1 X53.079 Y84.886 E15.28394
G1 X53.009 Y85.155 E15.29319
G1 X52.939 Y85.524 E15.30571
G1 X52.907 Y85.799 E15.31493
G1 X52.891 Y86.177 E15.32753
G1 X52.898 Y86.456 E15.33683
G1 X52.935 Y86.834 E15.34948
G1 X52.984 Y87.108 E15.35875
G1 X53.075 Y87.475 E15.37135
G1 X53.161 Y87.741 E15.38066
G1 X53.24 Y87.931 E15.38751
G1 X53.24 Y96.759 E15.68158
G1 X51.655 Y99.191 E15.77827
G1 X43.351 Y102.847 E16.0805
G1 X42.82 Y102.681 E16.09904
G1 X42.406 Y102.568 E16.11333
G1 X41.987 Y102.467 E16.12769
G1 X41.565 Y102.38 E16.14204
G1 X41.142 Y102.307 E16.15634
G1 X40.717 Y102.246 E16.17064
G1 X40.288 Y102.199 E16.18502
G1 X39.86 Y102.165 E16.19932
G1 X39.43 Y102.145 E16.21366
G1 X39 Y102.139 E16.22798
G1 X38.57 Y102.145 E16.24231
G1 X38.14 Y102.165 E16.25665
G1 X37.712 Y102.199 E16.27095
G1 X37.283 Y102.246 E16.28532
G1 X36.858 Y102.307 E16.29962
G1 X36.435 Y102.38 E16.31392
G1 X36.013 Y102.467 E16.32828
G1 X35.594 Y102.568 E16.34263
G1 X35.18 Y102.681 E16.35693
G1 X34.649 Y102.847 E16.37546
G1 X26.345 Y99.191 E16.67769
G1 X24.76 Y96.759 E16.77439
G1 X24.76 Y87.931 E17.06845
G1 X24.837 Y87.742 E17.07525
G1 X24.925 Y87.476 E17.08458
G1 X25.015 Y87.11 E17.09714
G1 X25.065 Y86.834 E17.10648
G1 X25.101 Y86.459 E17.11903
G1 X25.11 Y86.183 E17.12823
G1 X25.094 Y85.801 E17.14096
G1 X25.061 Y85.527 E17.15016
G1 X24.993 Y85.156 E17.16272
G1 X24.92 Y84.885 E17.17207
G1 X24.799 Y84.527 E17.18466
G1 X24.76 Y84.436 E17.18796
G1 X24.76 Y78.622 E17.38162
G1 X25.157 Y78.126 E17.40278
G1 X25.432 Y77.758 E17.41809
G1 X25.695 Y77.381 E17.4334
G1 X25.947 Y76.998 E17.44867
G1 X26.188 Y76.608 E17.46394
G1 X26.417 Y76.21 E17.47924
G1 X26.636 Y75.807 E17.49452
G1 X26.843 Y75.398 E17.50978
G1 X27.039 Y74.982 E17.5251
G1 X27.222 Y74.56 E17.54042
G1 X27.392 Y74.135 E17.55567
G1 X27.551 Y73.704 E17.57097
G1 X27.697 Y73.269 E17.58626
G1 X27.83 Y72.83 E17.60154
G1 X27.952 Y72.388 E17.61681
G1 X28.061 Y71.941 E17.63214
G1 X28.155 Y71.493 E17.64739
G1 X28.239 Y71.041 E17.6627
G1 X28.308 Y70.589 E17.67793
G1 X28.366 Y70.132 E17.69328
G1 X28.408 Y69.675 E17.70856
G1 X28.439 Y69.218 E17.72382
G1 X28.457 Y68.759 E17.73912
G1 X28.461 Y68.3 E17.75441
G1 X28.452 Y67.841 E17.7697
G1 X28.43 Y67.384 E17.78495
G1 X28.395 Y66.925 E17.80028
G1 X28.346 Y66.469 E17.81556
G1 X28.285 Y66.014 E17.83085
G1 X28.211 Y65.561 E17.84614
G1 X28.123 Y65.111 E17.86141
G1 X28.023 Y64.66 E17.8768
G1 X27.787 Y63.779 E17.90718
G1 X27.646 Y63.338 E17.9226
G1 X27.496 Y62.906 E17.93784
G1 X27.333 Y62.477 E17.95312
G1 X26.971 Y61.598 E17.98479
G1 X22.263 Y61.598 E18.14161
G1 X22.111 Y61.576 E18.14673
G1 X21.995 Y61.533 E18.15085
G1 X21.887 Y61.467 E18.15507
G1 X21.795 Y61.381 E18.15926
G1 X21.727 Y61.29 E18.16304
G1 X21.669 Y61.169 E18.16751
G1 X21.638 Y61.054 E18.17148
G1 X21.631 Y60.979 E18.17399
G1 X21.633 Y59.673 E18.21749
G1 X21.656 Y59.563 E18.22124
G1 X21.7 Y59.452 E18.22522
G1 X21.776 Y59.336 E18.22983
G1 X21.868 Y59.245 E18.23415
G1 X21.967 Y59.18 E18.23809
G1 X22.093 Y59.127 E18.24264
G0 F2625 X21.835 Y58.689
;TYPE:WALL-OUTER
G1 F900 X21.948 Y58.648 E18.24665
G1 X22.054 Y58.621 E18.25029
G1 X22.156 Y58.606 E18.25373
G1 X22.289 Y58.599 E18.25816
G1 X30.637 Y58.598 E18.53624
G1 X34.907 Y69.856 E18.93731
G1 X34.907 Y86.829 E19.50269
G1 X34.857 Y87.021 E19.5093
G1 X34.81 Y87.254 E19.51722
G1 X34.777 Y87.49 E19.52515
G1 X34.757 Y87.726 E19.53304
G1 X34.75 Y87.963 E19.54094
G1 X34.756 Y88.201 E19.54887
G1 X34.775 Y88.438 E19.55679
G1 X34.809 Y88.676 E19.5648
G1 X34.874 Y88.992 E19.57555
G1 X34.952 Y89.263 E19.58494
G1 X35.03 Y89.488 E19.59287
G1 X35.122 Y89.708 E19.60082
G1 X35.225 Y89.923 E19.60876
G1 X35.341 Y90.131 E19.61669
G1 X35.467 Y90.333 E19.62462
G1 X35.605 Y90.528 E19.63258
G1 X35.754 Y90.713 E19.64049
G1 X35.912 Y90.891 E19.64842
G1 X36.081 Y91.06 E19.65638
G1 X36.259 Y91.218 E19.66431
G1 X36.446 Y91.367 E19.67227
G1 X36.64 Y91.505 E19.6802
G1 X36.842 Y91.632 E19.68815
G1 X37.05 Y91.746 E19.69605
G1 X37.264 Y91.85 E19.70398
G1 X37.485 Y91.942 E19.71195
G1 X37.71 Y92.02 E19.71988
G1 X37.939 Y92.086 E19.72782
G1 X38.171 Y92.138 E19.73574
G1 X38.406 Y92.179 E19.74369
G1 X38.643 Y92.205 E19.75163
G1 X38.881 Y92.219 E19.75957
G1 X39.119 Y92.219 E19.7675
G1 X39.357 Y92.205 E19.77544
G1 X39.594 Y92.179 E19.78338
G1 X39.829 Y92.138 E19.79133
G1 X40.061 Y92.086 E19.79925
G1 X40.29 Y92.02 E19.80719
G1 X40.515 Y91.942 E19.81512
G1 X40.736 Y91.85 E19.82309
G1 X40.95 Y91.746 E19.83102
G1 X41.158 Y91.632 E19.83892
G1 X41.36 Y91.505 E19.84687
G1 X41.554 Y91.367 E19.8548
G1 X41.741 Y91.218 E19.86276
G1 X41.919 Y91.06 E19.87069
G1 X42.088 Y90.891 E19.87865
G1 X42.246 Y90.713 E19.88658
G1 X42.395 Y90.528 E19.89449
G1 X42.533 Y90.333 E19.90245
G1 X42.659 Y90.131 E19.91038
G1 X42.775 Y89.923 E19.91831
G1 X42.878 Y89.708 E19.92626
G1 X42.97 Y89.488 E19.9342
G1 X43.048 Y89.263 E19.94213
G1 X43.126 Y88.992 E19.95153
G1 X43.192 Y88.675 E19.96231
G1 X43.224 Y88.441 E19.97018
G1 X43.244 Y88.206 E19.97803
G1 X43.25 Y87.97 E19.9859
G1 X43.244 Y87.731 E19.99386
G1 X43.223 Y87.493 E20.00182
G1 X43.189 Y87.257 E20.00976
G1 X43.143 Y87.022 E20.01774
G1 X43.093 Y86.829 E20.02438
G1 X43.093 Y69.856 E20.58976
G1 X47.363 Y58.598 E20.99083
G1 X55.775 Y58.6 E21.27104
G1 X55.998 Y58.632 E21.27854
G1 X56.106 Y58.665 E21.28231
G1 X56.217 Y58.711 E21.28631
G1 X56.303 Y58.757 E21.28956
G1 X56.41 Y58.828 E21.29383
G1 X56.492 Y58.895 E21.29736
G1 X56.574 Y58.977 E21.30122
G1 X56.647 Y59.067 E21.30509
G1 X56.708 Y59.156 E21.30868
G1 X56.76 Y59.256 E21.31243
G1 X56.805 Y59.364 E21.31633
G1 X56.838 Y59.47 E21.32003
G1 X56.859 Y59.577 E21.32366
G1 X56.87 Y59.694 E21.32758
G1 X56.872 Y60.935 E21.36891
G1 X56.865 Y61.069 E21.37338
G1 X56.85 Y61.171 E21.37682
G1 X56.786 Y61.384 E21.38423
G1 X56.736 Y61.489 E21.3881
G1 X56.677 Y61.588 E21.39194
G1 X56.609 Y61.68 E21.39575
G1 X56.535 Y61.761 E21.3994
G1 X56.453 Y61.836 E21.40311
