;Generated by Cura LulzBot Edition GCodeWriter Version: 3.6.18
;FLAVOR:Marlin
;TIME:3460
;Filament used: 2.17107m
;Layer height: 0.25
;Generated with Cura_SteamEngine 3.6.20
M82 ;absolute extrusion mode
;This G-Code has been generated specifically for the LulzBot Mini 2 with SE 0.5mm Tool Head
M73 P0                  ; clear GLCD progress bar
M75 					; Start GLCD Print Timer
G26 					; clear potential 'probe fail' condition
M107 					; disable fans
M420 S0                 ; disable leveling matrix
G90 					; absolute positioning
M82 					; set extruder to absolute mode
G92 E0 					; set extruder position to 0
M140 S112 ; start bed heating up
G28         ; Home Axis
G0 X160 F9999 ;move toolhead to right
G0 Z5 F6000 ; Move to bottom of printer
G91         ; Set relative motion mode
M211 S0	; Turn off soft endstops
M400 ; Finish moves
M906 Z600 ; Lower current to 600mA
G0 Z-15 F500 ; Skip steppers against lower Z mounts
G90 ; Return to absolute mode
M400 ; Finish moves
M906 Z960 ; Restore default current
M211 S1	; Turn soft endstops back on
M400 ; Finish moves
G28 ; Rehome
G0 X0 Y187 Z156 F200 			; move away from endstops
M117 Mini 2 Wiping...			; progress indicator message on LCD
M109 R170 	; soften filament before retraction
G1 E-15 F75 				; retract filament
M109 R170 	; wait for extruder to reach wiping temp
G1 X45 Y176 F11520 			; move above wiper pad
G1 Z0 F1200 				; push nozzle into wiper
G1 X45 Y178 Z-.5 F4000		; wiping
G1 X55 Y176 Z-.5 F4000		; wiping
G1 X45 Y177 Z0 F4000		; wiping
G1 X55 Y176 F4000		; wiping
G1 X45 Y178 F4000		; wiping
G1 X55 Y176 F4000		; wiping
G1 X45 Y178 F4000		; wiping
G1 X55 Y176 F4000		; wiping
G1 X60 Y178 F4000		; wiping
G1 X80 Y176 F4000		; wiping
G1 X60 Y178 F4000		; wiping
G1 X80 Y176 F4000		; wiping
G1 X60 Y178 F4000		; wiping
G1 X90 Y176 F4000		; wiping
G1 X80 Y178 F4000		; wiping
G1 X100 Y176 F4000		; wiping
G1 X80 Y178 F4000		; wiping
G1 X100 Y176 F4000		; wiping
G1 X80 Y178 F4000		; wiping
G1 X100 Y176 F4000		; wiping
G1 X110 Y178 F4000		; wiping
G1 X100 Y176 F4000		; wiping
G1 X110 Y178 F4000		; wiping
G1 X100 Y176 F4000		; wiping
G1 X110 Y178 F4000		; wiping
G1 X115 Y176 Z-0.5 F1000	; wiping
G1 Z10					; raise extruder
G28 X0 Y0				; home X and Y
M109 R170	; wait for extruder to reach probe temp
M204 S300				; set probing acceleration
G29					; start auto-leveling sequence
M420 S1                     ; enable leveling matrix
M425 Z			     		; use measured Z backlash for compensation
M425 Z F0		     		; turn off measured Z backlash compensation. (if activated in the quality settings, this command will automatically be ignored)
M204 S2000				; restore standard acceleration
G1 X5 Y15 Z10 F5000			; move up off last probe point
G4 S1					; pause
M400					; wait for moves to finish
M117 Heating...				; progress indicator message on LCD
M109 R245 ; wait for extruder to reach initial printing temp
M190 R112 ; wait for bed to reach printing temp
G1 Z2 E0 F75				; prime tiny bit of filment into the nozzle
M117 Mini 2 Printing...		; progress indicator message on LCD
M221 S100 T0
G92 E0
G1 F600 E-1
;LAYER_COUNT:40
;LAYER:0
M107
G0 F2625 X14.691 Y55.246 Z0.425
;TYPE:SKIRT
G1 F600 E0
G1 F900 X15.189 Y55.141 E0.01695
G1 X15.61 Y55.113 E0.03101
G1 X24.187 Y55.109 E0.31671
G1 X24.474 Y55.121 E0.32628
G1 X28.258 Y55.454 E0.45281
G1 X33.715 Y55.679 E0.63474
G1 X39.199 Y55.595 E0.81744
G1 X45.581 Y55.118 E1.03062
G1 X45.838 Y55.109 E1.03918
G1 X59.264 Y55.169 E1.48641
G1 X70.154 Y55.108 E1.84917
G1 X70.412 Y55.117 E1.85777
G1 X76.992 Y55.605 E2.07755
G1 X82.465 Y55.676 E2.25987
G1 X87.964 Y55.436 E2.44322
G1 X92.144 Y55.108 E2.58289
G1 X92.417 Y55.098 E2.59199
G1 X105.267 Y55.169 E3.02003
G1 X116.154 Y55.108 E3.38269
G1 X116.412 Y55.117 E3.39129
G1 X122.992 Y55.605 E3.61107
G1 X128.465 Y55.676 E3.79339
G1 X133.964 Y55.436 E3.97674
G1 X138.144 Y55.108 E4.11641
G1 X138.407 Y55.098 E4.12517
G1 X146.432 Y55.117 E4.39249
G1 X146.94 Y55.158 E4.40947
G1 X147.5 Y55.3 E4.42871
G1 X148.093 Y55.508 E4.44964
G1 X148.559 Y55.714 E4.46662
G1 X148.987 Y55.99 E4.48358
G1 X149.376 Y56.339 E4.50099
G1 X149.848 Y56.837 E4.52384
G1 X150.168 Y57.233 E4.5408
G1 X150.507 Y57.868 E4.56478
G1 X150.636 Y58.191 E4.57637
G1 X150.787 Y58.677 E4.59332
G1 X150.866 Y59.296 E4.61411
G1 X150.914 Y60.861 E4.66626
G1 X150.89 Y61.37 E4.68323
G1 X150.774 Y61.911 E4.70167
G1 X148.854 Y68.191 E4.92041
G1 X147.509 Y73.55 E5.10446
G1 X146.973 Y76.152 E5.19295
G1 X146.091 Y81.592 E5.37653
G1 X145.522 Y87.025 E5.55849
G1 X145.259 Y92.511 E5.74144
G1 X145.23 Y96.979 E5.89028
G1 X145.187 Y97.486 E5.90723
G1 X145.065 Y97.981 E5.92421
G1 X144.867 Y98.451 E5.9412
G1 X144.709 Y98.723 E5.95167
G1 X142.893 Y101.53 E6.06304
G1 X142.583 Y101.935 E6.08003
G1 X142.214 Y102.287 E6.09701
G1 X141.795 Y102.576 E6.11397
G1 X141.476 Y102.738 E6.12589
G1 X132.692 Y106.615 E6.44572
G1 X132.211 Y106.784 E6.4627
G1 X131.71 Y106.875 E6.47966
G1 X131.273 Y106.89 E6.49423
G1 X129.407 Y106.829 E6.55642
G1 X122.654 Y106.892 E6.78137
G1 X122.131 Y106.855 E6.79884
G1 X115.513 Y105.841 E7.02186
G1 X110.063 Y105.344 E7.20415
G1 X104.6 Y105.155 E7.38624
G1 X99.137 Y105.276 E7.56825
G1 X93.644 Y105.709 E7.7518
G1 X90.989 Y106.032 E7.84089
G1 X85.897 Y106.851 E8.01268
G1 X85.277 Y106.89 E8.03338
G1 X83.298 Y106.827 E8.09933
G1 X76.633 Y106.89 E8.32135
G1 X76.04 Y106.841 E8.34118
G1 X73.586 Y106.41 E8.42417
G1 X68.151 Y105.682 E8.60683
G1 X62.668 Y105.262 E8.79
G1 X57.222 Y105.154 E8.97145
G1 X51.743 Y105.355 E9.15408
G1 X46.302 Y105.863 E9.33611
G1 X39.888 Y106.853 E9.55229
G1 X39.33 Y106.89 E9.57092
G1 X34.621 Y106.799 E9.72781
G1 X30.687 Y106.89 E9.85888
G1 X30.178 Y106.862 E9.87587
G1 X29.68 Y106.755 E9.89283
G1 X29.302 Y106.615 E9.90626
G1 X20.557 Y102.764 E10.22455
G1 X20.108 Y102.523 E10.24153
G1 X19.703 Y102.215 E10.25848
G1 X19.351 Y101.847 E10.27544
G1 X19.151 Y101.575 E10.28669
G1 X17.314 Y98.779 E10.39812
G1 X17.068 Y98.332 E10.41512
G1 X16.896 Y97.853 E10.43207
G1 X16.8 Y97.352 E10.44907
G1 X16.781 Y97.065 E10.45865
G1 X16.603 Y88.918 E10.73009
G1 X16.141 Y83.477 E10.91198
G1 X15.371 Y78.077 E11.09368
G1 X14.292 Y72.694 E11.27656
G1 X13.646 Y70.057 E11.36699
G1 X12.105 Y64.753 E11.55098
G1 X11.279 Y62.246 E11.6389
G1 X11.158 Y61.751 E11.65588
G1 X11.116 Y61.181 E11.67491
G1 X11.144 Y59.295 E11.73774
G1 X11.192 Y58.787 E11.75474
G1 X11.318 Y58.294 E11.77169
G1 X11.527 Y57.813 E11.78916
G1 X11.781 Y57.337 E11.80713
G1 X12.055 Y56.908 E11.82409
G1 X12.393 Y56.526 E11.84108
G1 X12.584 Y56.356 E11.8496
G1 X13 Y56.014 E11.86754
G1 X13.418 Y55.723 E11.8845
G1 X13.876 Y55.5 E11.90147
G1 X14.143 Y55.408 E11.91088
G1 X14.691 Y55.246 E11.92991
G1 F600 E10.92991
;MESH:
G0 F2625 X15.599 Y59.111
;TYPE:WALL-INNER
G1 F600 E11.92991
G1 F900 X15.743 Y59.098 E11.93473
G1 X23.605 Y59.098 E12.19661
G1 X25.956 Y67.408 E12.48429
G1 X25.957 Y88.141 E13.17491
G1 X25.97 Y88.484 E13.18634
G1 X25.996 Y88.826 E13.19777
G1 X26.035 Y89.166 E13.20917
G1 X26.087 Y89.502 E13.2205
G1 X26.151 Y89.839 E13.23192
G1 X26.228 Y90.173 E13.24334
G1 X26.318 Y90.503 E13.25473
G1 X26.419 Y90.83 E13.26613
G1 X26.534 Y91.152 E13.27752
G1 X26.66 Y91.471 E13.28895
G1 X26.799 Y91.785 E13.30039
G1 X26.949 Y92.093 E13.3118
G1 X27.111 Y92.393 E13.32315
G1 X27.285 Y92.689 E13.33459
G1 X27.468 Y92.976 E13.34593
G1 X27.662 Y93.258 E13.35733
G1 X27.869 Y93.533 E13.3688
G1 X28.084 Y93.798 E13.38016
G1 X28.309 Y94.056 E13.39157
G1 X28.545 Y94.304 E13.40297
G1 X28.788 Y94.544 E13.41435
G1 X29.041 Y94.774 E13.42574
G1 X29.303 Y94.995 E13.43715
G1 X29.574 Y95.206 E13.4486
G1 X29.851 Y95.406 E13.45998
G1 X30.137 Y95.596 E13.47141
G1 X30.43 Y95.775 E13.48285
G1 X30.728 Y95.941 E13.49421
G1 X31.031 Y96.097 E13.50557
G1 X31.343 Y96.243 E13.51704
G1 X31.658 Y96.374 E13.5284
G1 X31.977 Y96.495 E13.53977
G1 X32.304 Y96.604 E13.55125
G1 X32.632 Y96.699 E13.56263
G1 X32.964 Y96.782 E13.57402
G1 X33.299 Y96.853 E13.58543
G1 X33.636 Y96.911 E13.59682
G1 X33.976 Y96.956 E13.60825
G1 X34.316 Y96.989 E13.61962
G1 X34.658 Y97.008 E13.63103
G1 X35 Y97.014 E13.64243
G1 X35.342 Y97.008 E13.65382
G1 X35.684 Y96.989 E13.66523
G1 X36.024 Y96.956 E13.67661
G1 X36.364 Y96.911 E13.68804
G1 X36.701 Y96.853 E13.69943
G1 X37.036 Y96.782 E13.71083
G1 X37.368 Y96.699 E13.72223
G1 X37.696 Y96.604 E13.73361
G1 X38.026 Y96.494 E13.74519
G1 X38.653 Y96.244 E13.76768
G1 X38.969 Y96.097 E13.77929
G1 X39.272 Y95.941 E13.79064
G1 X39.57 Y95.775 E13.802
G1 X39.863 Y95.596 E13.81344
G1 X40.149 Y95.406 E13.82488
G1 X40.426 Y95.206 E13.83626
G1 X40.697 Y94.995 E13.8477
G1 X40.959 Y94.774 E13.85912
G1 X41.212 Y94.544 E13.87051
G1 X41.455 Y94.304 E13.88188
G1 X41.691 Y94.056 E13.89329
G1 X41.916 Y93.798 E13.90469
G1 X42.131 Y93.533 E13.91606
G1 X42.338 Y93.258 E13.92752
G1 X42.532 Y92.976 E13.93892
G1 X42.715 Y92.689 E13.95026
G1 X42.889 Y92.393 E13.9617
G1 X43.051 Y92.093 E13.97306
G1 X43.201 Y91.785 E13.98447
G1 X43.34 Y91.471 E13.99591
G1 X43.466 Y91.152 E14.00733
G1 X43.581 Y90.83 E14.01872
G1 X43.682 Y90.503 E14.03012
G1 X43.772 Y90.173 E14.04151
G1 X43.849 Y89.839 E14.05293
G1 X43.913 Y89.502 E14.06436
G1 X43.965 Y89.166 E14.07568
G1 X44.004 Y88.826 E14.08708
G1 X44.03 Y88.484 E14.09851
G1 X44.043 Y88.141 E14.10994
G1 X44.044 Y67.408 E14.80057
G1 X46.395 Y59.098 E15.08824
G1 X54.34 Y59.102 E15.35289
G1 X54.536 Y59.153 E15.35964
G1 X54.636 Y59.208 E15.36344
G1 X54.777 Y59.334 E15.36974
G1 X54.854 Y59.452 E15.37443
G1 X54.895 Y59.551 E15.378
G1 X54.922 Y59.676 E15.38226
G1 X54.927 Y59.76 E15.38506
G1 X54.925 Y60.977 E15.4256
G1 X54.906 Y61.109 E15.43004
G1 X54.893 Y61.152 E15.43154
G1 X54.833 Y61.282 E15.43631
G1 X54.753 Y61.388 E15.44073
G1 X54.669 Y61.466 E15.44455
G1 X54.556 Y61.535 E15.44896
G1 X54.434 Y61.579 E15.45328
G1 X54.307 Y61.597 E15.45755
G1 X49.609 Y61.598 E15.61405
G1 X49.404 Y63.193 E15.66761
G1 X49.294 Y64.14 E15.69937
G1 X49.198 Y65.09 E15.73118
G1 X49.116 Y66.04 E15.76294
G1 X49.046 Y66.991 E15.7947
G1 X48.989 Y67.944 E15.8265
G1 X48.946 Y68.897 E15.85828
G1 X48.916 Y69.851 E15.89008
G1 X48.899 Y70.804 E15.92183
G1 X48.896 Y71.758 E15.9536
G1 X48.906 Y72.712 E15.98538
G1 X48.929 Y73.666 E16.01717
G1 X48.965 Y74.618 E16.0489
G1 X49.015 Y75.572 E16.08073
G1 X49.078 Y76.524 E16.11251
G1 X49.155 Y77.474 E16.14426
G1 X49.24 Y78.386 E16.17477
G1 X49.24 Y84.437 E16.37633
G1 X49.113 Y84.78 E16.38851
G1 X49.045 Y85.004 E16.39631
G1 X48.973 Y85.325 E16.40727
G1 X48.937 Y85.54 E16.41453
G1 X48.902 Y85.858 E16.42519
G1 X48.891 Y86.18 E16.43592
G1 X48.896 Y86.409 E16.44355
G1 X48.921 Y86.725 E16.45411
G1 X48.956 Y86.957 E16.46192
G1 X49.021 Y87.275 E16.47273
G1 X49.079 Y87.488 E16.48009
G1 X49.18 Y87.792 E16.49076
G1 X49.24 Y87.934 E16.49589
G1 X49.24 Y96.759 E16.78986
G1 X47.655 Y99.191 E16.88655
G1 X39.346 Y102.85 E17.18898
G1 X38.948 Y102.717 E17.20296
G1 X38.247 Y102.527 E17.22715
G1 X37.536 Y102.374 E17.25137
G1 X37.155 Y102.309 E17.26425
G1 X36.458 Y102.217 E17.28767
G1 X36.092 Y102.183 E17.29991
G1 X35.728 Y102.158 E17.31206
G1 X35.359 Y102.143 E17.32437
G1 X34.635 Y102.143 E17.34848
G1 X33.909 Y102.182 E17.3727
G1 X33.185 Y102.259 E17.39695
G1 X32.467 Y102.373 E17.42117
G1 X31.755 Y102.527 E17.44544
G1 X31.052 Y102.717 E17.46969
G1 X30.654 Y102.85 E17.48367
G1 X22.345 Y99.191 E17.7861
G1 X20.76 Y96.759 E17.88279
G1 X20.76 Y87.932 E18.17682
G1 X20.814 Y87.802 E18.18151
G1 X20.892 Y87.583 E18.18926
G1 X20.975 Y87.29 E18.1994
G1 X21.03 Y87.039 E18.20796
G1 X21.075 Y86.741 E18.218
G1 X21.098 Y86.515 E18.22556
G1 X21.108 Y86.303 E18.23263
G1 X21.106 Y85.975 E18.24356
G1 X21.089 Y85.742 E18.25134
G1 X21.05 Y85.45 E18.26116
G1 X20.982 Y85.101 E18.273
G1 X20.823 Y84.591 E18.29079
G1 X20.76 Y84.44 E18.29624
G1 X20.76 Y78.386 E18.49791
G1 X20.845 Y77.474 E18.52842
G1 X20.922 Y76.524 E18.56016
G1 X20.985 Y75.572 E18.59195
G1 X21.035 Y74.618 E18.62377
G1 X21.071 Y73.666 E18.6555
G1 X21.094 Y72.712 E18.68729
G1 X21.104 Y71.758 E18.71907
G1 X21.101 Y70.804 E18.75085
G1 X21.084 Y69.851 E18.7826
G1 X21.054 Y68.897 E18.81439
G1 X21.011 Y67.944 E18.84617
G1 X20.954 Y66.991 E18.87797
G1 X20.884 Y66.04 E18.90973
G1 X20.802 Y65.09 E18.9415
G1 X20.706 Y64.14 E18.9733
G1 X20.596 Y63.193 E19.00506
G1 X20.391 Y61.598 E19.05863
G1 X15.706 Y61.597 E19.21468
G1 X15.521 Y61.565 E19.22094
G1 X15.384 Y61.501 E19.22598
G1 X15.296 Y61.437 E19.2296
G1 X15.198 Y61.33 E19.23443
G1 X15.138 Y61.227 E19.2384
G1 X15.094 Y61.109 E19.2426
G1 X15.075 Y60.977 E19.24704
G1 X15.078 Y59.676 E19.29038
G1 X15.128 Y59.49 E19.29679
G1 X15.188 Y59.381 E19.30094
G1 X15.263 Y59.291 E19.30484
G1 X15.351 Y59.215 E19.30871
G1 X15.478 Y59.147 E19.31351
G1 X15.599 Y59.111 E19.31772
G0 F2625 X15.387 Y58.649
;TYPE:WALL-OUTER
G1 F900 X15.501 Y58.62 E19.32164
G1 X15.603 Y58.605 E19.32507
G1 X15.736 Y58.598 E19.32951
G1 X23.983 Y58.598 E19.60422
G1 X26.456 Y67.339 E19.90681
G1 X26.457 Y88.132 E20.59943
G1 X26.469 Y88.455 E20.6102
G1 X26.494 Y88.778 E20.62099
G1 X26.531 Y89.099 E20.63176
G1 X26.58 Y89.418 E20.64251
G1 X26.64 Y89.736 E20.65329
G1 X26.713 Y90.051 E20.66406
G1 X26.798 Y90.363 E20.67483
G1 X26.894 Y90.672 E20.68561
G1 X27.002 Y90.977 E20.69638
G1 X27.121 Y91.278 E20.70717
G1 X27.252 Y91.574 E20.71795
G1 X27.394 Y91.864 E20.7287
G1 X27.547 Y92.148 E20.73945
G1 X27.711 Y92.428 E20.75026
G1 X27.885 Y92.7 E20.76101
G1 X28.068 Y92.966 E20.77177
G1 X28.263 Y93.225 E20.78257
G1 X28.467 Y93.476 E20.79334
G1 X28.679 Y93.719 E20.80408
G1 X28.902 Y93.954 E20.81488
G1 X29.132 Y94.181 E20.82564
G1 X29.371 Y94.398 E20.83639
G1 X29.618 Y94.607 E20.84717
G1 X29.874 Y94.806 E20.85797
G1 X30.136 Y94.995 E20.86873
G1 X30.406 Y95.174 E20.87952
G1 X30.682 Y95.343 E20.8903
G1 X30.964 Y95.5 E20.90106
G1 X31.251 Y95.648 E20.91181
G1 X31.545 Y95.785 E20.92262
G1 X31.843 Y95.909 E20.93337
G1 X32.145 Y96.024 E20.94413
G1 X32.452 Y96.126 E20.95491
G1 X32.763 Y96.216 E20.96569
G1 X33.077 Y96.295 E20.97648
G1 X33.393 Y96.362 E20.98724
G1 X33.711 Y96.417 E20.99799
G1 X34.032 Y96.459 E21.00877
G1 X34.354 Y96.49 E21.01955
G1 X34.677 Y96.508 E21.03032
G1 X35 Y96.514 E21.04108
G1 X35.323 Y96.508 E21.05185
G1 X35.646 Y96.49 E21.06262
G1 X35.968 Y96.459 E21.0734
G1 X36.289 Y96.417 E21.08418
G1 X36.607 Y96.362 E21.09493
G1 X36.923 Y96.295 E21.10569
G1 X37.237 Y96.216 E21.11648
G1 X37.548 Y96.126 E21.12726
G1 X37.855 Y96.024 E21.13804
G1 X38.455 Y95.785 E21.15955
G1 X38.749 Y95.648 E21.17035
G1 X39.036 Y95.5 E21.18111
G1 X39.318 Y95.343 E21.19186
G1 X39.594 Y95.174 E21.20264
G1 X39.864 Y94.995 E21.21343
G1 X40.126 Y94.806 E21.22419
G1 X40.382 Y94.607 E21.23499
G1 X40.629 Y94.398 E21.24577
G1 X40.868 Y94.181 E21.25653
G1 X41.098 Y93.954 E21.26729
G1 X41.321 Y93.719 E21.27808
G1 X41.533 Y93.476 E21.28882
G1 X41.737 Y93.225 E21.2996
G1 X41.932 Y92.966 E21.3104
G1 X42.115 Y92.7 E21.32115
G1 X42.289 Y92.428 E21.33191
G1 X42.453 Y92.148 E21.34272
G1 X42.606 Y91.864 E21.35346
G1 X42.748 Y91.574 E21.36422
G1 X42.879 Y91.278 E21.375
G1 X42.998 Y90.977 E21.38578
G1 X43.106 Y90.672 E21.39656
G1 X43.202 Y90.363 E21.40734
G1 X43.287 Y90.051 E21.41811
G1 X43.36 Y89.736 E21.42888
G1 X43.42 Y89.418 E21.43966
G1 X43.469 Y89.099 E21.45041
G1 X43.506 Y88.778 E21.46117
G1 X43.531 Y88.455 E21.47197
G1 X43.543 Y88.132 E21.48273
G1 X43.544 Y67.339 E22.17535
G1 X46.017 Y58.598 E22.47795
G1 X54.264 Y58.598 E22.75266
G1 X54.397 Y58.605 E22.7571
G1 X54.499 Y58.62 E22.76053
G1 X54.712 Y58.684 E22.76794
G1 X54.818 Y58.734 E22.77184
G1 X54.923 Y58.796 E22.7759
G1 X55.09 Y58.936 E22.78316
G1 X55.164 Y59.017 E22.78682
G1 X55.232 Y59.109 E22.79063
G1 X55.291 Y59.208 E22.79447
G1 X55.341 Y59.313 E22.79834
G1 X55.376 Y59.412 E22.80184
G1 X55.405 Y59.526 E22.80576
G1 X55.42 Y59.624 E22.80906
G1 X55.427 Y59.761 E22.81363
G1 X55.425 Y61.003 E22.855
G1 X55.414 Y61.12 E22.85892
G1 X55.393 Y61.227 E22.86255
G1 X55.36 Y61.333 E22.86625
G1 X55.263 Y61.541 E22.87389
G1 X55.129 Y61.72 E22.88134
G1 X55.047 Y61.802 E22.8852
G1 X54.965 Y61.869 E22.88873
G1 X54.86 Y61.939 E22.89293
G1 X54.772 Y61.986 E22.89626
G1 X54.661 Y62.032 E22.90026
G1 X54.553 Y62.065 E22.90402
G1 X54.454 Y62.084 E22.90738
G1 X54.33 Y62.097 E22.91153
G1 X50.049 Y62.098 E23.05413
